;FLAVOR:UltiGCode
;TIME:6446
;MATERIAL:11916
;MATERIAL2:0
;NOZZLE_DIAMETER:0.4
;Generated with Cura_SteamEngine 3.6.0
M82 ;absolute extrusion mode

G92 E0
G10
;LAYER_COUNT:88
;LAYER:0
M107
G0 F4500 X54.432 Y96.89 Z0.27
;TYPE:SKIRT
G11
G1 F1800 X54.873 Y96.645 E0.04767
G1 X55.346 Y96.473 E0.09524
G1 X55.84 Y96.378 E0.14277
G1 X56.172 Y96.359 E0.1742
G1 X68.799 Y96.287 E1.36747
G1 X74.272 Y95.976 E1.8855
G1 X79.729 Y95.356 E2.40451
G1 X85.131 Y94.43 E2.92244
G1 X87.762 Y93.863 E3.17678
G1 X90.436 Y93.208 E3.43694
G1 X95.706 Y91.676 E3.95557
G1 X100.885 Y89.846 E4.47465
G1 X105.927 Y87.738 E4.99108
G1 X110.862 Y85.337 E5.5097
G1 X114.249 Y83.486 E5.87445
G1 X114.709 Y83.28 E5.92208
G1 X115.265 Y83.138 E5.97631
G1 X115.877 Y83.039 E6.0349
G1 X116.379 Y82.998 E6.0825
G1 X116.881 Y83.037 E6.13008
G1 X117.308 Y83.135 E6.17148
G1 X120.751 Y84.182 E6.51155
G1 X121.065 Y84.296 E6.54312
G1 X127.455 Y87.002 E7.19889
G1 X127.541 Y87.04 E7.20777
G1 X130.301 Y88.307 E7.49476
G1 X135.392 Y90.38 E8.01422
G1 X140.578 Y92.156 E8.53224
G1 X145.881 Y93.644 E9.05272
G1 X148.537 Y94.27 E9.31059
G1 X151.168 Y94.809 E9.56439
G1 X156.594 Y95.686 E10.0838
G1 X163.488 Y96.379 E10.73856
G1 X163.984 Y96.469 E10.7862
G1 X164.459 Y96.636 E10.83378
G1 X164.995 Y96.94 E10.89201
G1 X165.324 Y97.171 E10.93
G1 X165.712 Y97.492 E10.97759
G1 X166.045 Y97.87 E11.0252
G1 X166.313 Y98.296 E11.07276
G1 X166.442 Y98.576 E11.10189
G1 X166.5 Y98.719 E11.11647
G1 X166.652 Y99.199 E11.16405
G1 X166.733 Y99.911 E11.23177
G1 X166.734 Y104.957 E11.70862
G1 X166.719 Y105.268 E11.73804
G1 X166.19 Y110.653 E12.24937
G1 X165.962 Y116.102 E12.76475
G1 X166.044 Y121.598 E13.28418
G1 X166.437 Y127.091 E13.8046
G1 X166.722 Y129.687 E14.0514
G1 X166.741 Y130.026 E14.08348
G1 X166.75 Y134.163 E14.47443
G1 X166.727 Y134.554 E14.51144
G1 X166.608 Y135.531 E14.60445
G1 X166.507 Y136.024 E14.65201
G1 X166.33 Y136.496 E14.69964
G1 X166.081 Y136.933 E14.74717
G1 X165.765 Y137.326 E14.79483
G1 X165.392 Y137.664 E14.8424
G1 X164.97 Y137.938 E14.88994
G1 X164.509 Y138.142 E14.93758
G1 X164.022 Y138.271 E14.98519
G1 X163.771 Y138.306 E15.00914
G1 X162.587 Y138.424 E15.12158
G1 X162.271 Y138.44 E15.15148
G1 X134.157 Y138.43 E17.80826
G1 X133.942 Y138.423 E17.82859
G1 X132.283 Y138.31 E17.98572
G1 X132.104 Y138.292 E18.00272
G1 X125.253 Y137.432 E18.65523
G1 X119.783 Y137.064 E19.17331
G1 X114.311 Y137.005 E19.69044
G1 X108.824 Y137.258 E20.20952
G1 X103.354 Y137.819 E20.72914
G1 X99.338 Y138.345 E21.1119
G1 X98.93 Y138.372 E21.15054
G1 X56.261 Y138.422 E25.18276
G1 X55.759 Y138.383 E25.23034
G1 X55.269 Y138.264 E25.27799
G1 X54.805 Y138.07 E25.32552
G1 X54.431 Y137.844 E25.36681
G1 X54.266 Y137.728 E25.38587
G1 X53.878 Y137.407 E25.43346
G1 X53.546 Y137.028 E25.48107
G1 X53.278 Y136.602 E25.52863
G1 X53.081 Y136.139 E25.57618
G1 X52.96 Y135.65 E25.62379
G1 X52.917 Y135.148 E25.6714
G1 X52.888 Y129.618 E26.19399
G1 X52.908 Y129.25 E26.22882
G1 X53.16 Y126.991 E26.44362
G1 X53.55 Y121.495 E26.9643
G1 X53.629 Y116.003 E27.48335
G1 X53.398 Y110.53 E28.00101
G1 X52.89 Y105.09 E28.51732
G1 X52.876 Y104.789 E28.5458
G1 X52.885 Y99.648 E29.03162
G1 X52.926 Y99.147 E29.07912
G1 X53.045 Y98.657 E29.12678
G1 X53.241 Y98.193 E29.17438
G1 X53.507 Y97.766 E29.22192
G1 X53.906 Y97.321 E29.2784
G1 X54.036 Y97.201 E29.29512
G1 X54.432 Y96.89 E29.3427
G10
G0 F4500 X55.38 Y105.155
G0 X55.472 Y105.447
G0 X55.771 Y105.789
G0 X56.066 Y105.902
G0 X76.584 Y106.109
;TYPE:SUPPORT
G11
G1 F1800 X81.986 Y106.109 E29.85319
G1 X80.352 Y107.111 E30.03432
G1 X80.163 Y107.345 E30.06275
G1 X79.903 Y107.379 E30.08753
G1 X79.786 Y107.447 E30.10031
G1 X79.642 Y107.419 E30.11418
G1 X79.488 Y107.32 E30.13148
G1 X78.47 Y107.275 E30.22777
G1 X78.17 Y107.295 E30.25619
G1 X77.242 Y107.474 E30.3455
G1 X76.994 Y107.332 E30.3725
G1 X76.87 Y107.322 E30.38426
G1 X76.874 Y106.401 E30.4713
G1 X76.584 Y106.109 E30.51019
G0 F4500 X79.322 Y106.249
G1 F1800 X79.322 Y107.172 E30.59741
G10
G0 F4500 X56.136 Y105.929
G0 X55.771 Y105.789
G0 X55.472 Y105.447
G0 X55.38 Y105.155
G0 X55.381 Y99.454
G0 X55.688 Y98.999
G0 X55.949 Y98.906
G0 X115.842 Y86.712
G11
G1 F1800 X115.792 Y86.584 E30.6104
G1 X115.819 Y86.465 E30.62193
G1 X115.908 Y86.387 E30.63311
G1 X115.962 Y86.359 E30.63886
G1 X116.144 Y86.338 E30.65617
G1 X116.375 Y86.338 E30.678
G1 X117.258 Y86.628 E30.76583
G1 X116.919 Y87.292 E30.83628
G1 X116.492 Y87.2 E30.87756
G1 X115.93 Y86.818 E30.94178
G1 X115.842 Y86.712 E30.95479
G0 F4500 X116.65 Y86.576
G1 F1800 X116.65 Y87.091 E31.00346
G10
G0 F4500 X117.464 Y86.629
G0 X118.057 Y86.54
G0 X119.995 Y86.552
G0 X163.501 Y98.918
G0 X163.835 Y99.116
G0 X164.1 Y99.422
G0 X164.241 Y99.802
G0 X164.244 Y104.994
G0 X164.115 Y105.402
G0 X163.919 Y105.654
G0 X163.671 Y105.829
G0 X163.417 Y105.914
G0 X150.141 Y106.112
G11
G1 F1800 X155.413 Y106.113 E31.50167
G1 X155.127 Y106.401 E31.54002
G1 X155.131 Y107.334 E31.62819
G1 X154.933 Y107.351 E31.64697
G1 X154.695 Y107.456 E31.67155
G1 X153.578 Y107.257 E31.77877
G1 X153.06 Y107.317 E31.82805
G1 X152.287 Y107.471 E31.90253
G1 X152.145 Y107.381 E31.91842
G1 X151.864 Y107.351 E31.94513
G1 X151.701 Y107.089 E31.97429
G1 X150.141 Y106.112 E32.14823
G0 F4500 X151.645 Y106.253
G1 F1800 X151.645 Y106.889 E32.20833
G0 F4500 X153.978 Y107.185
G1 F1800 X153.978 Y106.253 E32.29641
G10
;MESH:Nut_Trap_Burly.STL
G0 F4500 X153.978 Y104.74
G0 X115.939 Y98.505
G0 X115.993 Y98.589
;TYPE:WALL-INNER
G11
G1 F1800 X115.823 Y98.813 E32.32298
G1 X115.817 Y98.831 E32.32477
G1 X115.75 Y99.03 E32.34462
G1 X115.731 Y99.175 E32.35844
G1 X115.744 Y99.347 E32.37474
G1 X115.797 Y99.529 E32.39265
G1 X115.921 Y99.734 E32.41529
G1 X116.101 Y99.89 E32.4378
G1 X116.288 Y99.986 E32.45766
G1 X116.514 Y100.025 E32.47934
G1 X162.85 Y100.026 E36.85809
G1 X162.995 Y100.026 E36.87179
G1 X163.054 Y100.04 E36.87752
G1 X163.054 Y100.185 E36.89122
G1 X163.051 Y104.74 E37.32167
G1 X134.092 Y104.741 E40.0583
G1 X133.795 Y104.734 E40.08637
G1 X133.096 Y104.684 E40.1526
G1 X132.43 Y104.615 E40.21587
G1 X131.672 Y104.516 E40.28811
G1 X130.731 Y104.379 E40.37797
G1 X127.503 Y103.871 E40.68677
G1 X125.733 Y103.632 E40.85555
G1 X122.489 Y103.3 E41.16371
G1 X119.23 Y103.1 E41.47227
G1 X115.967 Y103.035 E41.78068
G1 X112.704 Y103.103 E42.0891
G1 X109.445 Y103.305 E42.39767
G1 X106.234 Y103.635 E42.70271
G1 X104.523 Y103.866 E42.86586
G1 X101.37 Y104.364 E43.16752
G1 X100.049 Y104.555 E43.29365
G1 X99.45 Y104.629 E43.35069
G1 X98.683 Y104.702 E43.42349
G1 X98.177 Y104.734 E43.47141
G1 X97.833 Y104.74 E43.50392
G1 X56.575 Y104.74 E47.4028
G1 X56.575 Y100.028 E47.84809
G1 X111.973 Y100.025 E53.0832
G1 X112.16 Y100.001 E53.10101
G1 X115.676 Y98.514 E53.46177
G1 X115.693 Y98.507 E53.4624
G1 X115.917 Y98.412 E53.47937
G1 X116.136 Y98.319 E53.50186
G1 X125.92 Y94.18 E54.50578
G1 X126.076 Y94.096 E54.52252
G1 X126.221 Y94.002 E54.53885
G1 X126.362 Y93.895 E54.55558
G1 X126.49 Y93.774 E54.57222
G1 X126.608 Y93.645 E54.58874
G1 X126.713 Y93.506 E54.6052
G1 X126.808 Y93.359 E54.62174
G1 X126.89 Y93.2 E54.63865
G1 X126.955 Y93.038 E54.65515
G1 X126.958 Y93.028 E54.65613
G1 X127.007 Y92.872 E54.67158
G1 X127.045 Y92.7 E54.68823
G1 X127.068 Y92.525 E54.70491
G1 X127.075 Y92.35 E54.72146
G1 X127.068 Y92.175 E54.73801
G1 X127.045 Y92 E54.75469
G1 X127.007 Y91.828 E54.77134
G1 X126.955 Y91.662 E54.78778
G1 X126.89 Y91.5 E54.80427
G1 X126.885 Y91.49 E54.80533
G1 X126.814 Y91.351 E54.82008
G1 X126.808 Y91.341 E54.82118
G1 X126.713 Y91.194 E54.83772
G1 X126.608 Y91.055 E54.85418
G1 X126.49 Y90.926 E54.8707
G1 X126.362 Y90.805 E54.88735
G1 X126.221 Y90.698 E54.90408
G1 X126.076 Y90.604 E54.92041
G1 X125.92 Y90.52 E54.93715
G1 X119.675 Y87.877 E55.57798
G1 X119.347 Y87.738 E55.61164
G1 X119.734 Y87.739 E55.62119
G1 X125.973 Y90.381 E55.8936
G1 X125.988 Y90.389 E55.8952
G1 X126.145 Y90.472 E55.90233
G1 X126.156 Y90.478
G1 X126.307 Y90.576 E55.90979
G1 X126.459 Y90.694 E55.91786
G1 X126.591 Y90.816 E55.92524
G1 X126.601 Y90.825
G1 X126.717 Y90.954 E55.93217
G1 X126.725 Y90.965
G1 X126.834 Y91.108 E55.93944
G1 X126.932 Y91.262 E55.9469
G1 X126.946 Y91.284
G1 X127.017 Y91.421 E55.95301
G1 X127.026 Y91.444 E55.95436
G1 X127.092 Y91.605 E55.96134
G1 X127.101 Y91.625
G1 X127.152 Y91.789 E55.96855
G1 X127.192 Y91.975 E55.97656
G1 X127.215 Y92.149 E55.98387
G1 X127.215 Y92.168
G1 X127.224 Y92.349 E55.99127
G1 X127.216 Y92.531 E55.99877
G1 X127.215 Y92.552
G1 X127.193 Y92.724 E56.00601
G1 X127.152 Y92.911 E56.01417
G1 X127.102 Y93.072 E56.0213
G1 X127.093 Y93.094
G1 X127.027 Y93.256 E56.02826
G1 X127.02 Y93.272
G1 X126.943 Y93.42 E56.03457
G1 X126.933 Y93.436
G1 X126.834 Y93.592 E56.04215
G1 X126.726 Y93.734 E56.04948
G1 X126.717 Y93.746
G1 X126.601 Y93.875 E56.0564
G1 X126.592 Y93.883
G1 X126.459 Y94.006 E56.06375
G1 X126.307 Y94.124 E56.0718
G1 X126.156 Y94.222 E56.07921
G1 X126.147 Y94.227
G1 X125.99 Y94.31 E56.08634
G1 X125.973 Y94.319 E56.08763
G1 X116.196 Y98.458 E56.51602
G1 X115.993 Y98.589 E56.52733
G0 F4500 X116.217 Y98.831
;TYPE:WALL-OUTER
G1 F1800 X116.114 Y98.967 E56.54345
G1 X116.068 Y99.103 E56.55702
G1 X116.058 Y99.183 E56.56464
G1 X116.066 Y99.289 E56.57468
G1 X116.097 Y99.397 E56.5853
G1 X116.173 Y99.522 E56.59913
G1 X116.284 Y99.619 E56.61306
G1 X116.392 Y99.674 E56.62451
G1 X116.542 Y99.7 E56.6389
G1 X163.029 Y99.701 E61.03192
G1 X163.166 Y99.73 E61.04515
G1 X163.265 Y99.785 E61.05585
G1 X163.335 Y99.861 E61.06562
G1 X163.374 Y99.959 E61.07558
G1 X163.379 Y100.002 E61.07968
G1 X163.376 Y104.86 E61.53876
G1 X163.359 Y104.94 E61.54649
G1 X163.342 Y104.98 E61.55059
G1 X163.317 Y105.015 E61.55466
G1 X163.278 Y105.045 E61.55931
G1 X163.227 Y105.065 E61.56448
G1 X134.084 Y105.066 E64.3185
G1 X133.786 Y105.059 E64.34667
G1 X133.069 Y105.008 E64.41459
G1 X132.396 Y104.938 E64.47854
G1 X131.625 Y104.838 E64.55201
G1 X130.684 Y104.701 E64.64187
G1 X127.456 Y104.193 E64.95067
G1 X125.695 Y103.955 E65.1186
G1 X122.462 Y103.624 E65.42571
G1 X119.217 Y103.425 E65.73294
G1 X115.967 Y103.36 E66.04013
G1 X112.717 Y103.428 E66.34732
G1 X109.472 Y103.629 E66.65456
G1 X106.272 Y103.958 E66.95855
G1 X104.57 Y104.188 E67.12085
G1 X101.417 Y104.686 E67.42251
G1 X100.089 Y104.878 E67.54931
G1 X99.485 Y104.953 E67.60682
G1 X98.714 Y105.026 E67.68001
G1 X98.183 Y105.059 E67.73028
G1 X97.839 Y105.065 E67.7628
G1 X56.312 Y105.065 E71.6871
G1 X56.268 Y105.048 E71.69156
G1 X56.25 Y105.022 E71.69454
G1 X56.25 Y99.718 E72.19577
G1 X56.287 Y99.703 E72.19955
G1 X111.952 Y99.7 E77.45989
G1 X112.074 Y99.684 E77.47152
G1 X125.78 Y93.886 E78.87786
G1 X125.911 Y93.816 E78.89189
G1 X126.034 Y93.736 E78.90576
G1 X126.151 Y93.647 E78.91965
G1 X126.258 Y93.546 E78.93355
G1 X126.358 Y93.437 E78.94753
G1 X126.446 Y93.32 E78.96137
G1 X126.526 Y93.196 E78.97531
G1 X126.594 Y93.064 E78.98934
G1 X126.649 Y92.928 E79.00321
G1 X126.693 Y92.788 E79.01708
G1 X126.725 Y92.644 E79.03102
G1 X126.744 Y92.497 E79.04502
G1 X126.75 Y92.35 E79.05893
G1 X126.744 Y92.203 E79.07283
G1 X126.725 Y92.056 E79.08684
G1 X126.693 Y91.912 E79.10078
G1 X126.649 Y91.772 E79.11464
G1 X126.594 Y91.636 E79.12851
G1 X126.526 Y91.504 E79.14254
G1 X126.446 Y91.38 E79.15648
G1 X126.358 Y91.263 E79.17032
G1 X126.258 Y91.154 E79.1843
G1 X126.151 Y91.053 E79.1982
G1 X126.034 Y90.964 E79.21209
G1 X125.911 Y90.884 E79.22596
G1 X125.78 Y90.814 E79.24
G1 X118.557 Y87.756 E79.98122
G1 X118.336 Y87.663 E80.00388
G1 X118.223 Y87.605 E80.01588
G1 X118.095 Y87.51 E80.03095
G1 X118.051 Y87.461 E80.03717
G1 X118.043 Y87.445 E80.03886
G1 X118.031 Y87.422 E80.04131
G1 X118.045 Y87.421
G1 X118.081 Y87.415
G1 X118.11 Y87.41
G1 X118.223 Y87.41 E80.04493
G1 X118.336 Y87.41 E80.05013
G1 X118.576 Y87.41 E80.06974
G1 X119.8 Y87.414 E80.18541
G1 X126.117 Y90.089 E80.83368
G1 X126.322 Y90.198 E80.85562
G1 X126.492 Y90.308 E80.87476
G1 X126.667 Y90.444 E80.8957
G1 X126.833 Y90.597 E80.91703
G1 X126.971 Y90.75 E80.9365
G1 X127.102 Y90.922 E80.95694
G1 X127.224 Y91.115 E80.97851
G1 X127.316 Y91.292 E80.99736
G1 X127.402 Y91.501 E81.01872
G1 X127.466 Y91.707 E81.03911
G1 X127.513 Y91.921 E81.05981
G1 X127.54 Y92.125 E81.07926
G1 X127.55 Y92.35 E81.10054
G1 X127.54 Y92.573 E81.12164
G1 X127.513 Y92.779 E81.14127
G1 X127.466 Y92.993 E81.16197
G1 X127.403 Y93.196 E81.18206
G1 X127.317 Y93.405 E81.20342
G1 X127.224 Y93.585 E81.22256
G1 X127.102 Y93.778 E81.24414
G1 X126.971 Y93.95 E81.26457
G1 X126.833 Y94.103 E81.28404
G1 X126.667 Y94.256 E81.30538
G1 X126.492 Y94.392 E81.32632
G1 X126.322 Y94.502 E81.34546
G1 X126.117 Y94.611 E81.3674
G1 X116.348 Y98.747 E82.3699
G1 X116.217 Y98.831 E82.3846
G0 F4500 X116.114 Y98.967
G0 X116.105 Y98.995
G0 X115.412 Y98.995
;TYPE:SKIN
G1 F1800 X115.389 Y99.165 E82.40081
G1 X115.408 Y99.407 E82.42375
G1 X115.483 Y99.667 E82.44933
G1 X115.658 Y99.956 E82.48125
G1 X115.909 Y100.174 E82.51267
G1 X116.179 Y100.312 E82.54132
G1 X116.485 Y100.365 E82.57067
G1 X162.714 Y100.366 E86.93931
G1 X162.711 Y104.4 E87.32053
G1 X134.1 Y104.401 E90.02427
G1 X133.819 Y104.394 E90.05083
G1 X133.12 Y104.344 E90.11705
G1 X132.517 Y104.283 E90.17433
G1 X131.634 Y104.168 E90.25847
G1 X130.784 Y104.043 E90.33966
G1 X127.552 Y103.535 E90.64884
G1 X125.773 Y103.294 E90.81849
G1 X122.516 Y102.962 E91.12787
G1 X119.244 Y102.76 E91.43766
G1 X115.967 Y102.695 E91.7474
G1 X112.69 Y102.763 E92.05714
G1 X109.417 Y102.967 E92.36704
G1 X106.194 Y103.297 E92.67321
G1 X104.474 Y103.53 E92.83723
G1 X101.317 Y104.028 E93.13926
G1 X100.008 Y104.217 E93.26424
G1 X99.409 Y104.291 E93.32128
G1 X98.662 Y104.362 E93.39219
G1 X98.156 Y104.394 E93.4401
G1 X97.827 Y104.4 E93.47119
G1 X56.915 Y104.4 E97.33738
G1 X56.915 Y100.368 E97.7184
G1 X111.994 Y100.365 E102.92337
G1 X112.249 Y100.333 E102.94765
G1 X115.412 Y98.995 E103.2722
G0 F4500 X115.891 Y99.76
G0 X116.278 Y100.024
G0 X162.556 Y100.684
G1 F1800 X162.394 Y100.523 E103.29378
G0 F4500 X161.899 Y100.523
G1 F1800 X162.556 Y101.179 E103.38152
G0 F4500 X162.555 Y101.673
G1 F1800 X161.404 Y100.523 E103.53528
G0 F4500 X160.909 Y100.523
G1 F1800 X162.555 Y102.168 E103.75519
G0 F4500 X162.554 Y102.662
G1 F1800 X160.414 Y100.523 E104.04112
G0 F4500 X159.919 Y100.523
G1 F1800 X162.554 Y103.157 E104.3932
G0 F4500 X162.553 Y103.651
G1 F1800 X159.425 Y100.523 E104.81124
G0 F4500 X158.93 Y100.523
G1 F1800 X162.553 Y104.146 E105.29543
G0 F4500 X162.154 Y104.242
G1 F1800 X158.435 Y100.523 E105.79244
G0 F4500 X157.94 Y100.523
G1 F1800 X161.659 Y104.242 E106.28946
G0 F4500 X161.164 Y104.242
G1 F1800 X157.445 Y100.523 E106.78648
G0 F4500 X156.95 Y100.523
G1 F1800 X160.669 Y104.242 E107.2835
G0 F4500 X160.174 Y104.242
G1 F1800 X156.455 Y100.523 E107.78052
G0 F4500 X155.96 Y100.523
G1 F1800 X159.679 Y104.242 E108.27754
G0 F4500 X159.184 Y104.242
G1 F1800 X155.465 Y100.523 E108.77456
G0 F4500 X154.97 Y100.523
G1 F1800 X158.689 Y104.242 E109.27158
G0 F4500 X158.194 Y104.242
G1 F1800 X154.475 Y100.523 E109.7686
G0 F4500 X153.98 Y100.523
G1 F1800 X157.699 Y104.242 E110.26562
G0 F4500 X157.204 Y104.242
G1 F1800 X153.485 Y100.523 E110.76263
G0 F4500 X152.99 Y100.523
G1 F1800 X156.709 Y104.242 E111.25965
G0 F4500 X156.214 Y104.242
G1 F1800 X152.495 Y100.523 E111.75667
G0 F4500 X152 Y100.523
G1 F1800 X155.719 Y104.242 E112.25369
G0 F4500 X155.224 Y104.242
G1 F1800 X151.505 Y100.523 E112.75071
G0 F4500 X151.01 Y100.523
G1 F1800 X154.729 Y104.242 E113.24773
G0 F4500 X154.234 Y104.242
G1 F1800 X150.515 Y100.523 E113.74475
G0 F4500 X150.02 Y100.523
G1 F1800 X153.739 Y104.242 E114.24177
G0 F4500 X153.244 Y104.242
G1 F1800 X149.525 Y100.523 E114.73879
G0 F4500 X149.03 Y100.523
G1 F1800 X152.749 Y104.242 E115.23581
G0 F4500 X152.254 Y104.242
G1 F1800 X148.535 Y100.523 E115.73282
G0 F4500 X148.04 Y100.523
G1 F1800 X151.759 Y104.242 E116.22984
G0 F4500 X151.264 Y104.242
G1 F1800 X147.545 Y100.523 E116.72686
G0 F4500 X147.05 Y100.523
G1 F1800 X150.77 Y104.242 E117.22395
G0 F4500 X150.275 Y104.242
G1 F1800 X146.555 Y100.523 E117.72103
G0 F4500 X146.06 Y100.523
G1 F1800 X149.78 Y104.242 E118.21812
G0 F4500 X149.285 Y104.242
G1 F1800 X145.565 Y100.523 E118.71521
G0 F4500 X145.07 Y100.523
G1 F1800 X148.79 Y104.242 E119.21229
G0 F4500 X148.295 Y104.243
