;FLAVOR:UltiGCode
;TIME:2578
;MATERIAL:5487
;MATERIAL2:0
;NOZZLE_DIAMETER:0.4
;Generated with Cura_SteamEngine 3.6.0
M82 ;absolute extrusion mode

G92 E0
G10
;LAYER_COUNT:133
;LAYER:0
M107
G0 F4500 X89.847 Y101.741 Z0.27
;TYPE:SKIRT
G11
G1 F1800 X90.249 Y101.394 E0.05018
G1 X90.699 Y101.112 E0.10037
G1 X91.26 Y100.876 E0.15788
G1 X91.942 Y100.656 E0.2256
G1 X92.458 Y100.532 E0.27575
G1 X93.024 Y100.486 E0.32942
G1 X130.129 Y100.485 E3.83584
G1 X130.879 Y100.566 E3.90713
G1 X131.297 Y100.657 E3.94755
G1 X131.805 Y100.808 E3.99763
G1 X132.285 Y101.034 E4.04777
G1 X132.706 Y101.314 E4.09555
G1 X133.07 Y101.596 E4.13906
G1 X133.464 Y101.952 E4.18924
G1 X133.8 Y102.363 E4.23941
G1 X134.083 Y102.846 E4.29231
G1 X134.271 Y103.234 E4.33306
G1 X134.466 Y103.728 E4.38324
G1 X134.585 Y104.245 E4.43338
G1 X134.624 Y104.77 E4.48313
G1 X134.629 Y118.151 E5.74763
G1 X134.589 Y118.68 E5.79777
G1 X134.471 Y119.197 E5.84788
G1 X134.275 Y119.691 E5.8981
G1 X134.146 Y119.933 E5.92402
G1 X133.821 Y120.488 E5.98479
G1 X133.519 Y120.925 E6.03499
G1 X133.155 Y121.311 E6.08513
G1 X132.737 Y121.638 E6.13528
G1 X132.438 Y121.817 E6.16821
G1 X132.035 Y122.032 E6.21138
G1 X131.55 Y122.246 E6.26147
G1 X131.037 Y122.384 E6.31168
G1 X130.379 Y122.447 E6.37414
G1 X92.911 Y122.478 E9.91487
G1 X92.382 Y122.438 E9.965
G1 X91.961 Y122.348 E10.00569
G1 X91.409 Y122.194 E10.05984
G1 X90.91 Y122.014 E10.10997
G1 X90.444 Y121.76 E10.16013
G1 X90.021 Y121.44 E10.21025
G1 X89.64 Y121.046 E10.26204
G1 X89.285 Y120.617 E10.31466
G1 X88.979 Y120.184 E10.36477
G1 X88.741 Y119.71 E10.41489
G1 X88.576 Y119.205 E10.4651
G1 X88.482 Y118.572 E10.52557
G1 X88.408 Y117.283 E10.64758
G1 X88.402 Y117.079 E10.66687
G1 X88.409 Y105.126 E11.79643
G1 X88.438 Y104.68 E11.83866
G1 X88.491 Y104.266 E11.87811
G1 X88.597 Y103.747 E11.92816
G1 X88.781 Y103.249 E11.97833
G1 X89.147 Y102.626 E12.04661
G1 X89.502 Y102.143 E12.10326
G1 X89.847 Y101.741 E12.15332
G0 F4500 X90.113 Y101.97
G1 F1800 X90.499 Y101.646 E12.20095
G1 X90.931 Y101.387 E12.24854
G1 X91.367 Y101.209 E12.29305
G1 X92.049 Y100.989 E12.36077
G1 X92.539 Y100.873 E12.40835
G1 X93.024 Y100.836 E12.45432
G1 X130.129 Y100.835 E15.96074
G1 X130.804 Y100.908 E16.0249
G1 X131.222 Y100.999 E16.06533
G1 X131.704 Y101.144 E16.11289
G1 X132.157 Y101.365 E16.16052
G1 X132.491 Y101.591 E16.19863
G1 X132.855 Y101.873 E16.24215
G1 X133.228 Y102.212 E16.28978
G1 X133.542 Y102.606 E16.33739
G1 X133.768 Y102.999 E16.38023
G1 X133.956 Y103.387 E16.42097
G1 X134.139 Y103.856 E16.46855
G1 X134.246 Y104.348 E16.51613
G1 X134.274 Y104.77 E16.55609
G1 X134.279 Y118.151 E17.8206
G1 X134.239 Y118.653 E17.86819
G1 X134.121 Y119.142 E17.91573
G1 X133.844 Y119.756 E17.97938
G1 X133.519 Y120.311 E18.04016
G1 X133.231 Y120.724 E18.08774
G1 X132.881 Y121.087 E18.13539
G1 X132.273 Y121.508 E18.20528
G1 X131.87 Y121.723 E18.24844
G1 X131.409 Y121.924 E18.29597
G1 X130.921 Y122.05 E18.34359
G1 X130.379 Y122.097 E18.39501
G1 X92.911 Y122.128 E21.93573
G1 X92.409 Y122.088 E21.98332
G1 X92.055 Y122.011 E22.01756
G1 X91.503 Y121.857 E22.07171
G1 X91.03 Y121.684 E22.11931
G1 X90.591 Y121.438 E22.16686
G1 X90.196 Y121.126 E22.21443
G1 X89.91 Y120.823 E22.2538
G1 X89.555 Y120.394 E22.30642
G1 X89.266 Y119.982 E22.35398
G1 X89.045 Y119.529 E22.40161
G1 X88.899 Y119.047 E22.44921
G1 X88.831 Y118.552 E22.49642
G1 X88.757 Y117.263 E22.61843
G1 X88.752 Y117.079 E22.63583
G1 X88.759 Y105.126 E23.76539
G1 X88.785 Y104.725 E23.80336
G1 X88.838 Y104.311 E23.8428
G1 X88.941 Y103.818 E23.8904
G1 X89.121 Y103.348 E23.93796
G1 X89.429 Y102.834 E23.99458
G1 X89.784 Y102.351 E24.05123
G1 X90.113 Y101.97 E24.0988
G10
;MESH:TapeWireGuideMount_v8.stl
G0 F4500 X92.637 Y103.342
G0 X93.054 Y104.544
G0 X130.163 Y104.884
;TYPE:WALL-INNER
G11
G1 F1800 X130.213 Y104.907 E24.104
G1 X130.244 Y104.947 E24.10878
G1 X130.252 Y104.97 E24.11109
G1 X130.262 Y105.055 E24.11917
G1 X130.262 Y117.844 E25.32773
G1 X130.262 Y117.879 E25.33104
G1 X130.252 Y117.968 E25.33951
G1 X130.221 Y118.039 E25.34683
G1 X130.182 Y118.072 E25.35165
G1 X130.077 Y118.089 E25.36171
G1 X130.042 Y118.089 E25.36501
G1 X92.949 Y118.088 E28.8703
G1 X92.84 Y118.075 E28.88068
G1 X92.808 Y118.054 E28.88429
G1 X92.802 Y117.989 E28.89046
G1 X92.801 Y105.065 E30.11178
G1 X92.801 Y105.051 E30.1131
G1 X92.814 Y104.98 E30.11992
G1 X92.86 Y104.93 E30.12634
G1 X92.902 Y104.905 E30.13096
G1 X92.962 Y104.886 E30.13691
G1 X93.07 Y104.875 E30.14717
G1 X93.084 Y104.875 E30.14849
G1 X130.086 Y104.875 E33.64518
G1 X130.163 Y104.884 E33.65251
G0 F4500 X130.24 Y104.54
G1 F1800 X130.342 Y104.575 E33.6627
G1 X130.43 Y104.63 E33.6725
G1 X130.505 Y104.705 E33.68253
G1 X130.561 Y104.793 E33.69238
G1 X130.596 Y104.893 E33.7024
G1 X130.612 Y105.032 E33.71562
G1 X130.612 Y117.9 E34.93164
G1 X130.596 Y118.044 E34.94534
G1 X130.561 Y118.151 E34.95597
G1 X130.5 Y118.254 E34.96729
G1 X130.427 Y118.329 E34.97718
G1 X130.374 Y118.363 E34.98313
G1 X130.342 Y118.385 E34.9868
G1 X130.303 Y118.399 E34.99071
G1 X130.239 Y118.423 E34.99717
G1 X130.1 Y118.439 E35.0104
G1 X92.93 Y118.438 E38.52296
G1 X92.804 Y118.427 E38.53491
G1 X92.717 Y118.404 E38.54342
G1 X92.634 Y118.364 E38.55212
G1 X92.57 Y118.315 E38.55974
G1 X92.52 Y118.256 E38.56705
G1 X92.483 Y118.19 E38.5742
G1 X92.462 Y118.121 E38.58101
G1 X92.452 Y118.009 E38.59164
G1 X92.451 Y105.028 E39.81835
G1 X92.467 Y104.907 E39.82988
G1 X92.503 Y104.813 E39.83939
G1 X92.564 Y104.726 E39.84943
G1 X92.65 Y104.647 E39.86047
G1 X92.759 Y104.584 E39.87237
G1 X92.795 Y104.573 E39.87592
G1 X92.89 Y104.542 E39.88537
G1 X92.926 Y104.539 E39.88878
G1 X93.053 Y104.525 E39.90085
G1 X130.107 Y104.525 E43.40246
G1 X130.24 Y104.54 E43.41511
G0 F4500 X130.311 Y104.221
;TYPE:WALL-OUTER
G1 F1800 X130.482 Y104.28 E43.4322
G1 X130.635 Y104.375 E43.44922
G1 X130.758 Y104.498 E43.46566
G1 X130.855 Y104.651 E43.48278
G1 X130.915 Y104.82 E43.49972
G1 X130.937 Y105.012 E43.51799
G1 X130.937 Y117.916 E44.73741
G1 X130.916 Y118.111 E44.75595
G1 X130.856 Y118.292 E44.77397
G1 X130.761 Y118.45 E44.79139
G1 X130.635 Y118.582 E44.80863
G1 X130.486 Y118.678 E44.82538
G1 X130.316 Y118.741 E44.84252
G1 X130.121 Y118.764 E44.86107
G1 X92.914 Y118.763 E48.37713
G1 X92.752 Y118.749 E48.3925
G1 X92.603 Y118.71 E48.40705
G1 X92.463 Y118.642 E48.42176
G1 X92.345 Y118.551 E48.43584
G1 X92.251 Y118.442 E48.44945
G1 X92.184 Y118.32 E48.4626
G1 X92.141 Y118.181 E48.47635
G1 X92.127 Y118.032 E48.49049
G1 X92.126 Y105.009 E49.72117
G1 X92.15 Y104.824 E49.73879
G1 X92.215 Y104.658 E49.75564
G1 X92.316 Y104.513 E49.77234
G1 X92.456 Y104.384 E49.79033
G1 X92.629 Y104.284 E49.80921
G1 X92.82 Y104.223 E49.82816
G1 X93.038 Y104.2 E49.84888
G1 X130.125 Y104.2 E53.3536
G1 X130.311 Y104.221 E53.37129
G0 F4500 X130.482 Y104.28
G0 X130.499 Y104.29
G0 X130.295 Y104.617
G0 X130.281 Y104.66
G0 X129.922 Y105.215
;TYPE:SKIN
G1 F1800 X129.922 Y117.749 E54.55575
G1 X93.142 Y117.748 E58.03146
G1 X93.141 Y105.215 E59.21583
G1 X129.922 Y105.215 E62.69163
G0 F4500 X129.763 Y105.51
G1 F1800 X129.625 Y105.371 E62.71014
G0 F4500 X129.13 Y105.371
G1 F1800 X129.763 Y106.005 E62.7948
G0 F4500 X129.763 Y106.5
G1 F1800 X128.635 Y105.371 E62.94562
G0 F4500 X128.14 Y105.371
G1 F1800 X129.763 Y106.995 E63.16259
G0 F4500 X129.763 Y107.49
G1 F1800 X127.645 Y105.371 E63.44571
G0 F4500 X127.15 Y105.371
G1 F1800 X129.763 Y107.985 E63.79499
G0 F4500 X129.763 Y108.48
G1 F1800 X126.655 Y105.371 E64.21042
G0 F4500 X126.16 Y105.371
G1 F1800 X129.763 Y108.975 E64.692
G0 F4500 X129.763 Y109.47
G1 F1800 X125.665 Y105.371 E65.23974
G0 F4500 X125.17 Y105.371
G1 F1800 X129.763 Y109.965 E65.85363
G0 F4500 X129.763 Y110.459
G1 F1800 X124.675 Y105.371 E66.53361
G0 F4500 X124.18 Y105.371
G1 F1800 X129.763 Y110.954 E67.27974
G0 F4500 X129.763 Y111.449
G1 F1800 X123.685 Y105.371 E68.09202
G0 F4500 X123.19 Y105.371
G1 F1800 X129.763 Y111.944 E68.97046
G0 F4500 X129.763 Y112.439
G1 F1800 X122.695 Y105.371 E69.91505
G0 F4500 X122.2 Y105.371
G1 F1800 X129.763 Y112.934 E70.92579
G0 F4500 X129.763 Y113.429
G1 F1800 X121.705 Y105.371 E72.00269
G0 F4500 X121.21 Y105.371
G1 F1800 X129.763 Y113.924 E73.14574
G0 F4500 X129.763 Y114.419
G1 F1800 X120.715 Y105.371 E74.35494
G0 F4500 X120.22 Y105.371
G1 F1800 X129.763 Y114.914 E75.6303
G0 F4500 X129.763 Y115.409
G1 F1800 X119.725 Y105.371 E76.97181
G0 F4500 X119.23 Y105.371
G1 F1800 X129.763 Y115.904 E78.37947
G0 F4500 X129.763 Y116.399
G1 F1800 X118.735 Y105.371 E79.85329
G0 F4500 X118.24 Y105.371
G1 F1800 X129.763 Y116.894 E81.39326
G0 F4500 X129.763 Y117.389
G1 F1800 X117.746 Y105.371 E82.99932
G0 F4500 X117.251 Y105.371
G1 F1800 X129.47 Y117.591 E84.63237
G0 F4500 X128.975 Y117.591
G1 F1800 X116.756 Y105.371 E86.26542
G0 F4500 X116.261 Y105.371
G1 F1800 X128.48 Y117.591 E87.89847
G0 F4500 X127.985 Y117.591
G1 F1800 X115.766 Y105.371 E89.53153
G0 F4500 X115.271 Y105.371
G1 F1800 X127.49 Y117.591 E91.16458
G0 F4500 X126.995 Y117.591
G1 F1800 X114.776 Y105.371 E92.79763
G0 F4500 X114.281 Y105.371
G1 F1800 X126.5 Y117.591 E94.43069
G0 F4500 X126.005 Y117.591
G1 F1800 X113.786 Y105.371 E96.06374
G0 F4500 X113.291 Y105.371
G1 F1800 X125.51 Y117.591 E97.69679
G0 F4500 X125.015 Y117.591
G1 F1800 X112.796 Y105.371 E99.32984
G0 F4500 X112.301 Y105.371
G1 F1800 X124.52 Y117.591 E100.9629
G0 F4500 X124.025 Y117.591
G1 F1800 X111.806 Y105.371 E102.59595
G0 F4500 X111.311 Y105.371
G1 F1800 X123.53 Y117.591 E104.229
G0 F4500 X123.035 Y117.591
G1 F1800 X110.816 Y105.371 E105.86206
G0 F4500 X110.321 Y105.371
G1 F1800 X122.54 Y117.591 E107.49511
G0 F4500 X122.045 Y117.591
G1 F1800 X109.826 Y105.371 E109.12816
G0 F4500 X109.331 Y105.371
G1 F1800 X121.55 Y117.591 E110.76121
G0 F4500 X121.055 Y117.591
G1 F1800 X108.836 Y105.371 E112.39427
G0 F4500 X108.341 Y105.371
G1 F1800 X120.56 Y117.591 E114.02732
G0 F4500 X120.066 Y117.591
G1 F1800 X107.846 Y105.371 E115.66044
G0 F4500 X107.351 Y105.371
G1 F1800 X119.571 Y117.591 E117.29356
G0 F4500 X119.076 Y117.591
G1 F1800 X106.856 Y105.371 E118.92668
G0 F4500 X106.361 Y105.371
G1 F1800 X118.581 Y117.591 E120.5598
G0 F4500 X118.086 Y117.591
G1 F1800 X105.866 Y105.371 E122.19292
G0 F4500 X105.371 Y105.371
G1 F1800 X117.591 Y117.591 E123.82604
G0 F4500 X117.096 Y117.591
G1 F1800 X104.876 Y105.371 E125.45916
G0 F4500 X104.381 Y105.371
G1 F1800 X116.601 Y117.591 E127.09228
G0 F4500 X116.106 Y117.591
G1 F1800 X103.886 Y105.371 E128.7254
G0 F4500 X103.391 Y105.371
G1 F1800 X115.611 Y117.591 E130.35852
G0 F4500 X115.116 Y117.591
G1 F1800 X102.896 Y105.371 E131.99164
G0 F4500 X102.401 Y105.371
G1 F1800 X114.621 Y117.591 E133.62476
G0 F4500 X114.126 Y117.591
G1 F1800 X101.906 Y105.371 E135.25788
G0 F4500 X101.411 Y105.371
G1 F1800 X113.631 Y117.591 E136.891
G0 F4500 X113.136 Y117.591
G1 F1800 X100.916 Y105.371 E138.52411
G0 F4500 X100.421 Y105.371
G1 F1800 X112.641 Y117.591 E140.15723
G0 F4500 X112.146 Y117.591
G1 F1800 X99.926 Y105.371 E141.79035
G0 F4500 X99.431 Y105.371
G1 F1800 X111.651 Y117.591 E143.42347
G0 F4500 X111.155 Y117.59
G1 F1800 X98.936 Y105.371 E145.05646
G0 F4500 X98.441 Y105.371
G1 F1800 X110.66 Y117.59 E146.68945
G0 F4500 X110.165 Y117.59
G1 F1800 X97.947 Y105.371 E148.32237
G0 F4500 X97.452 Y105.371
G1 F1800 X109.67 Y117.59 E149.95528
G0 F4500 X109.175 Y117.59
G1 F1800 X96.957 Y105.371 E151.5882
G0 F4500 X96.462 Y105.371
G1 F1800 X108.68 Y117.59 E153.22112
G0 F4500 X108.185 Y117.59
G1 F1800 X95.967 Y105.371 E154.85404
G0 F4500 X95.472 Y105.371
G1 F1800 X107.69 Y117.59 E156.48696
G0 F4500 X107.195 Y117.59
G1 F1800 X94.977 Y105.371 E158.11988
G0 F4500 X94.482 Y105.371
G1 F1800 X106.7 Y117.59 E159.7528
G0 F4500 X106.206 Y117.59
G1 F1800 X93.987 Y105.371 E161.38579
G0 F4500 X93.492 Y105.371
G1 F1800 X105.711 Y117.59 E163.01877
G0 F4500 X105.216 Y117.59
G1 F1800 X93.297 Y105.672 E164.6116
G0 F4500 X93.297 Y106.167
G1 F1800 X104.721 Y117.59 E166.13827
G0 F4500 X104.226 Y117.59
G1 F1800 X93.297 Y106.662 E167.59879
G0 F4500 X93.297 Y107.157
G1 F1800 X103.731 Y117.59 E168.99316
G0 F4500 X103.236 Y117.59
G1 F1800 X93.297 Y107.652 E170.32137
G0 F4500 X93.297 Y108.147
G1 F1800 X102.741 Y117.59 E171.58343
G0 F4500 X102.246 Y117.59
G1 F1800 X93.297 Y108.642 E172.77933
G0 F4500 X93.297 Y109.136
G1 F1800 X101.751 Y117.59 E173.90915
G0 F4500 X101.256 Y117.59
G1 F1800 X93.297 Y109.631 E174.97282
G0 F4500 X93.297 Y110.126
G1 F1800 X100.761 Y117.59 E175.97033
G0 F4500 X100.266 Y117.59
G1 F1800 X93.297 Y110.621 E176.90169
G0 F4500 X93.297 Y111.116
G1 F1800 X99.771 Y117.59 E177.7669
G0 F4500 X99.276 Y117.59
G1 F1800 X93.297 Y111.611 E178.56595
G0 F4500 X93.297 Y112.106
G1 F1800 X98.781 Y117.59 E179.29885
G0 F4500 X98.286 Y117.59
G1 F1800 X93.297 Y112.601 E179.9656
G0 F4500 X93.297 Y113.096
G1 F1800 X97.791 Y117.59 E180.56619
G0 F4500 X97.296 Y117.59
G1 F1800 X93.297 Y113.591 E181.10063
G0 F4500 X93.297 Y114.086
G1 F1800 X96.801 Y117.59 E181.56891
G0 F4500 X96.306 Y117.59
G1 F1800 X93.297 Y114.581 E181.97105
G0 F4500 X93.297 Y115.076
G1 F1800 X95.811 Y117.59 E182.30702
G0 F4500 X95.316 Y117.59
G1 F1800 X93.297 Y115.571 E182.57685
G0 F4500 X93.297 Y116.066
G1 F1800 X94.821 Y117.59 E182.78052
G0 F4500 X94.326 Y117.59
G1 F1800 X93.297 Y116.561 E182.91804
G0 F4500 X93.297 Y117.056
G1 F1800 X93.831 Y117.59 E182.98941
G1 X93.893 Y117.652
;MESH:NONMESH
G0 F4500 X130.16 Y104.883
;TIME_ELAPSED:71.863684
;LAYER:1
M106 S255
;MESH:TapeWireGuideMount_v8.stl
G0 F6750 X130.16 Y104.883 Z0.42
;TYPE:WALL-INNER
G1 F2400 X130.213 Y104.909 E182.99251
G1 X130.246 Y104.95 E182.99527
G1 X130.262 Y105.055 E183.00085
G1 X130.262 Y117.791 E183.66949
G1 X130.262 Y117.828 E183.67143
G1 X130.254 Y117.905 E183.67549
G1 X130.222 Y117.981 E183.67982
G1 X130.176 Y118.017 E183.68289
G1 X130.08 Y118.033 E183.688
G1 X130.043 Y118.033 E183.68994
G1 X93.042 Y118.032 E185.63249
G1 X92.939 Y118.018 E185.63795
G1 X92.907 Y117.997 E185.63996
G1 X92.9 Y117.935 E185.64323
G1 X92.899 Y105.07 E186.31865
G1 X92.899 Y105.054 E186.31949
G1 X92.911 Y104.981 E186.32337
G1 X92.956 Y104.931 E186.3269
G1 X93.008 Y104.902 E186.33003
G1 X93.07 Y104.884 E186.33342
G1 X93.16 Y104.875 E186.33817
G1 X93.176 Y104.875 E186.33901
G1 X130.088 Y104.875 E188.27689
G1 X130.16 Y104.883 E188.28069
G0 F6750 X130.237 Y104.539
G1 F2400 X130.333 Y104.572 E188.28602
G1 X130.43 Y104.631 E188.29198
G1 X130.504 Y104.704 E188.29744
G1 X130.562 Y104.794 E188.30306
G1 X130.595 Y104.888 E188.30829
G1 X130.612 Y105.031 E188.31585
G1 X130.612 Y117.844 E188.98853
G1 X130.598 Y117.981 E188.99576
G1 X130.561 Y118.094 E189.002
G1 X130.502 Y118.194 E189.0081
G1 X130.43 Y118.269 E189.01356
G1 X130.335 Y118.331 E189.01951
G1 X130.245 Y118.365 E189.02456
G1 X130.099 Y118.383 E189.03229
G1 X93.025 Y118.382 E190.97867
G1 X92.917 Y118.373 E190.98436
G1 X92.814 Y118.347 E190.98994
G1 X92.73 Y118.306 E190.99485
G1 X92.67 Y118.261 E190.99878
G1 X92.62 Y118.202 E191.00284
G1 X92.582 Y118.133 E191.00698
G1 X92.559 Y118.055 E191.01125
G1 X92.55 Y117.955 E191.01652
G1 X92.549 Y105.031 E191.69503
G1 X92.566 Y104.903 E191.70181
G1 X92.601 Y104.813 E191.70688
G1 X92.668 Y104.719 E191.71294
G1 X92.756 Y104.642 E191.71908
G1 X92.869 Y104.579 E191.72587
G1 X92.908 Y104.568 E191.728
G1 X93.003 Y104.539 E191.73321
G1 X93.146 Y104.525 E191.74076
G1 X130.108 Y104.525 E193.68126
G1 X130.237 Y104.539 E193.68807
G0 F6750 X130.308 Y104.22
;TYPE:WALL-OUTER
G1 F2100 X130.474 Y104.276 E193.69727
G1 X130.628 Y104.371 E193.70677
G1 X130.759 Y104.499 E193.71639
G1 X130.855 Y104.649 E193.72574
G1 X130.914 Y104.815 E193.73498
G1 X130.937 Y105.01 E193.74529
G1 X130.937 Y117.859 E194.41987
G1 X130.917 Y118.049 E194.4299
G1 X130.859 Y118.228 E194.43977
G1 X130.762 Y118.391 E194.44973
G1 X130.639 Y118.521 E194.45913
G1 X130.485 Y118.622 E194.4688
G1 X130.32 Y118.684 E194.47805
G1 X130.121 Y118.708 E194.48857
G1 X93.011 Y118.707 E196.43685
G1 X92.862 Y118.695 E196.4447
G1 X92.702 Y118.654 E196.45337
G1 X92.561 Y118.586 E196.46159
G1 X92.445 Y118.498 E196.46923
G1 X92.349 Y118.385 E196.47701
G1 X92.28 Y118.258 E196.4846
G1 X92.238 Y118.116 E196.49238
G1 X92.225 Y117.974 E196.49986
G1 X92.224 Y105.011 E197.18042
G1 X92.249 Y104.822 E197.19043
