;FLAVOR:UltiGCode
;TIME:2877
;MATERIAL:6204
;MATERIAL2:0
;NOZZLE_DIAMETER:0.4
;Generated with Cura_SteamEngine 3.6.0
M82 ;absolute extrusion mode

G92 E0
G10
;LAYER_COUNT:133
;LAYER:0
M107
G0 F4500 X89.948 Y101.463 Z0.27
;TYPE:SKIRT
G11
G1 F1800 X90.369 Y101.14 E0.05014
G1 X90.869 Y100.867 E0.10398
G1 X91.285 Y100.682 E0.147
G1 X91.784 Y100.504 E0.19707
G1 X92.305 Y100.402 E0.24724
G1 X92.716 Y100.378 E0.28614
G1 X130.082 Y100.363 E3.81723
G1 X130.611 Y100.403 E3.86736
G1 X131.256 Y100.564 E3.93019
G1 X131.871 Y100.781 E3.99182
G1 X132.357 Y100.995 E4.042
G1 X132.805 Y101.279 E4.09212
G1 X133.205 Y101.627 E4.14223
G1 X133.56 Y102.047 E4.1942
G1 X133.916 Y102.542 E4.25181
G1 X134.192 Y102.995 E4.30194
G1 X134.398 Y103.484 E4.35209
G1 X134.558 Y104.212 E4.42252
G1 X134.617 Y104.745 E4.4732
G1 X134.638 Y105.15 E4.51152
G1 X134.576 Y118.228 E5.74741
G1 X134.534 Y118.757 E5.79756
G1 X134.412 Y119.273 E5.84766
G1 X134.215 Y119.766 E5.89783
G1 X133.904 Y120.282 E5.95477
G1 X133.602 Y120.698 E6.00335
G1 X133.258 Y121.103 E6.05356
G1 X132.858 Y121.451 E6.10367
G1 X132.369 Y121.758 E6.15823
G1 X132.085 Y121.905 E6.18845
G1 X131.597 Y122.112 E6.23854
G1 X131.033 Y122.253 E6.29348
G1 X130.727 Y122.303 E6.32278
G1 X130.16 Y122.349 E6.37654
G1 X93.613 Y122.362 E9.83023
G1 X93.305 Y122.349 E9.85936
G1 X92.206 Y122.253 E9.96361
G1 X91.683 Y122.167 E10.0137
G1 X91.178 Y122.003 E10.06388
G1 X90.703 Y121.766 E10.11404
G1 X90.341 Y121.517 E10.15556
G1 X89.955 Y121.215 E10.20187
G1 X89.563 Y120.858 E10.25198
G1 X89.229 Y120.445 E10.30217
G1 X88.861 Y119.765 E10.37524
G1 X88.66 Y119.27 E10.42573
G1 X88.498 Y118.765 E10.47584
G1 X88.414 Y118.241 E10.52599
G1 X88.401 Y117.941 E10.55437
G1 X88.414 Y104.652 E11.81018
G1 X88.454 Y104.122 E11.86041
G1 X88.621 Y103.466 E11.92438
G1 X88.702 Y103.24 E11.94707
G1 X88.918 Y102.755 E11.99724
G1 X89.3 Y102.187 E12.06192
G1 X89.581 Y101.846 E12.10368
G1 X89.948 Y101.463 E12.15381
G0 F4500 X90.201 Y101.707
G1 F1800 X90.604 Y101.405 E12.2014
G1 X91.011 Y101.187 E12.24503
G1 X91.427 Y101.002 E12.28805
G1 X91.902 Y100.834 E12.33567
G1 X92.397 Y100.744 E12.38321
G1 X92.716 Y100.728 E12.41339
G1 X130.082 Y100.713 E15.94448
G1 X130.584 Y100.753 E15.99207
G1 X131.139 Y100.894 E16.04618
G1 X131.754 Y101.111 E16.10781
G1 X132.215 Y101.316 E16.15549
G1 X132.637 Y101.59 E16.20304
G1 X133.01 Y101.929 E16.25067
G1 X133.276 Y102.251 E16.29014
G1 X133.632 Y102.746 E16.34776
G1 X133.892 Y103.177 E16.39532
G1 X134.082 Y103.644 E16.44297
G1 X134.21 Y104.251 E16.50159
G1 X134.269 Y104.784 E16.55227
G1 X134.288 Y105.148 E16.58671
G1 X134.226 Y118.226 E17.8226
G1 X134.184 Y118.728 E17.8702
G1 X134.063 Y119.217 E17.91781
G1 X133.866 Y119.68 E17.96536
G1 X133.62 Y120.076 E18.00941
G1 X133.318 Y120.492 E18.05799
G1 X132.991 Y120.875 E18.10558
G1 X132.607 Y121.201 E18.15318
G1 X132.208 Y121.447 E18.19748
G1 X131.924 Y121.594 E18.2277
G1 X131.46 Y121.789 E18.27526
G1 X130.977 Y121.907 E18.32225
G1 X130.671 Y121.957 E18.35155
G1 X130.16 Y121.999 E18.4
G1 X93.613 Y122.012 E21.85369
G1 X93.336 Y122 E21.87989
G1 X92.237 Y121.904 E21.98414
G1 X91.74 Y121.82 E22.03177
G1 X91.263 Y121.66 E22.07932
G1 X90.817 Y121.425 E22.12696
G1 X90.557 Y121.242 E22.157
G1 X90.171 Y120.94 E22.20332
G1 X89.8 Y120.599 E22.25094
G1 X89.488 Y120.204 E22.29851
G1 X89.185 Y119.634 E22.35951
G1 X88.984 Y119.139 E22.41
G1 X88.832 Y118.658 E22.45767
G1 X88.751 Y117.941 E22.52585
G1 X88.764 Y104.652 E23.78166
G1 X88.804 Y104.15 E23.82925
G1 X88.95 Y103.584 E23.88449
G1 X89.031 Y103.358 E23.90718
G1 X89.238 Y102.899 E23.95476
G1 X89.57 Y102.41 E24.01062
G1 X89.851 Y102.069 E24.05237
G1 X90.201 Y101.707 E24.09996
G10
;MESH:TapeWireGuideMount_v8.stl
G0 F4500 X92.516 Y103.22
G0 X92.934 Y104.417
G0 X130.081 Y104.759
;TYPE:WALL-INNER
G11
G1 F1800 X130.132 Y104.776 E24.10504
G1 X130.184 Y104.806 E24.11071
G1 X130.226 Y104.851 E24.11653
G1 X130.24 Y104.93 E24.12411
G1 X130.24 Y104.942 E24.12524
G1 X130.231 Y117.93 E25.35261
G1 X130.206 Y117.946 E25.35541
G1 X130.091 Y117.961 E25.36637
G1 X92.996 Y117.962 E28.87185
G1 X92.959 Y117.962 E28.87535
G1 X92.863 Y117.948 E28.88451
G1 X92.818 Y117.91 E28.89008
G1 X92.801 Y117.883 E28.8931
G1 X92.787 Y117.839 E28.89746
G1 X92.778 Y117.755 E28.90544
G1 X92.778 Y117.718 E28.90894
G1 X92.778 Y104.928 E30.11759
G1 X92.796 Y104.823 E30.12766
G1 X92.835 Y104.775 E30.13351
G1 X92.879 Y104.757 E30.138
G1 X92.956 Y104.748 E30.14532
G1 X129.959 Y104.748 E33.64211
G1 X129.971 Y104.748 E33.64324
G1 X130.081 Y104.759 E33.65369
G0 F4500 X130.153 Y104.415
G1 F1800 X130.277 Y104.455 E33.666
G1 X130.39 Y104.521 E33.67837
G1 X130.479 Y104.6 E33.68961
G1 X130.537 Y104.686 E33.69942
G1 X130.551 Y104.724 E33.70324
G1 X130.573 Y104.779 E33.70884
G1 X130.59 Y104.905 E33.72086
G1 X130.589 Y117.891 E34.94803
G1 X130.579 Y117.991 E34.95753
G1 X130.558 Y118.062 E34.96453
G1 X130.518 Y118.134 E34.97231
G1 X130.471 Y118.187 E34.979
G1 X130.405 Y118.239 E34.98694
G1 X130.329 Y118.276 E34.99493
G1 X130.236 Y118.3 E35.00401
G1 X130.11 Y118.311 E35.01596
G1 X92.942 Y118.312 E38.52834
G1 X92.793 Y118.294 E38.54252
G1 X92.705 Y118.263 E38.55134
G1 X92.614 Y118.203 E38.56164
G1 X92.537 Y118.123 E38.57213
G1 X92.481 Y118.029 E38.58247
G1 X92.443 Y117.916 E38.59374
G1 X92.428 Y117.773 E38.60732
G1 X92.428 Y104.905 E39.82335
G1 X92.444 Y104.767 E39.83648
G1 X92.478 Y104.671 E39.8461
G1 X92.536 Y104.58 E39.8563
G1 X92.617 Y104.499 E39.86713
G1 X92.695 Y104.45 E39.87583
G1 X92.802 Y104.413 E39.88653
G1 X92.933 Y104.398 E39.89899
G1 X129.987 Y104.398 E43.40059
G1 X130.153 Y104.415 E43.41636
G0 F4500 X130.221 Y104.096
;TYPE:WALL-OUTER
G1 F1800 X130.41 Y104.157 E43.43513
G1 X130.584 Y104.258 E43.45414
G1 X130.725 Y104.385 E43.47207
G1 X130.826 Y104.532 E43.48893
G1 X130.89 Y104.698 E43.50574
G1 X130.915 Y104.884 E43.52348
G1 X130.914 Y117.903 E44.75377
G1 X130.899 Y118.056 E44.7683
G1 X130.858 Y118.191 E44.78163
G1 X130.788 Y118.318 E44.79534
G1 X130.695 Y118.425 E44.80873
G1 X130.577 Y118.517 E44.82287
G1 X130.441 Y118.582 E44.83712
G1 X130.289 Y118.622 E44.85197
G1 X130.126 Y118.636 E44.86743
G1 X92.919 Y118.637 E48.38349
G1 X92.722 Y118.613 E48.40225
G1 X92.558 Y118.555 E48.41868
G1 X92.407 Y118.456 E48.43575
G1 X92.277 Y118.321 E48.45346
G1 X92.184 Y118.165 E48.47062
G1 X92.124 Y117.985 E48.48855
G1 X92.103 Y117.789 E48.50718
G1 X92.103 Y104.885 E49.72661
G1 X92.125 Y104.694 E49.74478
G1 X92.185 Y104.525 E49.76172
G1 X92.28 Y104.375 E49.7785
G1 X92.41 Y104.246 E49.79581
G1 X92.557 Y104.154 E49.8122
G1 X92.729 Y104.094 E49.82941
G1 X92.915 Y104.073 E49.8471
G1 X130.002 Y104.073 E53.35182
G1 X130.221 Y104.096 E53.37263
G0 F4500 X130.41 Y104.157
G0 X130.411 Y104.158
G0 X130.217 Y104.49
G0 X129.9 Y105.088
;TYPE:SKIN
G1 F1800 X129.891 Y117.621 E54.557
G1 X93.118 Y117.622 E58.03205
G1 X93.118 Y105.088 E59.21651
G1 X129.9 Y105.088 E62.69241
G0 F4500 X129.742 Y105.488
G1 F1800 X129.498 Y105.245 E62.72495
G0 F4500 X129.003 Y105.245
G1 F1800 X129.742 Y105.983 E62.82365
G0 F4500 X129.741 Y106.477
G1 F1800 X128.508 Y105.245 E62.98836
G0 F4500 X128.013 Y105.245
G1 F1800 X129.741 Y106.972 E63.21923
G0 F4500 X129.74 Y107.466
G1 F1800 X127.518 Y105.245 E63.51612
G0 F4500 X127.023 Y105.245
G1 F1800 X129.74 Y107.961 E63.87916
G0 F4500 X129.739 Y108.456
G1 F1800 X126.528 Y105.245 E64.30829
G0 F4500 X126.034 Y105.245
G1 F1800 X129.739 Y108.951 E64.8035
G0 F4500 X129.739 Y109.445
G1 F1800 X125.539 Y105.245 E65.36481
G0 F4500 X125.044 Y105.245
G1 F1800 X129.739 Y109.94 E65.99226
G0 F4500 X129.738 Y110.434
G1 F1800 X124.549 Y105.245 E66.68574
G0 F4500 X124.054 Y105.245
G1 F1800 X129.738 Y110.929 E67.44536
G0 F4500 X129.737 Y111.423
G1 F1800 X123.559 Y105.245 E68.27101
G0 F4500 X123.064 Y105.245
G1 F1800 X129.737 Y111.918 E69.16281
G0 F4500 X129.737 Y112.413
G1 F1800 X122.569 Y105.245 E70.12077
G0 F4500 X122.074 Y105.245
G1 F1800 X129.737 Y112.907 E71.14481
G0 F4500 X129.736 Y113.402
G1 F1800 X121.579 Y105.245 E72.23493
G0 F4500 X121.084 Y105.245
G1 F1800 X129.736 Y113.897 E73.39122
G0 F4500 X129.736 Y114.392
G1 F1800 X120.589 Y105.245 E74.61365
G0 F4500 X120.094 Y105.245
G1 F1800 X129.735 Y114.886 E75.9021
G0 F4500 X129.735 Y115.381
G1 F1800 X119.599 Y105.245 E77.25671
G0 F4500 X119.104 Y105.245
G1 F1800 X129.735 Y115.875 E78.6774
G0 F4500 X129.735 Y116.37
G1 F1800 X118.609 Y105.245 E80.16425
G0 F4500 X118.114 Y105.245
G1 F1800 X129.734 Y116.864 E81.71712
G0 F4500 X129.734 Y117.359
G1 F1800 X117.619 Y105.245 E83.33614
G0 F4500 X117.124 Y105.245
G1 F1800 X129.343 Y117.463 E84.96906
G0 F4500 X128.848 Y117.463
G1 F1800 X116.629 Y105.245 E86.60198
G0 F4500 X116.134 Y105.245
G1 F1800 X128.353 Y117.463 E88.2349
G0 F4500 X127.858 Y117.463
G1 F1800 X115.639 Y105.245 E89.86782
G0 F4500 X115.144 Y105.245
G1 F1800 X127.363 Y117.463 E91.50074
G0 F4500 X126.868 Y117.463
G1 F1800 X114.649 Y105.245 E93.13365
G0 F4500 X114.154 Y105.245
G1 F1800 X126.373 Y117.463 E94.76657
G0 F4500 X125.878 Y117.463
G1 F1800 X113.659 Y105.245 E96.39949
G0 F4500 X113.164 Y105.245
G1 F1800 X125.383 Y117.463 E98.03241
G0 F4500 X124.888 Y117.463
G1 F1800 X112.669 Y105.245 E99.66533
G0 F4500 X112.174 Y105.245
G1 F1800 X124.393 Y117.463 E101.29825
G0 F4500 X123.898 Y117.463
G1 F1800 X111.679 Y105.245 E102.93117
G0 F4500 X111.184 Y105.245
G1 F1800 X123.403 Y117.463 E104.56409
G0 F4500 X122.908 Y117.463
G1 F1800 X110.689 Y105.245 E106.19701
G0 F4500 X110.194 Y105.245
G1 F1800 X122.413 Y117.463 E107.82993
G0 F4500 X121.918 Y117.463
G1 F1800 X109.699 Y105.245 E109.46285
G0 F4500 X109.204 Y105.245
G1 F1800 X121.423 Y117.463 E111.09577
G0 F4500 X120.928 Y117.463
G1 F1800 X108.709 Y105.245 E112.72868
G0 F4500 X108.214 Y105.245
G1 F1800 X120.433 Y117.463 E114.3616
G0 F4500 X119.938 Y117.463
G1 F1800 X107.719 Y105.245 E115.99452
G0 F4500 X107.224 Y105.245
G1 F1800 X119.443 Y117.463 E117.62744
G0 F4500 X118.948 Y117.463
G1 F1800 X106.729 Y105.245 E119.26036
G0 F4500 X106.235 Y105.245
G1 F1800 X118.453 Y117.463 E120.89321
G0 F4500 X117.958 Y117.463
G1 F1800 X105.74 Y105.245 E122.52607
G0 F4500 X105.245 Y105.245
G1 F1800 X117.463 Y117.463 E124.15892
G0 F4500 X116.968 Y117.463
G1 F1800 X104.75 Y105.245 E125.79177
G0 F4500 X104.255 Y105.245
G1 F1800 X116.473 Y117.463 E127.42462
G0 F4500 X115.978 Y117.463
G1 F1800 X103.76 Y105.245 E129.05748
G0 F4500 X103.265 Y105.245
G1 F1800 X115.483 Y117.463 E130.69033
G0 F4500 X114.988 Y117.463
G1 F1800 X102.77 Y105.245 E132.32318
G0 F4500 X102.275 Y105.245
G1 F1800 X114.494 Y117.463 E133.9561
G0 F4500 X113.999 Y117.463
G1 F1800 X101.78 Y105.245 E135.58902
G0 F4500 X101.285 Y105.245
G1 F1800 X113.504 Y117.463 E137.22194
G0 F4500 X113.009 Y117.463
G1 F1800 X100.79 Y105.245 E138.85486
G0 F4500 X100.295 Y105.245
G1 F1800 X112.514 Y117.463 E140.48778
G0 F4500 X112.019 Y117.463
G1 F1800 X99.8 Y105.245 E142.1207
G0 F4500 X99.305 Y105.245
G1 F1800 X111.524 Y117.463 E143.75362
G0 F4500 X111.029 Y117.463
G1 F1800 X98.81 Y105.245 E145.38653
G0 F4500 X98.315 Y105.245
G1 F1800 X110.534 Y117.463 E147.01945
G0 F4500 X110.039 Y117.463
G1 F1800 X97.82 Y105.245 E148.65237
G0 F4500 X97.325 Y105.245
G1 F1800 X109.544 Y117.463 E150.28529
G0 F4500 X109.049 Y117.463
G1 F1800 X96.83 Y105.245 E151.91821
G0 F4500 X96.335 Y105.245
G1 F1800 X108.554 Y117.463 E153.55113
G0 F4500 X108.059 Y117.463
G1 F1800 X95.84 Y105.245 E155.18405
G0 F4500 X95.345 Y105.245
G1 F1800 X107.564 Y117.463 E156.81697
G0 F4500 X107.069 Y117.463
G1 F1800 X94.85 Y105.245 E158.44989
G0 F4500 X94.355 Y105.245
G1 F1800 X106.574 Y117.463 E160.08281
G0 F4500 X106.079 Y117.463
G1 F1800 X93.86 Y105.245 E161.71573
G0 F4500 X93.365 Y105.245
G1 F1800 X105.584 Y117.463 E163.34865
G0 F4500 X105.089 Y117.463
G1 F1800 X93.274 Y105.648 E164.92764
G0 F4500 X93.274 Y106.143
G1 F1800 X104.594 Y117.463 E166.44048
G0 F4500 X104.099 Y117.463
G1 F1800 X93.274 Y106.638 E167.88717
G0 F4500 X93.274 Y107.133
G1 F1800 X103.604 Y117.463 E169.2677
G0 F4500 X103.109 Y117.463
G1 F1800 X93.274 Y107.628 E170.58208
G0 F4500 X93.274 Y108.123
G1 F1800 X102.614 Y117.463 E171.83031
G0 F4500 X102.119 Y117.463
G1 F1800 X93.274 Y108.618 E173.01238
G0 F4500 X93.274 Y109.113
G1 F1800 X101.624 Y117.463 E174.1283
G0 F4500 X101.129 Y117.463
G1 F1800 X93.274 Y109.608 E175.17807
G0 F4500 X93.274 Y110.103
G1 F1800 X100.634 Y117.463 E176.16169
G0 F4500 X100.139 Y117.463
G1 F1800 X93.274 Y110.598 E177.07915
G0 F4500 X93.274 Y111.093
G1 F1800 X99.644 Y117.463 E177.93045
G0 F4500 X99.149 Y117.463
G1 F1800 X93.274 Y111.588 E178.71561
G0 F4500 X93.274 Y112.083
G1 F1800 X98.654 Y117.463 E179.43461
G0 F4500 X98.159 Y117.463
G1 F1800 X93.274 Y112.578 E180.08745
G0 F4500 X93.274 Y113.073
G1 F1800 X97.664 Y117.463 E180.67415
G0 F4500 X97.169 Y117.463
G1 F1800 X93.274 Y113.568 E181.19469
G0 F4500 X93.274 Y114.063
G1 F1800 X96.674 Y117.463 E181.64908
G0 F4500 X96.179 Y117.463
G1 F1800 X93.274 Y114.558 E182.03731
G0 F4500 X93.274 Y115.053
G1 F1800 X95.684 Y117.463 E182.35939
G0 F4500 X95.19 Y117.463
G1 F1800 X93.274 Y115.548 E182.61538
G0 F4500 X93.274 Y116.043
G1 F1800 X94.695 Y117.463 E182.80522
G0 F4500 X94.2 Y117.463
G1 F1800 X93.274 Y116.538 E182.92891
G0 F4500 X93.274 Y117.033
G1 F1800 X93.705 Y117.463 E182.98644
;MESH:NONMESH
G0 F4500 X129.963 Y104.756
;TIME_ELAPSED:71.858512
;LAYER:1
M106 S255
;MESH:TapeWireGuideMount_v8.stl
G0 F6750 X129.963 Y104.756 Z0.42
;TYPE:WALL-INNER
G1 F2400 X130.04 Y104.779 E182.99066
G1 X130.111 Y104.827 E182.99516
G1 X130.132 Y104.863 E182.99735
G1 X130.142 Y104.933 E183.00106
G1 X130.142 Y104.948 E183.00185
G1 X130.141 Y117.802 E183.67668
G1 X130.133 Y117.873 E183.68043
G1 X130.111 Y117.888 E183.68183
G1 X130.068 Y117.899 E183.68416
G1 X129.998 Y117.905 E183.68785
G1 X92.989 Y117.906 E185.63082
G1 X92.947 Y117.906 E185.63303
G1 X92.861 Y117.888 E185.63764
G1 X92.818 Y117.852 E185.64059
G1 X92.8 Y117.822 E185.64242
G1 X92.786 Y117.778 E185.64485
G1 X92.778 Y117.701 E185.64891
G1 X92.778 Y117.659 E185.65112
G1 X92.778 Y104.929 E186.31944
G1 X92.795 Y104.823 E186.32508
G1 X92.828 Y104.782 E186.32784
G1 X92.878 Y104.756 E186.3308
G1 X92.95 Y104.748 E186.3346
G1 X129.868 Y104.748 E188.2728
G1 X129.883 Y104.748 E188.27358
G1 X129.963 Y104.756 E188.27781
G0 F6750 X130.031 Y104.411
G1 F2400 X130.178 Y104.455 E188.28586
G1 X130.283 Y104.514 E188.29218
G1 X130.339 Y104.563 E188.29609
G1 X130.374 Y104.593 E188.29851
G1 X130.438 Y104.685 E188.3044
G1 X130.474 Y104.776 E188.30953
G1 X130.492 Y104.907 E188.31647
G1 X130.491 Y117.822 E188.99451
G1 X130.481 Y117.934 E189.00042
G1 X130.459 Y118.008 E189.00447
G1 X130.426 Y118.068 E189.00806
G1 X130.398 Y118.1 E189.0103
G1 X130.371 Y118.132 E189.01249
G1 X130.302 Y118.185 E189.01706
G1 X130.233 Y118.218 E189.02108
G1 X130.123 Y118.246 E189.02704
G1 X130.015 Y118.255 E189.03273
G1 X92.927 Y118.256 E190.97985
G1 X92.808 Y118.241 E190.98614
G1 X92.7 Y118.202 E190.99217
G1 X92.612 Y118.143 E190.99773
G1 X92.538 Y118.066 E191.00334
G1 X92.479 Y117.967 E191.00939
G1 X92.442 Y117.854 E191.01563
G1 X92.428 Y117.717 E191.02286
G1 X92.428 Y104.904 E191.69555
G1 X92.445 Y104.762 E191.70305
G1 X92.478 Y104.669 E191.70824
G1 X92.537 Y104.576 E191.71402
G1 X92.611 Y104.505 E191.7194
G1 X92.709 Y104.443 E191.72549
G1 X92.801 Y104.412 E191.73059
G1 X92.932 Y104.398 E191.7375
G1 X129.895 Y104.398 E193.67806
G1 X130.031 Y104.411 E193.68523
G0 F6750 X130.099 Y104.092
;TYPE:WALL-OUTER
G1 F2100 X130.301 Y104.152 E193.6963
G1 X130.474 Y104.249 E193.70671
G1 X130.617 Y104.374 E193.71668
G1 X130.725 Y104.528 E193.72656
G1 X130.791 Y104.695 E193.73598
G1 X130.817 Y104.885 E193.74605
G1 X130.816 Y117.845 E194.42645
G1 X130.802 Y117.991 E194.43415
G1 X130.761 Y118.133 E194.44191
G1 X130.693 Y118.257 E194.44933
G1 X130.597 Y118.368 E194.45704
G1 X130.474 Y118.463 E194.4652
G1 X130.342 Y118.526 E194.47288
G1 X130.178 Y118.568 E194.48177
G1 X130.029 Y118.58 E194.48961
G1 X92.911 Y118.581 E196.43831
G1 X92.727 Y118.558 E196.44804
G1 X92.553 Y118.495 E196.45776
G1 X92.404 Y118.396 E196.46715
G1 X92.276 Y118.262 E196.47688
G1 X92.181 Y118.101 E196.48669
G1 X92.123 Y117.923 E196.49652
G1 X92.103 Y117.732 E196.5066
G1 X92.103 Y104.883 E197.18118
