;FLAVOR:UltiGCode
;TIME:2433
;MATERIAL:5274
;MATERIAL2:0
;NOZZLE_DIAMETER:0.4
;Generated with Cura_SteamEngine 3.6.0
M82 ;absolute extrusion mode

G92 E0
G10
;LAYER_COUNT:133
;LAYER:0
M107
G0 F4500 X89.913 Y101.584 Z0.27
;TYPE:SKIRT
G11
G1 F1800 X90.337 Y101.265 E0.05014
G1 X90.991 Y100.937 E0.11928
G1 X91.57 Y100.718 E0.17778
G1 X92.079 Y100.568 E0.22793
G1 X92.817 Y100.49 E0.29806
G1 X130.065 Y100.492 E3.81799
G1 X130.594 Y100.532 E3.86812
G1 X131.356 Y100.737 E3.94269
G1 X131.994 Y100.988 E4.00748
G1 X132.471 Y101.219 E4.05757
G1 X132.909 Y101.519 E4.10774
G1 X133.297 Y101.881 E4.15788
G1 X133.725 Y102.453 E4.22539
G1 X134.068 Y103.024 E4.28834
G1 X134.306 Y103.498 E4.33846
G1 X134.47 Y104.003 E4.38864
G1 X134.557 Y104.526 E4.43874
G1 X134.571 Y104.834 E4.46788
G1 X134.59 Y117.908 E5.70337
G1 X134.505 Y118.681 E5.77686
G1 X134.373 Y119.272 E5.83409
G1 X134.219 Y119.78 E5.88425
G1 X133.99 Y120.259 E5.93442
G1 X133.692 Y120.698 E5.98456
G1 X133.222 Y121.185 E6.04852
G1 X132.791 Y121.553 E6.10208
G1 X132.363 Y121.866 E6.15218
G1 X131.892 Y122.111 E6.20236
G1 X131.176 Y122.332 E6.27317
G1 X130.76 Y122.413 E6.31322
G1 X130.087 Y122.478 E6.37711
G1 X93.572 Y122.489 E9.82778
G1 X93.221 Y122.472 E9.86099
G1 X92.087 Y122.359 E9.96868
G1 X91.565 Y122.266 E10.01879
G1 X91.062 Y122.097 E10.06893
G1 X90.59 Y121.854 E10.1191
G1 X90.186 Y121.563 E10.16615
G1 X89.833 Y121.27 E10.2095
G1 X89.451 Y120.902 E10.25963
G1 X89.055 Y120.36 E10.32306
G1 X88.939 Y120.165 E10.3445
G1 X88.702 Y119.69 E10.39467
G1 X88.54 Y119.185 E10.44479
G1 X88.456 Y118.663 E10.49475
G1 X88.351 Y117.434 E10.61131
G1 X88.338 Y117.125 E10.64054
G1 X88.369 Y104.787 E11.80648
G1 X88.41 Y104.258 E11.85662
G1 X88.531 Y103.741 E11.9068
G1 X88.727 Y103.248 E11.95694
G1 X88.888 Y102.956 E11.98845
G1 X89.232 Y102.394 E12.05072
G1 X89.542 Y101.963 E12.10089
G1 X89.913 Y101.584 E12.15101
G0 F4500 X90.183 Y101.814
G1 F1800 X90.591 Y101.519 E12.19858
G1 X91.115 Y101.264 E12.25365
G1 X91.694 Y101.045 E12.31215
G1 X92.177 Y100.905 E12.35967
G1 X92.817 Y100.84 E12.42047
G1 X130.065 Y100.842 E15.9404
G1 X130.567 Y100.882 E15.98799
G1 X131.227 Y101.062 E16.05264
G1 X131.865 Y101.313 E16.11743
G1 X132.318 Y101.534 E16.16506
G1 X132.73 Y101.824 E16.21267
G1 X133.091 Y102.175 E16.26025
G1 X133.425 Y102.633 E16.31382
G1 X133.768 Y103.204 E16.37677
G1 X133.992 Y103.655 E16.42435
G1 X134.142 Y104.136 E16.47197
G1 X134.221 Y104.834 E16.53835
G1 X134.24 Y117.908 E17.77384
G1 X134.164 Y118.605 E17.8401
G1 X134.032 Y119.196 E17.89733
G1 X133.883 Y119.677 E17.94491
G1 X133.661 Y120.129 E17.9925
G1 X133.369 Y120.54 E18.04014
G1 X132.995 Y120.919 E18.09046
G1 X132.564 Y121.287 E18.14402
G1 X132.156 Y121.582 E18.1916
G1 X131.707 Y121.81 E18.23918
G1 X131.109 Y121.988 E18.29814
G1 X130.693 Y122.069 E18.33819
G1 X130.087 Y122.128 E18.39573
G1 X93.572 Y122.139 E21.8464
G1 X93.256 Y122.123 E21.8763
G1 X92.122 Y122.01 E21.98399
G1 X91.627 Y121.921 E22.03152
G1 X91.151 Y121.754 E22.07919
G1 X90.709 Y121.514 E22.12672
G1 X90.409 Y121.294 E22.16188
G1 X90.056 Y121.001 E22.20523
G1 X89.695 Y120.65 E22.25281
G1 X89.355 Y120.181 E22.30755
G1 X89.239 Y119.986 E22.32899
G1 X89.017 Y119.534 E22.37658
G1 X88.869 Y119.053 E22.42414
G1 X88.805 Y118.633 E22.46429
G1 X88.7 Y117.404 E22.58085
G1 X88.688 Y117.126 E22.60715
G1 X88.719 Y104.788 E23.77309
G1 X88.76 Y104.286 E23.82069
G1 X88.88 Y103.797 E23.86827
G1 X89.186 Y103.138 E23.93693
G1 X89.53 Y102.576 E23.9992
G1 X89.826 Y102.169 E24.04676
G1 X90.183 Y101.814 E24.09434
G10
;MESH:TapeWireGuideMount_v5.stl
G0 F4500 X92.479 Y103.346
G0 X92.903 Y104.544
G0 X130.038 Y104.886
;TYPE:WALL-INNER
G11
G1 F1800 X130.098 Y104.905 E24.10028
G1 X130.17 Y104.957 E24.10868
G1 X130.191 Y104.994 E24.1127
G1 X130.199 Y105.051 E24.11814
G1 X130.199 Y105.064 E24.11936
G1 X130.194 Y118.049 E25.34645
G1 X130.18 Y118.065 E25.34846
G1 X130.14 Y118.08 E25.35249
G1 X130.051 Y118.088 E25.36094
G1 X92.948 Y118.089 E28.86717
G1 X92.914 Y118.089 E28.87038
G1 X92.825 Y118.072 E28.87895
G1 X92.781 Y118.038 E28.8842
G1 X92.749 Y117.97 E28.8913
G1 X92.738 Y117.871 E28.90072
G1 X92.738 Y117.837 E28.90393
G1 X92.738 Y105.042 E30.11306
G1 X92.754 Y104.952 E30.12169
G1 X92.786 Y104.91 E30.12668
G1 X92.837 Y104.885 E30.13205
G1 X92.921 Y104.875 E30.14005
G1 X129.915 Y104.875 E33.63598
G1 X129.928 Y104.875 E33.63721
G1 X130.038 Y104.886 E33.64765
G0 F4500 X130.11 Y104.542
G1 F1800 X130.241 Y104.584 E33.66065
G1 X130.35 Y104.647 E33.67255
G1 X130.436 Y104.726 E33.68359
G1 X130.497 Y104.813 E33.69363
G1 X130.533 Y104.907 E33.70314
G1 X130.549 Y105.028 E33.71467
G1 X130.548 Y118.013 E34.94176
G1 X130.538 Y118.12 E34.95191
G1 X130.516 Y118.191 E34.95894
G1 X130.48 Y118.256 E34.96596
G1 X130.43 Y118.315 E34.97327
G1 X130.366 Y118.364 E34.98088
G1 X130.283 Y118.404 E34.98959
G1 X130.196 Y118.427 E34.99809
G1 X130.07 Y118.438 E35.01005
G1 X92.895 Y118.439 E38.52308
G1 X92.767 Y118.423 E38.53527
G1 X92.67 Y118.388 E38.54502
G1 X92.574 Y118.327 E38.55577
G1 X92.504 Y118.255 E38.56526
G1 X92.483 Y118.219 E38.5692
G1 X92.441 Y118.151 E38.57675
G1 X92.406 Y118.049 E38.58694
G1 X92.388 Y117.894 E38.60169
G1 X92.388 Y105.026 E39.81771
G1 X92.401 Y104.899 E39.82978
G1 X92.436 Y104.8 E39.8397
G1 X92.492 Y104.71 E39.84972
G1 X92.568 Y104.634 E39.85987
G1 X92.656 Y104.578 E39.86973
G1 X92.756 Y104.543 E39.87974
G1 X92.793 Y104.539 E39.88326
G1 X92.877 Y104.529 E39.89125
G1 X92.902 Y104.525 E39.89365
G1 X129.945 Y104.525 E43.39421
G1 X130.11 Y104.542 E43.40988
G0 F4500 X130.18 Y104.223
;TYPE:WALL-OUTER
G1 F1800 X130.371 Y104.284 E43.42883
G1 X130.544 Y104.384 E43.44771
G1 X130.684 Y104.513 E43.4657
G1 X130.785 Y104.658 E43.4824
G1 X130.85 Y104.824 E43.49925
G1 X130.874 Y105.009 E43.51688
G1 X130.873 Y118.032 E44.74755
G1 X130.859 Y118.181 E44.7617
G1 X130.816 Y118.32 E44.77544
G1 X130.749 Y118.442 E44.7886
G1 X130.655 Y118.551 E44.8022
G1 X130.537 Y118.642 E44.81628
G1 X130.397 Y118.71 E44.83099
G1 X130.248 Y118.749 E44.84554
G1 X130.086 Y118.763 E44.86091
G1 X92.871 Y118.764 E48.37773
G1 X92.693 Y118.742 E48.39468
G1 X92.526 Y118.681 E48.41148
G1 X92.369 Y118.582 E48.42902
G1 X92.243 Y118.452 E48.44613
G1 X92.145 Y118.291 E48.46394
G1 X92.087 Y118.12 E48.481
G1 X92.063 Y117.915 E48.50051
G1 X92.063 Y105.011 E49.71993
G1 X92.082 Y104.828 E49.73732
G1 X92.142 Y104.658 E49.75436
G1 X92.237 Y104.505 E49.77138
G1 X92.363 Y104.378 E49.78828
G1 X92.513 Y104.283 E49.80506
G1 X92.681 Y104.224 E49.82189
G1 X92.879 Y104.2 E49.84074
G1 X129.96 Y104.2 E53.34489
G1 X130.18 Y104.223 E53.36579
G0 F4500 X130.371 Y104.284
G0 X130.216 Y104.636
G0 X129.859 Y105.215
;TYPE:SKIN
G1 F1800 X129.854 Y117.748 E54.55016
G1 X93.078 Y117.749 E58.02549
G1 X93.078 Y105.215 E59.20996
G1 X129.859 Y105.215 E62.68576
G0 F4500 X129.701 Y105.447
G1 F1800 X129.626 Y105.372 E62.69578
G0 F4500 X129.131 Y105.372
G1 F1800 X129.701 Y105.942 E62.77196
G0 F4500 X129.701 Y106.437
G1 F1800 X128.636 Y105.372 E62.91429
G0 F4500 X128.141 Y105.372
G1 F1800 X129.701 Y106.932 E63.12277
G0 F4500 X129.7 Y107.426
G1 F1800 X127.646 Y105.372 E63.39728
G0 F4500 X127.151 Y105.372
G1 F1800 X129.7 Y107.921 E63.73793
G0 F4500 X129.7 Y108.416
G1 F1800 X126.656 Y105.372 E64.14474
G0 F4500 X126.161 Y105.372
G1 F1800 X129.7 Y108.911 E64.61771
G0 F4500 X129.7 Y109.406
G1 F1800 X125.666 Y105.372 E65.15682
G0 F4500 X125.171 Y105.372
G1 F1800 X129.699 Y109.9 E65.76196
G0 F4500 X129.699 Y110.395
G1 F1800 X124.676 Y105.372 E66.43325
G0 F4500 X124.181 Y105.372
G1 F1800 X129.699 Y110.89 E67.17069
G0 F4500 X129.699 Y111.385
G1 F1800 X123.686 Y105.372 E67.97429
G0 F4500 X123.191 Y105.372
G1 F1800 X129.698 Y111.879 E68.84391
G0 F4500 X129.698 Y112.374
G1 F1800 X122.696 Y105.372 E69.77968
G0 F4500 X122.201 Y105.372
G1 F1800 X129.698 Y112.869 E70.7816
G0 F4500 X129.698 Y113.364
G1 F1800 X121.706 Y105.372 E71.84967
G0 F4500 X121.211 Y105.372
G1 F1800 X129.698 Y113.859 E72.9839
G0 F4500 X129.698 Y114.354
G1 F1800 X120.716 Y105.372 E74.18429
G0 F4500 X120.221 Y105.372
G1 F1800 X129.698 Y114.848 E75.45076
G0 F4500 X129.698 Y115.343
G1 F1800 X119.726 Y105.372 E76.78338
G0 F4500 X119.231 Y105.372
G1 F1800 X129.697 Y115.838 E78.18209
G0 F4500 X129.697 Y116.333
G1 F1800 X118.736 Y105.372 E79.64695
G0 F4500 X118.241 Y105.372
G1 F1800 X129.697 Y116.828 E81.17797
G0 F4500 X129.697 Y117.323
G1 F1800 X117.746 Y105.372 E82.77514
G0 F4500 X117.251 Y105.372
G1 F1800 X129.47 Y117.591 E84.40812
G0 F4500 X128.975 Y117.591
G1 F1800 X116.756 Y105.372 E86.04111
G0 F4500 X116.261 Y105.372
G1 F1800 X128.48 Y117.591 E87.6741
G0 F4500 X127.985 Y117.591
G1 F1800 X115.766 Y105.372 E89.30708
G0 F4500 X115.271 Y105.372
G1 F1800 X127.49 Y117.591 E90.94007
G0 F4500 X126.995 Y117.591
G1 F1800 X114.776 Y105.372 E92.57305
G0 F4500 X114.281 Y105.372
G1 F1800 X126.5 Y117.591 E94.20604
G0 F4500 X126.005 Y117.591
G1 F1800 X113.786 Y105.372 E95.83903
G0 F4500 X113.291 Y105.372
G1 F1800 X125.51 Y117.591 E97.47201
G0 F4500 X125.015 Y117.591
G1 F1800 X112.796 Y105.372 E99.105
G0 F4500 X112.301 Y105.372
G1 F1800 X124.52 Y117.591 E100.73798
G0 F4500 X124.025 Y117.591
G1 F1800 X111.807 Y105.372 E102.3709
G0 F4500 X111.312 Y105.372
G1 F1800 X123.53 Y117.591 E104.00382
G0 F4500 X123.035 Y117.591
G1 F1800 X110.817 Y105.372 E105.63674
G0 F4500 X110.322 Y105.372
G1 F1800 X122.54 Y117.591 E107.26966
G0 F4500 X122.045 Y117.591
G1 F1800 X109.827 Y105.372 E108.90258
G0 F4500 X109.332 Y105.372
G1 F1800 X121.55 Y117.591 E110.5355
G0 F4500 X121.055 Y117.591
G1 F1800 X108.837 Y105.372 E112.16842
G0 F4500 X108.342 Y105.372
G1 F1800 X120.56 Y117.591 E113.80134
G0 F4500 X120.066 Y117.591
G1 F1800 X107.847 Y105.372 E115.43432
G0 F4500 X107.352 Y105.372
G1 F1800 X119.571 Y117.591 E117.06731
G0 F4500 X119.076 Y117.591
G1 F1800 X106.857 Y105.372 E118.7003
G0 F4500 X106.362 Y105.372
G1 F1800 X118.581 Y117.591 E120.33328
G0 F4500 X118.086 Y117.591
G1 F1800 X105.867 Y105.372 E121.96627
G0 F4500 X105.372 Y105.372
G1 F1800 X117.591 Y117.591 E123.59925
G0 F4500 X117.096 Y117.591
G1 F1800 X104.877 Y105.372 E125.23224
G0 F4500 X104.382 Y105.372
G1 F1800 X116.601 Y117.591 E126.86523
G0 F4500 X116.106 Y117.591
G1 F1800 X103.887 Y105.372 E128.49821
G0 F4500 X103.392 Y105.372
G1 F1800 X115.611 Y117.591 E130.1312
G0 F4500 X115.116 Y117.591
G1 F1800 X102.897 Y105.372 E131.76418
G0 F4500 X102.402 Y105.372
G1 F1800 X114.621 Y117.591 E133.39717
G0 F4500 X114.126 Y117.591
G1 F1800 X101.907 Y105.372 E135.03016
G0 F4500 X101.412 Y105.372
G1 F1800 X113.631 Y117.591 E136.66314
G0 F4500 X113.136 Y117.591
G1 F1800 X100.917 Y105.372 E138.29613
G0 F4500 X100.422 Y105.372
G1 F1800 X112.641 Y117.591 E139.92911
G0 F4500 X112.146 Y117.591
G1 F1800 X99.927 Y105.372 E141.5621
G0 F4500 X99.432 Y105.372
G1 F1800 X111.651 Y117.591 E143.19509
G0 F4500 X111.156 Y117.591
G1 F1800 X98.937 Y105.372 E144.82807
G0 F4500 X98.442 Y105.372
G1 F1800 X110.661 Y117.591 E146.46106
G0 F4500 X110.166 Y117.591
G1 F1800 X97.947 Y105.372 E148.09405
G0 F4500 X97.452 Y105.372
G1 F1800 X109.671 Y117.591 E149.72703
G0 F4500 X109.176 Y117.591
G1 F1800 X96.957 Y105.372 E151.36002
G0 F4500 X96.462 Y105.372
G1 F1800 X108.681 Y117.591 E152.993
G0 F4500 X108.186 Y117.591
G1 F1800 X95.967 Y105.372 E154.62599
G0 F4500 X95.472 Y105.372
G1 F1800 X107.691 Y117.591 E156.25898
G0 F4500 X107.196 Y117.591
G1 F1800 X94.977 Y105.372 E157.89196
G0 F4500 X94.482 Y105.372
G1 F1800 X106.701 Y117.591 E159.52495
G0 F4500 X106.206 Y117.591
G1 F1800 X93.987 Y105.372 E161.15793
G0 F4500 X93.492 Y105.372
G1 F1800 X105.711 Y117.591 E162.79092
G0 F4500 X105.216 Y117.591
G1 F1800 X93.234 Y105.609 E164.39223
G0 F4500 X93.234 Y106.104
G1 F1800 X104.721 Y117.591 E165.92739
G0 F4500 X104.226 Y117.591
G1 F1800 X93.234 Y106.599 E167.3964
G0 F4500 X93.234 Y107.094
G1 F1800 X103.731 Y117.591 E168.79925
G0 F4500 X103.236 Y117.591
G1 F1800 X93.234 Y107.589 E170.13595
G0 F4500 X93.234 Y108.084
G1 F1800 X102.741 Y117.591 E171.40649
G0 F4500 X102.246 Y117.591
G1 F1800 X93.234 Y108.579 E172.61089
G0 F4500 X93.234 Y109.074
G1 F1800 X101.751 Y117.591 E173.74913
G0 F4500 X101.256 Y117.591
G1 F1800 X93.234 Y109.569 E174.82121
G0 F4500 X93.234 Y110.063
G1 F1800 X100.762 Y117.591 E175.82728
G0 F4500 X100.267 Y117.591
G1 F1800 X93.234 Y110.558 E176.76719
G0 F4500 X93.234 Y111.053
G1 F1800 X99.772 Y117.591 E177.64095
G0 F4500 X99.277 Y117.591
G1 F1800 X93.234 Y111.548 E178.44855
G0 F4500 X93.234 Y112.043
G1 F1800 X98.782 Y117.591 E179.19001
G0 F4500 X98.287 Y117.591
G1 F1800 X93.234 Y112.538 E179.86531
G0 F4500 X93.234 Y113.033
G1 F1800 X97.792 Y117.591 E180.47445
G0 F4500 X97.297 Y117.591
G1 F1800 X93.234 Y113.528 E181.01744
G0 F4500 X93.234 Y114.023
G1 F1800 X96.802 Y117.591 E181.49428
G0 F4500 X96.307 Y117.591
G1 F1800 X93.234 Y114.518 E181.90497
G0 F4500 X93.234 Y115.013
G1 F1800 X95.812 Y117.591 E182.2495
G0 F4500 X95.317 Y117.591
G1 F1800 X93.234 Y115.508 E182.52788
G0 F4500 X93.234 Y116.003
G1 F1800 X94.822 Y117.591 E182.7401
G0 F4500 X94.327 Y117.591
G1 F1800 X93.234 Y116.498 E182.88618
G0 F4500 X93.234 Y116.993
G1 F1800 X93.832 Y117.591 E182.9661
G0 F4500 X93.337 Y117.591
G1 F1800 X93.234 Y117.488 E182.97986
;MESH:NONMESH
G0 F4500 X129.941 Y104.887
;TIME_ELAPSED:71.882029
;LAYER:1
M106 S255
;MESH:TapeWireGuideMount_v5.stl
G0 F6750 X129.941 Y104.887 Z0.42
;TYPE:WALL-INNER
G1 F2400 X129.999 Y104.906 E182.98306
G1 X130.048 Y104.934 E182.98603
G1 X130.083 Y104.969 E182.98863
G1 X130.093 Y104.993 E182.98999
G1 X130.101 Y105.055 E182.99327
G1 X130.101 Y105.066 E182.99385
G1 X130.095 Y117.99 E183.67236
G1 X130.089 Y118.004 E183.67316
G1 X130.028 Y118.026 E183.67656
G1 X129.958 Y118.032 E183.68025
G1 X92.917 Y118.032 E185.62491
G1 X92.818 Y118.012 E185.63021
G1 X92.78 Y117.981 E185.63278
G1 X92.75 Y117.918 E185.63645
G1 X92.738 Y117.814 E185.64194
G1 X92.738 Y105.042 E186.31247
G1 X92.753 Y104.954 E186.31716
G1 X92.788 Y104.908 E186.32019
G1 X92.829 Y104.887 E186.32261
G1 X92.925 Y104.875 E186.32769
G1 X129.817 Y104.875 E188.26452
G1 X129.828 Y104.875 E188.2651
G1 X129.941 Y104.887 E188.27106
G0 F6750 X130.017 Y104.543
G1 F2400 X130.142 Y104.584 E188.27797
G1 X130.258 Y104.652 E188.28503
G1 X130.343 Y104.73 E188.29109
G1 X130.396 Y104.807 E188.29599
G1 X130.434 Y104.904 E188.30146
G1 X130.451 Y105.03 E188.30814
G1 X130.45 Y117.955 E188.9867
G1 X130.441 Y118.055 E188.99197
G1 X130.418 Y118.133 E188.99624
G1 X130.38 Y118.202 E189.00038
G1 X130.33 Y118.261 E189.00444
G1 X130.27 Y118.306 E189.00838
G1 X130.186 Y118.347 E189.01328
G1 X130.083 Y118.373 E189.01886
G1 X129.975 Y118.382 E189.02455
G1 X92.9 Y118.382 E190.97099
G1 X92.769 Y118.366 E190.97792
G1 X92.668 Y118.331 E190.98353
G1 X92.578 Y118.275 E190.98909
G1 X92.502 Y118.197 E190.99481
G1 X92.444 Y118.103 E191.00061
G1 X92.42 Y118.03 E191.00464
G1 X92.406 Y117.991 E191.00682
G1 X92.388 Y117.838 E191.01491
G1 X92.388 Y105.025 E191.68759
G1 X92.401 Y104.901 E191.69413
G1 X92.434 Y104.803 E191.69956
G1 X92.491 Y104.712 E191.7052
G1 X92.565 Y104.635 E191.71081
G1 X92.657 Y104.576 E191.71654
G1 X92.75 Y104.543 E191.72173
G1 X92.9 Y104.525 E191.72966
G1 X129.846 Y104.525 E193.66932
G1 X130.017 Y104.543 E193.67835
G0 F6750 X130.085 Y104.224
;TYPE:WALL-OUTER
G1 F2100 X130.277 Y104.286 E193.68894
G1 X130.452 Y104.389 E193.6996
G1 X130.588 Y104.515 E193.70934
G1 X130.686 Y104.655 E193.71831
G1 X130.751 Y104.821 E193.72767
G1 X130.776 Y105.011 E193.73773
G1 X130.775 Y117.974 E194.41829
G1 X130.762 Y118.116 E194.42577
G1 X130.72 Y118.258 E194.43355
G1 X130.651 Y118.385 E194.44113
G1 X130.555 Y118.498 E194.44892
G1 X130.439 Y118.586 E194.45656
G1 X130.298 Y118.654 E194.46478
G1 X130.138 Y118.695 E194.47345
G1 X129.989 Y118.707 E194.4813
G1 X92.877 Y118.707 E196.42968
G1 X92.696 Y118.685 E196.43925
G1 X92.527 Y118.626 E196.44865
G1 X92.374 Y118.53 E196.45813
G1 X92.245 Y118.398 E196.46782
G1 X92.147 Y118.24 E196.47758
G1 X92.087 Y118.064 E196.48735
G1 X92.063 Y117.859 E196.49818
G1 X92.063 Y105.01 E197.17275
G1 X92.082 Y104.831 E197.1822
G1 X92.138 Y104.664 E197.19145
G1 X92.233 Y104.511 E197.20091
G1 X92.36 Y104.38 E197.21049
G1 X92.512 Y104.283 E197.21995
G1 X92.677 Y104.224 E197.22915
