;FLAVOR:UltiGCode
;TIME:2564
;MATERIAL:5107
;MATERIAL2:0
;NOZZLE_DIAMETER:0.4
;Generated with Cura_SteamEngine 3.6.0
M82 ;absolute extrusion mode

G92 E0
G10
;LAYER_COUNT:104
;LAYER:0
M107
G0 F4500 X102.368 Y95.707 Z0.27
;TYPE:SKIRT
G11
G1 F1800 X102.778 Y95.332 E0.05251
G1 X103.239 Y95.02 E0.10511
G1 X103.739 Y94.776 E0.15769
G1 X104.269 Y94.607 E0.21026
G1 X104.818 Y94.516 E0.26284
G1 X105.179 Y94.499 E0.297
G1 X120.077 Y94.5 E1.70486
G1 X120.632 Y94.54 E1.75744
G1 X121.176 Y94.659 E1.81007
G1 X121.697 Y94.855 E1.86267
G1 X122.184 Y95.123 E1.9152
G1 X122.628 Y95.458 E1.96776
G1 X123.1 Y95.951 E2.03226
G1 X123.795 Y96.818 E2.13726
G1 X123.983 Y97.073 E2.1672
G1 X125.172 Y98.833 E2.36792
G1 X125.383 Y99.183 E2.40654
G1 X126.394 Y101.085 E2.61009
G1 X126.564 Y101.449 E2.64806
G1 X127.351 Y103.392 E2.84616
G1 X127.48 Y103.765 E2.88346
G1 X128.034 Y105.671 E3.07103
G1 X128.113 Y105.995 E3.10254
G1 X128.432 Y107.594 E3.25663
G1 X128.486 Y107.945 E3.29019
G1 X128.7 Y109.969 E3.48252
G1 X128.721 Y110.357 E3.51924
G1 X128.731 Y112.411 E3.71335
G1 X128.713 Y112.806 E3.75071
G1 X128.508 Y114.91 E3.95048
G1 X128.448 Y115.308 E3.98852
G1 X128.029 Y117.364 E4.1868
G1 X127.929 Y117.751 E4.22458
G1 X127.3 Y119.753 E4.42288
G1 X127.161 Y120.128 E4.46068
G1 X126.329 Y122.055 E4.65903
G1 X126.151 Y122.414 E4.69689
G1 X125.117 Y124.258 E4.89668
G1 X124.861 Y124.656 E4.9414
G1 X123.202 Y126.916 E5.20633
G1 X122.841 Y127.34 E5.25896
G1 X122.424 Y127.708 E5.31151
G1 X121.958 Y128.012 E5.36409
G1 X121.453 Y128.246 E5.41669
G1 X120.92 Y128.405 E5.46925
G1 X120.369 Y128.487 E5.52189
G1 X120.079 Y128.498 E5.54932
G1 X101.486 Y128.501 E7.30636
G1 X100.931 Y128.461 E7.35894
G1 X100.387 Y128.342 E7.41156
G1 X99.866 Y128.147 E7.46413
G1 X99.379 Y127.879 E7.51666
G1 X98.745 Y127.366 E7.59373
G1 X94.839 Y123.459 E8.11581
G1 X94.474 Y123.038 E8.16847
G1 X94.174 Y122.569 E8.22108
G1 X93.944 Y122.063 E8.2736
G1 X93.789 Y121.528 E8.32624
G1 X93.713 Y120.977 E8.3788
G1 X93.715 Y120.421 E8.43134
G1 X93.798 Y119.871 E8.48391
G1 X93.91 Y119.471 E8.52316
G1 X101.51 Y97.126 E10.75356
G1 X101.727 Y96.614 E10.80611
G1 X102.015 Y96.137 E10.85877
G1 X102.368 Y95.707 E10.91134
G0 F4500 X102.673 Y95.895
G1 F1800 X103.073 Y95.547 E10.96144
G1 X103.522 Y95.263 E11.01165
G1 X104.007 Y95.049 E11.06174
G1 X104.52 Y94.911 E11.11195
G1 X105.179 Y94.849 E11.1745
G1 X120.077 Y94.85 E12.58236
G1 X120.606 Y94.89 E12.63249
G1 X121.124 Y95.009 E12.68272
G1 X121.617 Y95.204 E12.73282
G1 X122.076 Y95.471 E12.783
G1 X122.489 Y95.804 E12.83313
G1 X122.827 Y96.17 E12.88021
G1 X123.522 Y97.037 E12.98522
G1 X123.693 Y97.269 E13.01245
G1 X124.882 Y99.029 E13.21317
G1 X125.074 Y99.348 E13.24836
G1 X126.085 Y101.25 E13.45191
G1 X126.239 Y101.581 E13.48641
G1 X127.026 Y103.524 E13.68451
G1 X127.144 Y103.863 E13.71843
G1 X127.698 Y105.769 E13.906
G1 X127.77 Y106.063 E13.93461
G1 X128.089 Y107.662 E14.08869
G1 X128.137 Y107.981 E14.11918
G1 X128.351 Y110.005 E14.31151
G1 X128.371 Y110.359 E14.34502
G1 X128.381 Y112.413 E14.53912
G1 X128.364 Y112.772 E14.57308
G1 X128.159 Y114.876 E14.77285
G1 X128.105 Y115.238 E14.80744
G1 X127.686 Y117.294 E15.00573
G1 X127.595 Y117.647 E15.04018
G1 X126.966 Y119.649 E15.23848
G1 X126.839 Y119.989 E15.27278
G1 X126.007 Y121.916 E15.47113
G1 X125.846 Y122.243 E15.50558
G1 X124.812 Y124.087 E15.70536
G1 X124.579 Y124.449 E15.74604
G1 X122.92 Y126.709 E16.01098
G1 X122.574 Y127.112 E16.06117
G1 X122.172 Y127.458 E16.11129
G1 X121.723 Y127.741 E16.16145
G1 X121.236 Y127.952 E16.2116
G1 X120.723 Y128.088 E16.26176
G1 X120.079 Y128.148 E16.32288
G1 X101.486 Y128.151 E18.07992
G1 X100.956 Y128.111 E18.13015
G1 X100.439 Y127.992 E18.18028
G1 X99.946 Y127.797 E18.23038
G1 X99.487 Y127.53 E18.28056
G1 X98.992 Y127.118 E18.34142
G1 X95.086 Y123.211 E18.8635
G1 X94.74 Y122.809 E18.91362
G1 X94.459 Y122.359 E18.96376
G1 X94.248 Y121.872 E19.01391
G1 X94.113 Y121.359 E19.06404
G1 X94.056 Y120.831 E19.11423
G1 X94.079 Y120.301 E19.16436
G1 X94.242 Y119.584 E19.23384
G1 X101.842 Y97.239 E21.46424
G1 X102.05 Y96.751 E21.51437
G1 X102.329 Y96.299 E21.56457
G1 X102.673 Y95.895 E21.61471
G0 F4500 X102.976 Y96.087
G1 F1800 X103.366 Y95.768 E21.66232
G1 X103.801 Y95.514 E21.70993
G1 X104.27 Y95.332 E21.75747
G1 X104.763 Y95.226 E21.80512
G1 X105.179 Y95.199 E21.84451
G1 X120.077 Y95.2 E23.25238
G1 X120.579 Y95.24 E23.29997
G1 X121.069 Y95.359 E23.34762
G1 X121.533 Y95.554 E23.39518
G1 X121.961 Y95.819 E23.44275
G1 X122.341 Y96.149 E23.49031
G1 X122.554 Y96.389 E23.52063
G1 X123.249 Y97.256 E23.62564
G1 X123.403 Y97.465 E23.65017
G1 X124.592 Y99.225 E23.85089
G1 X124.765 Y99.512 E23.88256
G1 X125.776 Y101.414 E24.08611
G1 X125.915 Y101.712 E24.11719
G1 X126.702 Y103.655 E24.31529
G1 X126.808 Y103.961 E24.34589
G1 X127.362 Y105.867 E24.53346
G1 X127.427 Y106.132 E24.55925
G1 X127.746 Y107.731 E24.71333
G1 X127.789 Y108.018 E24.74076
G1 X128.003 Y110.042 E24.93309
G1 X128.021 Y110.361 E24.96328
G1 X128.031 Y112.415 E25.15739
G1 X128.016 Y112.738 E25.18794
G1 X127.811 Y114.842 E25.38771
G1 X127.762 Y115.168 E25.41887
G1 X127.343 Y117.224 E25.61715
G1 X127.261 Y117.542 E25.64819
G1 X126.632 Y119.544 E25.84649
G1 X126.518 Y119.851 E25.87744
G1 X125.686 Y121.778 E26.07579
G1 X125.54 Y122.072 E26.10681
G1 X124.506 Y123.916 E26.3066
G1 X124.296 Y124.242 E26.34324
G1 X122.637 Y126.502 E26.60818
G1 X122.308 Y126.883 E26.65575
G1 X121.923 Y127.207 E26.7033
G1 X121.491 Y127.466 E26.7509
G1 X121.024 Y127.654 E26.79847
G1 X120.533 Y127.765 E26.84604
G1 X120.079 Y127.798 E26.88906
G1 X101.486 Y127.801 E28.6461
G1 X100.984 Y127.761 E28.69368
G1 X100.494 Y127.642 E28.74134
G1 X100.03 Y127.448 E28.78886
G1 X99.602 Y127.182 E28.83648
G1 X99.24 Y126.871 E28.88158
G1 X95.334 Y122.964 E29.40366
G1 X95.007 Y122.581 E29.45125
G1 X94.745 Y122.15 E29.49891
G1 X94.554 Y121.684 E29.54651
G1 X94.44 Y121.194 E29.59405
G1 X94.404 Y120.692 E29.64161
G1 X94.448 Y120.19 E29.68923
G1 X94.573 Y119.697 E29.73729
G1 X102.173 Y97.352 E31.96769
G1 X102.373 Y96.889 E32.01535
G1 X102.643 Y96.464 E32.06293
G1 X102.976 Y96.087 E32.11047
G10
;MESH:TapeWireGuideZMount_v1.stl
G0 F4500 X104.39 Y98.507
G0 X105.56 Y98.905
G0 X115.938 Y99.24
;TYPE:WALL-INNER
G11
G1 F1800 X116.362 Y99.24 E32.15054
G1 X116.363 Y99.24 E32.15063
G1 X119.661 Y99.24 E32.46229
G1 X120.026 Y99.693 E32.51727
G1 X120.632 Y100.534 E32.61523
G1 X121.156 Y101.346 E32.70655
G1 X121.677 Y102.254 E32.80548
G1 X122.116 Y103.122 E32.8974
G1 X122.531 Y104.054 E32.99381
G1 X122.881 Y104.968 E33.0863
G1 X123.195 Y105.927 E33.18166
G1 X123.46 Y106.909 E33.27778
G1 X123.694 Y108.008 E33.38396
G1 X123.852 Y109.025 E33.48122
G1 X123.949 Y109.976 E33.57155
G1 X124.003 Y111.021 E33.67044
G1 X124.003 Y111.98 E33.76106
G1 X123.951 Y113.016 E33.85909
G1 X123.853 Y113.976 E33.95028
G1 X123.698 Y114.977 E34.046
G1 X123.491 Y115.971 E34.14195
G1 X123.238 Y116.934 E34.23604
G1 X122.93 Y117.898 E34.33168
G1 X122.58 Y118.829 E34.42567
G1 X122.18 Y119.745 E34.52012
G1 X121.734 Y120.642 E34.61479
G1 X121.232 Y121.528 E34.71102
G1 X120.714 Y122.346 E34.80252
G1 X120.124 Y123.178 E34.89891
G1 X119.662 Y123.76 E34.96913
G1 X116.363 Y123.76 E35.28088
G1 X116.361 Y123.76 E35.28107
G1 X115.937 Y123.76 E35.32114
G1 X116.24 Y123.462 E35.34271
G1 X116.616 Y123.092 E35.39256
G1 X117.253 Y122.389 E35.48221
G1 X117.849 Y121.651 E35.57186
G1 X118.4 Y120.883 E35.66118
G1 X118.909 Y120.084 E35.7507
G1 X119.37 Y119.256 E35.84026
G1 X119.785 Y118.403 E35.9299
G1 X120.152 Y117.53 E36.01939
G1 X120.466 Y116.637 E36.10885
G1 X120.733 Y115.728 E36.19838
G1 X120.945 Y114.805 E36.28787
G1 X121.107 Y113.871 E36.37745
G1 X121.215 Y112.918 E36.46809
G1 X121.269 Y111.968 E36.55801
G1 X121.269 Y111.018 E36.64778
G1 X121.215 Y110.086 E36.736
G1 X121.111 Y109.148 E36.82519
G1 X120.95 Y108.214 E36.91475
G1 X120.739 Y107.291 E37.00423
G1 X120.475 Y106.382 E37.09368
G1 X120.16 Y105.487 E37.18334
G1 X119.794 Y104.613 E37.27288
G1 X119.38 Y103.761 E37.3624
G1 X118.919 Y102.934 E37.45187
G1 X118.412 Y102.133 E37.54145
G1 X117.861 Y101.364 E37.63085
G1 X117.265 Y100.625 E37.72057
G1 X116.617 Y99.91 E37.81176
G1 X116.24 Y99.538 E37.86181
G1 X115.938 Y99.24 E37.88337
G0 F4500 X115.012 Y99.315
G0 X114.75 Y99.474
G0 X114.555 Y99.824
G0 X114.565 Y100.238
G0 X117.181 Y104.728
G0 X117.916 Y106.329
G0 X118.448 Y108.009
G0 X118.772 Y109.741
G0 X118.879 Y111.5
G0 X118.783 Y113.146
G0 X118.473 Y114.88
G0 X117.954 Y116.565
G0 X117.371 Y117.865
G0 X114.465 Y123.014
G0 X114.564 Y123.012
G1 F1800 X114.632 Y123.293 E37.91069
G1 X114.776 Y123.497 E37.93429
G1 X115.019 Y123.642 E37.96103
G1 X115.261 Y123.686 E37.98427
G1 X115.546 Y123.618 E38.01196
G1 X115.692 Y123.511 E38.02907
G1 X116.363 Y122.85 E38.11808
G1 X116.987 Y122.161 E38.20592
G1 X117.57 Y121.439 E38.29361
G1 X118.11 Y120.687 E38.3811
G1 X118.608 Y119.905 E38.46871
G1 X119.06 Y119.094 E38.55645
G1 X119.466 Y118.259 E38.64419
G1 X119.825 Y117.404 E38.73182
G1 X120.133 Y116.53 E38.8194
G1 X120.394 Y115.639 E38.90713
G1 X120.602 Y114.736 E38.9947
G1 X120.76 Y113.821 E39.08245
G1 X120.866 Y112.888 E39.17118
G1 X120.919 Y111.958 E39.25921
G1 X120.919 Y111.028 E39.3471
G1 X120.866 Y110.115 E39.43352
G1 X120.764 Y109.197 E39.52081
G1 X120.607 Y108.283 E39.60844
G1 X120.4 Y107.379 E39.69608
G1 X120.142 Y106.489 E39.78365
G1 X119.833 Y105.613 E39.87143
G1 X119.475 Y104.757 E39.95911
G1 X119.07 Y103.923 E40.04673
G1 X118.618 Y103.113 E40.13438
G1 X118.122 Y102.329 E40.22205
G1 X117.582 Y101.576 E40.30962
G1 X116.999 Y100.853 E40.39739
G1 X116.364 Y100.152 E40.48677
G1 X115.666 Y99.463 E40.57945
G1 X115.448 Y99.346 E40.60283
G1 X115.24 Y99.32 E40.62264
G1 X115.025 Y99.352 E40.64318
G1 X114.777 Y99.503 E40.67062
G1 X114.654 Y99.677 E40.69076
G1 X114.593 Y99.833 E40.70659
G1 X114.57 Y100.009 E40.72336
G1 X114.602 Y100.225 E40.744
G1 X114.731 Y100.436 E40.76737
G1 X115.411 Y101.109 E40.85778
G1 X116.002 Y101.766 E40.94129
G1 X116.56 Y102.464 E41.02574
G1 X117.05 Y103.158 E41.10602
G1 X117.527 Y103.923 E41.19121
G1 X117.945 Y104.691 E41.27384
G1 X118.316 Y105.477 E41.35598
G1 X118.651 Y106.312 E41.441
G1 X118.928 Y107.141 E41.5236
G1 X119.161 Y108 E41.60771
G1 X119.341 Y108.863 E41.69101
G1 X119.472 Y109.743 E41.77509
G1 X119.549 Y110.619 E41.85819
G1 X119.575 Y111.491 E41.94063
G1 X119.549 Y112.376 E42.0243
G1 X119.474 Y113.238 E42.10607
G1 X119.342 Y114.136 E42.19184
G1 X119.164 Y114.991 E42.27437
G1 X118.932 Y115.85 E42.35845
G1 X118.659 Y116.668 E42.43995
G1 X118.325 Y117.504 E42.52502
G1 X117.958 Y118.285 E42.60657
G1 X117.528 Y119.076 E42.69165
G1 X117.06 Y119.827 E42.77527
G1 X116.56 Y120.537 E42.85733
G1 X116.008 Y121.227 E42.94084
G1 X115.419 Y121.883 E43.02415
G1 X114.732 Y122.563 E43.1155
G1 X114.608 Y122.768 E43.13814
G1 X114.564 Y123.012 E43.16157
G0 F4500 X114.896 Y123.002
;TYPE:WALL-OUTER
G1 F1800 X114.933 Y123.156 E43.17653
G1 X115.002 Y123.253 E43.18778
G1 X115.135 Y123.333 E43.20245
G1 X115.252 Y123.354 E43.21368
G1 X115.407 Y123.317 E43.22874
G1 X115.481 Y123.263 E43.2374
G1 X116.128 Y122.625 E43.32327
G1 X116.74 Y121.95 E43.40937
G1 X117.311 Y121.242 E43.49532
G1 X117.841 Y120.505 E43.58111
G1 X118.329 Y119.738 E43.66702
G1 X118.772 Y118.944 E43.75294
G1 X119.17 Y118.125 E43.83899
G1 X119.522 Y117.287 E43.92488
G1 X119.824 Y116.43 E44.01075
G1 X120.079 Y115.557 E44.0967
G1 X120.283 Y114.672 E44.18252
G1 X120.438 Y113.775 E44.26854
G1 X120.542 Y112.86 E44.35557
G1 X120.594 Y111.949 E44.4418
G1 X120.594 Y111.037 E44.52798
G1 X120.542 Y110.142 E44.6127
G1 X120.442 Y109.243 E44.69818
G1 X120.288 Y108.347 E44.78409
G1 X120.085 Y107.461 E44.86999
G1 X119.832 Y106.588 E44.95588
G1 X119.53 Y105.73 E45.04184
G1 X119.179 Y104.891 E45.12779
G1 X118.782 Y104.073 E45.21371
G1 X118.339 Y103.279 E45.29963
G1 X117.852 Y102.511 E45.38557
G1 X117.323 Y101.773 E45.47138
G1 X116.752 Y101.064 E45.5574
G1 X116.129 Y100.377 E45.64504
G1 X115.471 Y99.727 E45.73245
G1 X115.348 Y99.661 E45.74564
G1 X115.244 Y99.648 E45.75554
G1 X115.138 Y99.664 E45.76567
G1 X115.003 Y99.746 E45.7806
G1 X114.942 Y99.832 E45.79056
G1 X114.91 Y99.914 E45.79888
G1 X114.898 Y100.006 E45.80765
G1 X114.914 Y100.112 E45.81778
G1 X114.988 Y100.233 E45.83118
G1 X115.64 Y100.878 E45.91785
G1 X116.251 Y101.557 E46.00417
G1 X116.814 Y102.261 E46.08936
G1 X117.326 Y102.986 E46.17323
G1 X117.803 Y103.751 E46.25843
G1 X118.239 Y104.552 E46.34461
G1 X118.618 Y105.356 E46.4286
G1 X118.953 Y106.191 E46.51363
G1 X119.242 Y107.056 E46.59981
G1 X119.475 Y107.915 E46.68392
G1 X119.659 Y108.797 E46.76906
G1 X119.796 Y109.715 E46.85677
G1 X119.873 Y110.591 E46.93988
G1 X119.9 Y111.491 E47.02496
G1 X119.873 Y112.404 E47.11128
G1 X119.796 Y113.285 E47.19485
G1 X119.664 Y114.183 E47.28062
G1 X119.478 Y115.076 E47.36682
G1 X119.246 Y115.935 E47.45091
G1 X118.961 Y116.789 E47.53599
G1 X118.623 Y117.634 E47.62199
G1 X118.244 Y118.44 E47.70616
G1 X117.81 Y119.238 E47.792
G1 X117.332 Y120.006 E47.87748
G1 X116.82 Y120.732 E47.96144
G1 X116.257 Y121.436 E48.04662
G1 X115.648 Y122.114 E48.13275
G1 X114.989 Y122.766 E48.22035
G1 X114.917 Y122.885 E48.23349
G1 X114.896 Y123.002 E48.24473
G0 F4500 X114.933 Y123.156
G0 X114.957 Y123.19
G0 X114.643 Y123.412
G0 X114.61 Y123.434
G0 X114.525 Y123.013
G0 X114.623 Y121.701
G0 X115.796 Y120.387
G0 X116.8 Y118.938
G0 X117.619 Y117.378
G0 X118.24 Y115.73
G0 X118.655 Y114.017
G0 X118.852 Y112.378
G0 X118.853 Y110.62
G0 X118.637 Y108.869
G0 X118.208 Y107.16
G0 X117.572 Y105.517
G0 X116.825 Y104.118
G0 X114.266 Y100.347
;TYPE:WALL-INNER
G1 F1800 X114.455 Y100.655 E48.27888
G1 X114.778 Y100.975 E48.32184
G1 X115.16 Y101.353 E48.37263
G1 X115.404 Y101.624 E48.40709
G1 X115.729 Y101.985 E48.45299
G1 X115.99 Y102.311 E48.49245
G1 X116.278 Y102.672 E48.5361
G1 X116.531 Y103.031 E48.5776
G1 X116.764 Y103.36 E48.6157
G1 X117.028 Y103.784 E48.6629
G1 X117.23 Y104.108 E48.69898
G1 X117.479 Y104.567 E48.74832
G1 X117.628 Y104.84 E48.77772
G1 X117.88 Y105.374 E48.83352
G1 X117.999 Y105.626 E48.85985
G1 X118.231 Y106.206 E48.91888
G1 X118.322 Y106.432 E48.94191
G1 X118.531 Y107.057 E49.00418
G1 X118.59 Y107.233 E49.02173
G1 X118.777 Y107.925 E49.08947
G1 X118.82 Y108.082 E49.10485
G1 X118.971 Y108.805 E49.17465
G1 X118.998 Y108.934 E49.1871
G1 X119.111 Y109.697 E49.25999
G1 X119.123 Y109.774 E49.26735
G1 X119.195 Y110.598 E49.34552
G1 X119.2 Y110.65 E49.35046
G1 X119.225 Y111.491 E49.42997
G1 X119.2 Y112.346 E49.5108
G1 X119.196 Y112.399 E49.51582
G1 X119.127 Y113.186 E49.59048
G1 X119.125 Y113.207 E49.59247
G1 X118.999 Y114.065 E49.67442
G1 X118.997 Y114.078 E49.67566
G1 X118.822 Y114.914 E49.75638
G1 X118.81 Y114.961 E49.76096
G1 X118.597 Y115.748 E49.83801
G1 X118.569 Y115.832 E49.84638
G1 X118.33 Y116.548 E49.91771
G1 X118.276 Y116.685 E49.93163
G1 X118.008 Y117.355 E49.99982
G1 X117.931 Y117.518 E50.01685
G1 X117.646 Y118.125 E50.08022
G1 X117.535 Y118.329 E50.10217
G1 X117.221 Y118.906 E50.16425
G1 X117.092 Y119.115 E50.18746
G1 X116.774 Y119.625 E50.24425
G1 X116.601 Y119.872 E50.27275
G1 X116.28 Y120.327 E50.32537
G1 X116.063 Y120.598 E50.35818
G1 X115.739 Y121.003 E50.40719
G1 X115.482 Y121.289 E50.44353
G1 X115.168 Y121.639 E50.48796
G1 X114.862 Y121.942 E50.52866
G1 X114.455 Y122.345 E50.58278
G1 X114.275 Y122.642 E50.6156
G1 X114.22 Y122.948 E50.64498
G1 X114.206 Y123.023 E50.65219
G1 X114.304 Y123.423 E50.69111
G1 X114.308 Y123.44 E50.69276
G1 X114.533 Y123.76 E50.72973
G1 X114.309 Y123.76 E50.7368
G1 X114.291 Y123.76 E50.73845
G1 X101.842 Y123.761 E51.91488
G1 X98.564 Y120.48 E52.35316
G1 X105.799 Y99.239 E54.47368
G1 X114.287 Y99.239 E55.2758
G1 X114.344 Y99.239 E55.28118
G1 X114.537 Y99.24 E55.29942
G1 X114.494 Y99.3
G1 X114.371 Y99.473 E55.30999
G1 X114.344 Y99.51 E55.31216
G1 X114.323 Y99.563 E55.31705
G1 X114.251 Y99.745 E55.33555
G1 X114.224 Y99.964 E55.3564
G1 X114.217 Y100.012 E55.36099
G1 X114.225 Y100.062 E55.36577
G1 X114.266 Y100.347 E55.39298
G0 F4500 X113.764 Y100.557
G1 F1800 X112.75 Y100.754 E55.49059
G1 X111.991 Y100.961 E55.56494
G1 X111.247 Y101.221 E55.63942
G1 X110.524 Y101.532 E55.71379
G1 X109.826 Y101.895 E55.78814
G1 X109.154 Y102.306 E55.86258
