;FLAVOR:UltiGCode
;TIME:2529
;MATERIAL:5102
;MATERIAL2:0
;NOZZLE_DIAMETER:0.4
;Generated with Cura_SteamEngine 3.6.0
M82 ;absolute extrusion mode

G92 E0
G10
;LAYER_COUNT:104
;LAYER:0
M107
G0 F4500 X102.368 Y95.707 Z0.27
;TYPE:SKIRT
G11
G1 F1800 X102.778 Y95.332 E0.05251
G1 X103.239 Y95.02 E0.10511
G1 X103.739 Y94.776 E0.15769
G1 X104.269 Y94.607 E0.21026
G1 X104.818 Y94.516 E0.26284
G1 X105.179 Y94.499 E0.297
G1 X120.077 Y94.5 E1.70486
G1 X120.632 Y94.54 E1.75744
G1 X121.176 Y94.659 E1.81007
G1 X121.697 Y94.855 E1.86267
G1 X122.184 Y95.123 E1.9152
G1 X122.628 Y95.458 E1.96776
G1 X123.1 Y95.951 E2.03226
G1 X123.795 Y96.818 E2.13726
G1 X123.983 Y97.073 E2.1672
G1 X125.172 Y98.833 E2.36792
G1 X125.383 Y99.183 E2.40654
G1 X126.394 Y101.085 E2.61009
G1 X126.564 Y101.449 E2.64806
G1 X127.351 Y103.392 E2.84616
G1 X127.48 Y103.765 E2.88346
G1 X128.034 Y105.671 E3.07103
G1 X128.113 Y105.995 E3.10254
G1 X128.432 Y107.594 E3.25663
G1 X128.486 Y107.945 E3.29019
G1 X128.7 Y109.969 E3.48252
G1 X128.721 Y110.357 E3.51924
G1 X128.731 Y112.411 E3.71335
G1 X128.713 Y112.806 E3.75071
G1 X128.508 Y114.91 E3.95048
G1 X128.448 Y115.308 E3.98852
G1 X128.029 Y117.364 E4.1868
G1 X127.929 Y117.751 E4.22458
G1 X127.3 Y119.753 E4.42288
G1 X127.161 Y120.128 E4.46068
G1 X126.329 Y122.055 E4.65903
G1 X126.151 Y122.414 E4.69689
G1 X125.117 Y124.258 E4.89668
G1 X124.861 Y124.656 E4.9414
G1 X123.202 Y126.916 E5.20633
G1 X122.841 Y127.34 E5.25896
G1 X122.424 Y127.708 E5.31151
G1 X121.958 Y128.012 E5.36409
G1 X121.453 Y128.246 E5.41669
G1 X120.92 Y128.405 E5.46925
G1 X120.369 Y128.487 E5.52189
G1 X120.079 Y128.498 E5.54932
G1 X101.486 Y128.501 E7.30636
G1 X100.931 Y128.461 E7.35894
G1 X100.387 Y128.342 E7.41156
G1 X99.866 Y128.147 E7.46413
G1 X99.379 Y127.879 E7.51666
G1 X98.745 Y127.366 E7.59373
G1 X94.839 Y123.459 E8.11581
G1 X94.474 Y123.038 E8.16847
G1 X94.174 Y122.569 E8.22108
G1 X93.944 Y122.063 E8.2736
G1 X93.789 Y121.528 E8.32624
G1 X93.713 Y120.977 E8.3788
G1 X93.715 Y120.421 E8.43134
G1 X93.798 Y119.871 E8.48391
G1 X93.91 Y119.471 E8.52316
G1 X101.51 Y97.126 E10.75356
G1 X101.727 Y96.614 E10.80611
G1 X102.015 Y96.137 E10.85877
G1 X102.368 Y95.707 E10.91134
G0 F4500 X102.673 Y95.895
G1 F1800 X103.073 Y95.547 E10.96144
G1 X103.522 Y95.263 E11.01165
G1 X104.007 Y95.049 E11.06174
G1 X104.52 Y94.911 E11.11195
G1 X105.179 Y94.849 E11.1745
G1 X120.077 Y94.85 E12.58236
G1 X120.606 Y94.89 E12.63249
G1 X121.124 Y95.009 E12.68272
G1 X121.617 Y95.204 E12.73282
G1 X122.076 Y95.471 E12.783
G1 X122.489 Y95.804 E12.83313
G1 X122.827 Y96.17 E12.88021
G1 X123.522 Y97.037 E12.98522
G1 X123.693 Y97.269 E13.01245
G1 X124.882 Y99.029 E13.21317
G1 X125.074 Y99.348 E13.24836
G1 X126.085 Y101.25 E13.45191
G1 X126.239 Y101.581 E13.48641
G1 X127.026 Y103.524 E13.68451
G1 X127.144 Y103.863 E13.71843
G1 X127.698 Y105.769 E13.906
G1 X127.77 Y106.063 E13.93461
G1 X128.089 Y107.662 E14.08869
G1 X128.137 Y107.981 E14.11918
G1 X128.351 Y110.005 E14.31151
G1 X128.371 Y110.359 E14.34502
G1 X128.381 Y112.413 E14.53912
G1 X128.364 Y112.772 E14.57308
G1 X128.159 Y114.876 E14.77285
G1 X128.105 Y115.238 E14.80744
G1 X127.686 Y117.294 E15.00573
G1 X127.595 Y117.647 E15.04018
G1 X126.966 Y119.649 E15.23848
G1 X126.839 Y119.989 E15.27278
G1 X126.007 Y121.916 E15.47113
G1 X125.846 Y122.243 E15.50558
G1 X124.812 Y124.087 E15.70536
G1 X124.579 Y124.449 E15.74604
G1 X122.92 Y126.709 E16.01098
G1 X122.574 Y127.112 E16.06117
G1 X122.172 Y127.458 E16.11129
G1 X121.723 Y127.741 E16.16145
G1 X121.236 Y127.952 E16.2116
G1 X120.723 Y128.088 E16.26176
G1 X120.079 Y128.148 E16.32288
G1 X101.486 Y128.151 E18.07992
G1 X100.956 Y128.111 E18.13015
G1 X100.439 Y127.992 E18.18028
G1 X99.946 Y127.797 E18.23038
G1 X99.487 Y127.53 E18.28056
G1 X98.992 Y127.118 E18.34142
G1 X95.086 Y123.211 E18.8635
G1 X94.74 Y122.809 E18.91362
G1 X94.459 Y122.359 E18.96376
G1 X94.248 Y121.872 E19.01391
G1 X94.113 Y121.359 E19.06404
G1 X94.056 Y120.831 E19.11423
G1 X94.079 Y120.301 E19.16436
G1 X94.242 Y119.584 E19.23384
G1 X101.842 Y97.239 E21.46424
G1 X102.05 Y96.751 E21.51437
G1 X102.329 Y96.299 E21.56457
G1 X102.673 Y95.895 E21.61471
G0 F4500 X102.976 Y96.087
G1 F1800 X103.366 Y95.768 E21.66232
G1 X103.801 Y95.514 E21.70993
G1 X104.27 Y95.332 E21.75747
G1 X104.763 Y95.226 E21.80512
G1 X105.179 Y95.199 E21.84451
G1 X120.077 Y95.2 E23.25238
G1 X120.579 Y95.24 E23.29997
G1 X121.069 Y95.359 E23.34762
G1 X121.533 Y95.554 E23.39518
G1 X121.961 Y95.819 E23.44275
G1 X122.341 Y96.149 E23.49031
G1 X122.554 Y96.389 E23.52063
G1 X123.249 Y97.256 E23.62564
G1 X123.403 Y97.465 E23.65017
G1 X124.592 Y99.225 E23.85089
G1 X124.765 Y99.512 E23.88256
G1 X125.776 Y101.414 E24.08611
G1 X125.915 Y101.712 E24.11719
G1 X126.702 Y103.655 E24.31529
G1 X126.808 Y103.961 E24.34589
G1 X127.362 Y105.867 E24.53346
G1 X127.427 Y106.132 E24.55925
G1 X127.746 Y107.731 E24.71333
G1 X127.789 Y108.018 E24.74076
G1 X128.003 Y110.042 E24.93309
G1 X128.021 Y110.361 E24.96328
G1 X128.031 Y112.415 E25.15739
G1 X128.016 Y112.738 E25.18794
G1 X127.811 Y114.842 E25.38771
G1 X127.762 Y115.168 E25.41887
G1 X127.343 Y117.224 E25.61715
G1 X127.261 Y117.542 E25.64819
G1 X126.632 Y119.544 E25.84649
G1 X126.518 Y119.851 E25.87744
G1 X125.686 Y121.778 E26.07579
G1 X125.54 Y122.072 E26.10681
G1 X124.506 Y123.916 E26.3066
G1 X124.296 Y124.242 E26.34324
G1 X122.637 Y126.502 E26.60818
G1 X122.308 Y126.883 E26.65575
G1 X121.923 Y127.207 E26.7033
G1 X121.491 Y127.466 E26.7509
G1 X121.024 Y127.654 E26.79847
G1 X120.533 Y127.765 E26.84604
G1 X120.079 Y127.798 E26.88906
G1 X101.486 Y127.801 E28.6461
G1 X100.984 Y127.761 E28.69368
G1 X100.494 Y127.642 E28.74134
G1 X100.03 Y127.448 E28.78886
G1 X99.602 Y127.182 E28.83648
G1 X99.24 Y126.871 E28.88158
G1 X95.334 Y122.964 E29.40366
G1 X95.007 Y122.581 E29.45125
G1 X94.745 Y122.15 E29.49891
G1 X94.554 Y121.684 E29.54651
G1 X94.44 Y121.194 E29.59405
G1 X94.404 Y120.692 E29.64161
G1 X94.448 Y120.19 E29.68923
G1 X94.573 Y119.697 E29.73729
G1 X102.173 Y97.352 E31.96769
G1 X102.373 Y96.889 E32.01535
G1 X102.643 Y96.464 E32.06293
G1 X102.976 Y96.087 E32.11047
G10
;MESH:TapeWireGuideZMount_v2.stl
G0 F4500 X104.39 Y98.507
G0 X105.56 Y98.905
G0 X115.464 Y99.108
G0 X116.225 Y99.24
;TYPE:WALL-INNER
G11
G1 F1800 X116.648 Y99.24 E32.15044
G1 X116.649 Y99.24 E32.15054
G1 X119.661 Y99.24 E32.43517
G1 X120.026 Y99.693 E32.49015
G1 X120.632 Y100.534 E32.5881
G1 X121.156 Y101.346 E32.67943
G1 X121.677 Y102.254 E32.77836
G1 X122.116 Y103.122 E32.87028
G1 X122.531 Y104.054 E32.96669
G1 X122.881 Y104.968 E33.05918
G1 X123.195 Y105.927 E33.15454
G1 X123.46 Y106.909 E33.25065
G1 X123.694 Y108.008 E33.35684
G1 X123.852 Y109.025 E33.4541
G1 X123.949 Y109.976 E33.54443
G1 X124.003 Y111.021 E33.64332
G1 X124.003 Y111.98 E33.73394
G1 X123.951 Y113.016 E33.83197
G1 X123.853 Y113.976 E33.92316
G1 X123.698 Y114.977 E34.01888
G1 X123.491 Y115.971 E34.11483
G1 X123.238 Y116.934 E34.20892
G1 X122.93 Y117.898 E34.30456
G1 X122.58 Y118.829 E34.39855
G1 X122.18 Y119.745 E34.493
G1 X121.734 Y120.642 E34.58767
G1 X121.235 Y121.523 E34.68335
G1 X120.714 Y122.346 E34.7754
G1 X120.124 Y123.178 E34.87178
G1 X119.662 Y123.76 E34.94201
G1 X116.648 Y123.76 E35.22683
G1 X116.647 Y123.76 E35.22692
G1 X116.223 Y123.76 E35.26699
G1 X116.525 Y123.462 E35.28855
G1 X116.769 Y123.222 E35.32089
G1 X117.411 Y122.511 E35.41142
G1 X118.014 Y121.765 E35.50207
G1 X118.572 Y120.987 E35.59254
G1 X119.086 Y120.176 E35.68328
G1 X119.552 Y119.34 E35.77373
G1 X119.972 Y118.477 E35.86443
G1 X120.342 Y117.593 E35.95499
G1 X120.66 Y116.689 E36.04554
G1 X120.93 Y115.768 E36.13624
G1 X121.144 Y114.834 E36.22679
G1 X121.307 Y113.889 E36.31741
G1 X121.414 Y112.932 E36.40841
G1 X121.469 Y111.976 E36.49891
G1 X121.469 Y111.014 E36.58981
G1 X121.414 Y110.066 E36.67955
G1 X121.309 Y109.12 E36.7695
G1 X121.146 Y108.175 E36.86012
G1 X120.933 Y107.241 E36.95065
G1 X120.664 Y106.321 E37.04123
G1 X120.347 Y105.416 E37.13184
G1 X119.976 Y104.531 E37.22253
G1 X119.558 Y103.669 E37.31306
G1 X119.091 Y102.832 E37.40363
G1 X118.578 Y102.021 E37.49432
G1 X118.02 Y101.243 E37.5848
G1 X117.417 Y100.496 E37.67552
G1 X116.763 Y99.772 E37.76772
G1 X116.526 Y99.538 E37.79919
G1 X116.225 Y99.24 E37.82072
G0 F4500 X118.321 Y102.195
G0 X119.282 Y103.813
G0 X120.057 Y105.528
G0 X120.632 Y107.319
G0 X121.001 Y109.164
G0 X121.158 Y111.023
G0 X121.104 Y112.905
G0 X120.84 Y114.772
G0 X120.365 Y116.594
G0 X119.689 Y118.349
G0 X118.819 Y120.017
G0 X117.766 Y121.577
G0 X116.544 Y123.007
G0 X115.835 Y123.663
G0 X115.451 Y123.96
G0 X115.431 Y123.863
G1 F1800 X115.65 Y123.782 E37.84278
G1 X115.678 Y123.763 E37.84598
G1 X115.823 Y123.664 E37.86257
G1 X116.516 Y122.98 E37.95459
G1 X117.145 Y122.284 E38.04324
G1 X117.735 Y121.553 E38.13201
G1 X118.282 Y120.791 E38.22065
G1 X118.785 Y119.997 E38.30947
G1 X119.242 Y119.178 E38.3981
G1 X119.653 Y118.333 E38.4869
G1 X120.015 Y117.467 E38.5756
G1 X120.327 Y116.582 E38.66428
G1 X120.591 Y115.68 E38.75309
G1 X120.801 Y114.765 E38.84181
G1 X120.96 Y113.84 E38.9305
G1 X121.065 Y112.902 E39.0197
G1 X121.119 Y111.966 E39.1083
G1 X121.119 Y111.024 E39.19732
G1 X121.065 Y110.096 E39.28516
G1 X120.962 Y109.169 E39.3733
G1 X120.803 Y108.244 E39.462
G1 X120.594 Y107.329 E39.55069
G1 X120.331 Y106.428 E39.63939
G1 X120.02 Y105.542 E39.72812
G1 X119.657 Y104.675 E39.81695
G1 X119.247 Y103.831 E39.90562
G1 X118.79 Y103.011 E39.99433
G1 X118.288 Y102.217 E40.0831
G1 X117.741 Y101.455 E40.17174
G1 X117.151 Y100.723 E40.26059
G1 X116.51 Y100.014 E40.35091
G1 X115.825 Y99.337 E40.44192
G1 X115.681 Y99.236 E40.45854
G1 X115.663 Y99.224 E40.46059
G1 X115.455 Y99.146 E40.48158
G1 X115.227 Y99.12 E40.50327
G1 X114.998 Y99.157 E40.52519
G1 X114.827 Y99.234 E40.54291
G1 X114.789 Y99.251 E40.54684
G1 X114.612 Y99.395 E40.56841
G1 X114.475 Y99.584 E40.59047
G1 X114.396 Y99.796 E40.61185
G1 X114.37 Y100.023 E40.63344
G1 X114.407 Y100.253 E40.65545
G1 X114.503 Y100.463 E40.67727
G1 X114.629 Y100.616 E40.696
G1 X115.261 Y101.24 E40.77993
G1 X115.856 Y101.902 E40.86405
G1 X116.399 Y102.582 E40.94628
G1 X116.89 Y103.276 E41.02662
G1 X117.354 Y104.021 E41.10956
G1 X117.78 Y104.805 E41.19388
G1 X118.137 Y105.565 E41.27323
G1 X118.468 Y106.39 E41.35723
G1 X118.741 Y107.208 E41.43872
G1 X118.97 Y108.056 E41.52173
G1 X119.147 Y108.906 E41.60378
G1 X119.149 Y108.925 E41.60558
G1 X119.27 Y109.744 E41.68382
G1 X119.274 Y109.765 E41.68584
G1 X119.35 Y110.633 E41.76818
G1 X119.375 Y111.494 E41.84958
G1 X119.35 Y112.367 E41.93211
G1 X119.274 Y113.235 E42.01445
G1 X119.149 Y114.082 E42.09536
G1 X118.97 Y114.944 E42.17855
G1 X118.741 Y115.792 E42.26156
G1 X118.472 Y116.599 E42.34195
G1 X118.138 Y117.433 E42.42685
G1 X117.78 Y118.195 E42.50641
G1 X117.357 Y118.974 E42.59017
G1 X116.893 Y119.719 E42.67311
G1 X116.4 Y120.416 E42.75379
G1 X115.856 Y121.098 E42.83623
G1 X115.263 Y121.757 E42.92001
G1 X114.62 Y122.393 E43.00548
G1 X114.502 Y122.538 E43.02314
G1 X114.409 Y122.744 E43.0445
G1 X114.37 Y122.972 E43.06636
G1 X114.394 Y123.201 E43.08812
G1 X114.474 Y123.415 E43.10971
G1 X114.609 Y123.602 E43.1315
G1 X114.78 Y123.742 E43.15239
G1 X114.829 Y123.765 E43.1575
G1 X114.982 Y123.836 E43.17344
G1 X115.2 Y123.876 E43.19439
G1 X115.431 Y123.863 E43.21625
G0 F4500 X115.364 Y123.541
;TYPE:WALL-OUTER
G1 F1800 X115.5 Y123.491 E43.22995
G1 X115.616 Y123.412 E43.24321
G1 X116.281 Y122.755 E43.33155
G1 X116.898 Y122.073 E43.41846
G1 X117.476 Y121.356 E43.50549
G1 X118.013 Y120.609 E43.59243
G1 X118.506 Y119.831 E43.67947
G1 X118.954 Y119.028 E43.76636
G1 X119.357 Y118.199 E43.85347
G1 X119.712 Y117.35 E43.94043
G1 X120.018 Y116.482 E44.0274
G1 X120.276 Y115.598 E44.11443
G1 X120.482 Y114.701 E44.2014
G1 X120.638 Y113.794 E44.28837
G1 X120.741 Y112.875 E44.37576
G1 X120.794 Y111.957 E44.46266
G1 X120.794 Y111.033 E44.54997
G1 X120.741 Y110.123 E44.63611
G1 X120.64 Y109.215 E44.72245
G1 X120.484 Y108.308 E44.80942
G1 X120.279 Y107.411 E44.89637
G1 X120.021 Y106.527 E44.98339
G1 X119.716 Y105.659 E45.07034
G1 X119.361 Y104.809 E45.15739
G1 X118.959 Y103.981 E45.24437
G1 X118.511 Y103.177 E45.33134
G1 X118.018 Y102.399 E45.41838
G1 X117.482 Y101.652 E45.50527
G1 X116.904 Y100.934 E45.59237
G1 X116.275 Y100.239 E45.68095
G1 X115.616 Y99.588 E45.76849
G1 X115.51 Y99.514 E45.78071
G1 X115.378 Y99.464 E45.79405
G1 X115.235 Y99.448 E45.80764
G1 X115.092 Y99.471 E45.82133
G1 X114.961 Y99.53 E45.83491
G1 X114.85 Y99.62 E45.84841
G1 X114.764 Y99.739 E45.86229
G1 X114.714 Y99.872 E45.87571
G1 X114.698 Y100.015 E45.88931
G1 X114.721 Y100.158 E45.903
G1 X114.781 Y100.29 E45.9167
G1 X114.869 Y100.397 E45.92979
G1 X115.503 Y101.023 E46.01399
G1 X116.105 Y101.693 E46.09911
G1 X116.653 Y102.379 E46.18208
G1 X117.166 Y103.104 E46.26601
G1 X117.636 Y103.859 E46.35005
G1 X118.066 Y104.65 E46.43513
G1 X118.439 Y105.444 E46.51803
G1 X118.77 Y106.269 E46.60204
G1 X119.055 Y107.123 E46.68711
G1 X119.284 Y107.971 E46.77012
G1 X119.465 Y108.84 E46.854
G1 X119.598 Y109.737 E46.9397
G1 X119.674 Y110.605 E47.02204
G1 X119.7 Y111.494 E47.10608
G1 X119.674 Y112.395 E47.19126
G1 X119.598 Y113.263 E47.2736
G1 X119.467 Y114.148 E47.35815
G1 X119.284 Y115.029 E47.44318
G1 X119.055 Y115.877 E47.52619
G1 X118.774 Y116.72 E47.61016
G1 X118.44 Y117.554 E47.69506
G1 X118.066 Y118.35 E47.77817
G1 X117.638 Y119.138 E47.86291
G1 X117.167 Y119.895 E47.94716
G1 X116.654 Y120.619 E48.03101
G1 X116.105 Y121.307 E48.11419
G1 X115.504 Y121.976 E48.19918
G1 X114.861 Y122.611 E48.28458
G1 X114.781 Y122.71 E48.29661
G1 X114.722 Y122.84 E48.3101
G1 X114.698 Y122.982 E48.32371
G1 X114.713 Y123.126 E48.33739
G1 X114.763 Y123.26 E48.3509
G1 X114.848 Y123.378 E48.36465
G1 X114.954 Y123.465 E48.3776
G1 X115.081 Y123.524 E48.39084
G1 X115.22 Y123.549 E48.40418
G1 X115.364 Y123.541 E48.41781
G0 F4500 X115.5 Y123.491
G0 X115.546 Y123.46
G0 X115.762 Y123.779
G0 X115.783 Y123.811
G0 X115.198 Y123.915
G0 X114.759 Y123.775
G0 X114.439 Y123.433
G0 X114.331 Y122.971
G0 X114.468 Y122.517
G0 X117.052 Y118.086
G0 X117.765 Y116.5
G0 X118.278 Y114.837
G0 X118.584 Y113.124
G0 X118.679 Y111.5
G0 X118.573 Y109.764
G0 X118.253 Y108.054
G0 X117.727 Y106.395
G0 X117 Y104.813
G0 X116.482 Y103.975
G0 X114.204 Y100.65
;TYPE:WALL-INNER
G1 F1800 X114.37 Y100.852 E48.44252
G1 X114.628 Y101.107 E48.4768
G1 X115.01 Y101.484 E48.52752
G1 X115.246 Y101.747 E48.56091
G1 X115.582 Y102.12 E48.60835
G1 X115.826 Y102.426 E48.64534
G1 X116.119 Y102.793 E48.68972
G1 X116.362 Y103.136 E48.72944
G1 X116.604 Y103.478 E48.76903
G1 X116.854 Y103.88 E48.81377
G1 X117.046 Y104.188 E48.84807
G1 X117.298 Y104.652 E48.89796
G1 X117.468 Y104.965 E48.93162
G1 X117.696 Y105.451 E48.98235
G1 X117.82 Y105.714 E49.00983
G1 X118.043 Y106.272 E49.06662
G1 X118.139 Y106.51 E49.09087
G1 X118.339 Y107.111 E49.15072
G1 X118.406 Y107.31 E49.17057
G1 X118.584 Y107.969 E49.23507
G1 X118.627 Y108.127 E49.25055
G1 X118.775 Y108.839 E49.31927
G1 X118.804 Y108.977 E49.3326
G1 X118.914 Y109.721 E49.40367
G1 X118.925 Y109.796 E49.41083
G1 X118.996 Y110.609 E49.48795
G1 X119.001 Y110.664 E49.49317
G1 X119.025 Y111.494 E49.57164
G1 X119.003 Y112.277 E49.64566
G1 X119.001 Y112.336 E49.65124
G1 X118.929 Y113.163 E49.72969
G1 X118.925 Y113.204 E49.73358
G1 X118.806 Y114.011 E49.81067
G1 X118.799 Y114.047 E49.81413
G1 X118.628 Y114.867 E49.89329
G1 X118.614 Y114.92 E49.89847
G1 X118.406 Y115.69 E49.97384
G1 X118.377 Y115.778 E49.9826
G1 X118.143 Y116.479 E50.05244
G1 X118.087 Y116.621 E50.06686
G1 X117.821 Y117.284 E50.13437
G1 X117.746 Y117.444 E50.15107
G1 X117.468 Y118.035 E50.21279
G1 X117.354 Y118.245 E50.23537
G1 X117.05 Y118.804 E50.2955
G1 X116.915 Y119.022 E50.31973
G1 X116.607 Y119.517 E50.37483
G1 X116.43 Y119.768 E50.40385
G1 X116.12 Y120.206 E50.45456
G1 X115.899 Y120.483 E50.48805
G1 X115.585 Y120.876 E50.53558
G1 X115.324 Y121.165 E50.57238
G1 X115.012 Y121.512 E50.61648
G1 X114.71 Y121.81 E50.65657
G1 X114.36 Y122.157 E50.70315
G1 X114.202 Y122.352 E50.72687
G1 X114.072 Y122.641 E50.75681
G1 X114.056 Y122.739 E50.7662
G1 X114.017 Y122.961 E50.7875
G1 X114.051 Y123.282 E50.818
G1 X114.12 Y123.467 E50.83666
G1 X114.163 Y123.582 E50.84826
