;FLAVOR:UltiGCode
;TIME:2574
;MATERIAL:5456
;MATERIAL2:0
;NOZZLE_DIAMETER:0.4
;Generated with Cura_SteamEngine 3.6.0
M82 ;absolute extrusion mode

G92 E0
G10
;LAYER_COUNT:133
;LAYER:0
M107
G0 F4500 X89.709 Y101.783 Z0.27
;TYPE:SKIRT
G11
G1 F1800 X89.965 Y101.57 E0.03147
G1 X90.34 Y101.286 E0.07592
G1 X90.786 Y100.998 E0.12609
G1 X91.494 Y100.708 E0.1984
G1 X91.741 Y100.637 E0.22268
G1 X92.261 Y100.529 E0.27287
G1 X92.716 Y100.5 E0.31596
G1 X130.191 Y100.507 E3.85734
G1 X130.72 Y100.547 E3.90748
G1 X131.237 Y100.666 E3.95761
G1 X131.73 Y100.861 E4.00771
G1 X131.979 Y100.995 E4.03443
G1 X132.646 Y101.388 E4.10759
G1 X133.082 Y101.691 E4.15777
G1 X133.467 Y102.056 E4.2079
G1 X133.793 Y102.475 E4.25807
G1 X134.085 Y103.01 E4.31567
G1 X134.277 Y103.448 E4.36086
G1 X134.453 Y103.948 E4.41095
G1 X134.552 Y104.47 E4.46116
G1 X134.574 Y104.865 E4.49854
G1 X134.568 Y118.206 E5.75927
G1 X134.528 Y118.735 E5.8094
G1 X134.409 Y119.252 E5.85954
G1 X134.148 Y119.872 E5.92311
G1 X133.895 Y120.343 E5.97363
G1 X133.61 Y120.79 E6.02373
G1 X133.26 Y121.19 E6.07396
G1 X132.727 Y121.62 E6.13867
G1 X132.4 Y121.835 E6.17565
G1 X131.935 Y122.093 E6.22591
G1 X131.438 Y122.277 E6.27599
G1 X131.015 Y122.371 E6.31694
G1 X130.618 Y122.434 E6.35492
G1 X130.066 Y122.478 E6.40725
G1 X92.962 Y122.48 E9.91358
G1 X92.433 Y122.44 E9.96371
G1 X92.136 Y122.382 E9.99231
G1 X91.547 Y122.24 E10.04957
G1 X91.042 Y122.077 E10.09971
G1 X90.567 Y121.84 E10.14988
G1 X90.004 Y121.423 E10.21609
G1 X89.701 Y121.148 E10.25475
G1 X89.336 Y120.763 E10.30489
G1 X88.969 Y120.214 E10.36729
G1 X88.849 Y119.992 E10.39114
G1 X88.633 Y119.508 E10.44123
G1 X88.483 Y118.952 E10.49565
G1 X88.408 Y118.543 E10.53494
G1 X88.35 Y117.906 E10.59539
G1 X88.354 Y104.921 E11.82247
G1 X88.394 Y104.392 E11.8726
G1 X88.6 Y103.627 E11.94747
G1 X88.814 Y103.085 E12.00254
G1 X89.046 Y102.608 E12.05266
G1 X89.346 Y102.171 E12.10275
G1 X89.709 Y101.783 E12.15296
G0 F4500 X90.176 Y101.849
G1 F1800 X90.551 Y101.565 E12.19742
G1 X90.975 Y101.294 E12.24497
G1 X91.591 Y101.045 E12.30776
G1 X91.838 Y100.974 E12.33205
G1 X92.331 Y100.873 E12.3796
G1 X92.716 Y100.85 E12.41605
G1 X130.191 Y100.857 E15.95744
G1 X130.693 Y100.897 E16.00503
G1 X131.182 Y101.016 E16.05259
G1 X131.802 Y101.297 E16.11691
G1 X132.469 Y101.69 E16.19007
G1 X132.881 Y101.979 E16.23763
G1 X133.242 Y102.33 E16.28521
G1 X133.544 Y102.733 E16.3328
G1 X133.765 Y103.15 E16.3774
G1 X133.957 Y103.588 E16.42259
G1 X134.122 Y104.064 E16.4702
G1 X134.21 Y104.56 E16.5178
G1 X134.224 Y104.864 E16.54656
G1 X134.218 Y118.205 E17.80729
G1 X134.178 Y118.707 E17.85488
G1 X134.059 Y119.197 E17.90253
G1 X133.84 Y119.706 E17.95489
G1 X133.587 Y120.177 E18.00542
G1 X133.314 Y120.601 E18.05307
G1 X132.978 Y120.976 E18.10065
G1 X132.534 Y121.328 E18.1542
G1 X132.207 Y121.543 E18.19118
G1 X131.766 Y121.785 E18.23872
G1 X131.292 Y121.955 E18.2863
G1 X130.961 Y122.026 E18.31829
G1 X130.564 Y122.089 E18.35628
G1 X130.066 Y122.128 E18.40348
G1 X92.962 Y122.13 E21.90981
G1 X92.218 Y122.042 E21.98061
G1 X91.629 Y121.9 E22.03787
G1 X91.15 Y121.743 E22.0855
G1 X90.702 Y121.513 E22.13309
G1 X90.239 Y121.164 E22.18788
G1 X89.936 Y120.889 E22.22655
G1 X89.591 Y120.522 E22.27415
G1 X89.277 Y120.048 E22.32788
G1 X89.157 Y119.826 E22.35173
G1 X88.953 Y119.365 E22.39937
G1 X88.827 Y118.889 E22.4459
G1 X88.752 Y118.48 E22.48519
G1 X88.7 Y117.906 E22.53966
G1 X88.704 Y104.921 E23.76674
G1 X88.744 Y104.419 E23.81433
G1 X88.926 Y103.756 E23.8793
G1 X89.14 Y103.214 E23.93437
G1 X89.361 Y102.762 E23.98191
G1 X89.652 Y102.35 E24.02958
G1 X90.176 Y101.849 E24.09809
G10
;MESH:TapeWireGuideMount_v9.stl
G0 F4500 X92.479 Y103.346
G0 X92.903 Y104.544
G0 X130.038 Y104.886
;TYPE:WALL-INNER
G11
G1 F1800 X130.098 Y104.905 E24.10404
G1 X130.17 Y104.957 E24.11243
G1 X130.191 Y104.994 E24.11645
G1 X130.199 Y105.051 E24.12189
G1 X130.199 Y105.065 E24.12321
G1 X130.194 Y118.049 E25.3502
G1 X130.18 Y118.065 E25.35221
G1 X130.14 Y118.08 E25.35625
G1 X130.051 Y118.088 E25.36469
G1 X92.948 Y118.089 E28.87092
G1 X92.914 Y118.089 E28.87414
G1 X92.825 Y118.072 E28.8827
G1 X92.781 Y118.038 E28.88796
G1 X92.749 Y117.97 E28.89506
G1 X92.738 Y117.871 E28.90447
G1 X92.738 Y117.837 E28.90768
G1 X92.738 Y105.042 E30.11681
G1 X92.754 Y104.952 E30.12545
G1 X92.786 Y104.91 E30.13044
G1 X92.837 Y104.885 E30.13581
G1 X92.921 Y104.875 E30.1438
G1 X129.916 Y104.875 E33.63983
G1 X129.93 Y104.875 E33.64115
G1 X130.038 Y104.886 E33.65141
G0 F4500 X130.11 Y104.542
G1 F1800 X130.241 Y104.584 E33.66441
G1 X130.35 Y104.647 E33.67631
G1 X130.436 Y104.726 E33.68734
G1 X130.497 Y104.813 E33.69738
G1 X130.533 Y104.907 E33.7069
G1 X130.549 Y105.028 E33.71843
G1 X130.548 Y118.013 E34.94551
G1 X130.538 Y118.12 E34.95567
G1 X130.516 Y118.191 E34.96269
G1 X130.48 Y118.256 E34.96971
G1 X130.43 Y118.315 E34.97702
G1 X130.366 Y118.364 E34.98464
G1 X130.283 Y118.404 E34.99335
G1 X130.196 Y118.427 E35.00185
G1 X130.07 Y118.438 E35.0138
G1 X92.895 Y118.439 E38.52684
G1 X92.767 Y118.423 E38.53903
G1 X92.67 Y118.388 E38.54877
G1 X92.574 Y118.327 E38.55952
G1 X92.504 Y118.255 E38.56901
G1 X92.483 Y118.219 E38.57295
G1 X92.441 Y118.151 E38.5805
G1 X92.406 Y118.049 E38.59069
G1 X92.388 Y117.894 E38.60544
G1 X92.388 Y105.026 E39.82147
G1 X92.401 Y104.899 E39.83353
G1 X92.436 Y104.8 E39.84345
G1 X92.492 Y104.71 E39.85347
G1 X92.568 Y104.634 E39.86363
G1 X92.656 Y104.578 E39.87348
G1 X92.756 Y104.543 E39.8835
G1 X92.793 Y104.539 E39.88701
G1 X92.877 Y104.529 E39.89501
G1 X92.902 Y104.525 E39.8974
G1 X129.947 Y104.525 E43.39815
G1 X130.11 Y104.542 E43.41364
G0 F4500 X130.18 Y104.223
;TYPE:WALL-OUTER
G1 F1800 X130.371 Y104.284 E43.43259
G1 X130.544 Y104.384 E43.45147
G1 X130.684 Y104.513 E43.46946
G1 X130.785 Y104.658 E43.48616
G1 X130.85 Y104.824 E43.50301
G1 X130.874 Y105.009 E43.52064
G1 X130.873 Y118.032 E44.75131
G1 X130.859 Y118.181 E44.76545
G1 X130.816 Y118.32 E44.7792
G1 X130.749 Y118.442 E44.79235
G1 X130.655 Y118.551 E44.80596
G1 X130.537 Y118.642 E44.82004
G1 X130.397 Y118.71 E44.83475
G1 X130.248 Y118.749 E44.8493
G1 X130.086 Y118.763 E44.86467
G1 X92.871 Y118.764 E48.38148
G1 X92.693 Y118.742 E48.39843
G1 X92.526 Y118.681 E48.41523
G1 X92.369 Y118.582 E48.43277
G1 X92.243 Y118.452 E48.44988
G1 X92.145 Y118.291 E48.46769
G1 X92.087 Y118.12 E48.48476
G1 X92.063 Y117.915 E48.50426
G1 X92.063 Y105.011 E49.72369
G1 X92.082 Y104.828 E49.74108
G1 X92.142 Y104.658 E49.75811
G1 X92.237 Y104.505 E49.77513
G1 X92.363 Y104.378 E49.79204
G1 X92.513 Y104.283 E49.80882
G1 X92.681 Y104.224 E49.82564
G1 X92.879 Y104.2 E49.84449
G1 X129.962 Y104.2 E53.34884
G1 X130.18 Y104.223 E53.36955
G0 F4500 X130.371 Y104.284
G0 X130.216 Y104.636
G0 X129.859 Y105.215
;TYPE:SKIN
G1 F1800 X129.854 Y117.748 E54.55392
G1 X93.078 Y117.749 E58.02925
G1 X93.078 Y105.215 E59.21371
G1 X129.859 Y105.215 E62.68952
G0 F4500 X129.701 Y105.447
G1 F1800 X129.626 Y105.372 E62.69954
G0 F4500 X129.131 Y105.372
G1 F1800 X129.701 Y105.942 E62.77572
G0 F4500 X129.701 Y106.437
G1 F1800 X128.636 Y105.372 E62.91805
G0 F4500 X128.141 Y105.372
G1 F1800 X129.701 Y106.932 E63.12653
G0 F4500 X129.7 Y107.426
G1 F1800 X127.646 Y105.372 E63.40104
G0 F4500 X127.151 Y105.372
G1 F1800 X129.7 Y107.921 E63.74169
G0 F4500 X129.7 Y108.416
G1 F1800 X126.656 Y105.372 E64.1485
G0 F4500 X126.161 Y105.372
G1 F1800 X129.7 Y108.911 E64.62146
G0 F4500 X129.7 Y109.406
G1 F1800 X125.666 Y105.372 E65.16058
G0 F4500 X125.171 Y105.372
G1 F1800 X129.699 Y109.9 E65.76572
G0 F4500 X129.699 Y110.395
G1 F1800 X124.676 Y105.372 E66.43701
G0 F4500 X124.181 Y105.372
G1 F1800 X129.699 Y110.89 E67.17445
G0 F4500 X129.699 Y111.385
G1 F1800 X123.686 Y105.372 E67.97805
G0 F4500 X123.191 Y105.372
G1 F1800 X129.698 Y111.879 E68.84766
G0 F4500 X129.698 Y112.374
G1 F1800 X122.696 Y105.372 E69.78343
G0 F4500 X122.201 Y105.372
G1 F1800 X129.698 Y112.869 E70.78536
G0 F4500 X129.698 Y113.364
G1 F1800 X121.706 Y105.372 E71.85343
G0 F4500 X121.211 Y105.372
G1 F1800 X129.698 Y113.859 E72.98766
G0 F4500 X129.698 Y114.354
G1 F1800 X120.716 Y105.372 E74.18804
G0 F4500 X120.221 Y105.372
G1 F1800 X129.698 Y114.848 E75.45451
G0 F4500 X129.698 Y115.343
G1 F1800 X119.726 Y105.372 E76.78714
G0 F4500 X119.231 Y105.372
G1 F1800 X129.697 Y115.838 E78.18585
G0 F4500 X129.697 Y116.333
G1 F1800 X118.736 Y105.372 E79.65071
G0 F4500 X118.241 Y105.372
G1 F1800 X129.697 Y116.828 E81.18173
G0 F4500 X129.697 Y117.323
G1 F1800 X117.746 Y105.372 E82.7789
G0 F4500 X117.251 Y105.372
G1 F1800 X129.47 Y117.591 E84.41188
G0 F4500 X128.975 Y117.591
G1 F1800 X116.756 Y105.372 E86.04487
G0 F4500 X116.261 Y105.372
G1 F1800 X128.48 Y117.591 E87.67785
G0 F4500 X127.985 Y117.591
G1 F1800 X115.766 Y105.372 E89.31084
G0 F4500 X115.271 Y105.372
G1 F1800 X127.49 Y117.591 E90.94383
G0 F4500 X126.995 Y117.591
G1 F1800 X114.776 Y105.372 E92.57681
G0 F4500 X114.281 Y105.372
G1 F1800 X126.5 Y117.591 E94.2098
G0 F4500 X126.005 Y117.591
G1 F1800 X113.786 Y105.372 E95.84278
G0 F4500 X113.291 Y105.372
G1 F1800 X125.51 Y117.591 E97.47577
G0 F4500 X125.015 Y117.591
G1 F1800 X112.796 Y105.372 E99.10876
G0 F4500 X112.301 Y105.372
G1 F1800 X124.52 Y117.591 E100.74174
G0 F4500 X124.025 Y117.591
G1 F1800 X111.807 Y105.372 E102.37466
G0 F4500 X111.312 Y105.372
G1 F1800 X123.53 Y117.591 E104.00758
G0 F4500 X123.035 Y117.591
G1 F1800 X110.817 Y105.372 E105.6405
G0 F4500 X110.322 Y105.372
G1 F1800 X122.54 Y117.591 E107.27342
G0 F4500 X122.045 Y117.591
G1 F1800 X109.827 Y105.372 E108.90634
G0 F4500 X109.332 Y105.372
G1 F1800 X121.55 Y117.591 E110.53926
G0 F4500 X121.055 Y117.591
G1 F1800 X108.837 Y105.372 E112.17218
G0 F4500 X108.342 Y105.372
G1 F1800 X120.56 Y117.591 E113.8051
G0 F4500 X120.066 Y117.591
G1 F1800 X107.847 Y105.372 E115.43808
G0 F4500 X107.352 Y105.372
G1 F1800 X119.571 Y117.591 E117.07107
G0 F4500 X119.076 Y117.591
G1 F1800 X106.857 Y105.372 E118.70405
G0 F4500 X106.362 Y105.372
G1 F1800 X118.581 Y117.591 E120.33704
G0 F4500 X118.086 Y117.591
G1 F1800 X105.867 Y105.372 E121.97003
G0 F4500 X105.372 Y105.372
G1 F1800 X117.591 Y117.591 E123.60301
G0 F4500 X117.096 Y117.591
G1 F1800 X104.877 Y105.372 E125.236
G0 F4500 X104.382 Y105.372
G1 F1800 X116.601 Y117.591 E126.86898
G0 F4500 X116.106 Y117.591
G1 F1800 X103.887 Y105.372 E128.50197
G0 F4500 X103.392 Y105.372
G1 F1800 X115.611 Y117.591 E130.13496
G0 F4500 X115.116 Y117.591
G1 F1800 X102.897 Y105.372 E131.76794
G0 F4500 X102.402 Y105.372
G1 F1800 X114.621 Y117.591 E133.40093
G0 F4500 X114.126 Y117.591
G1 F1800 X101.907 Y105.372 E135.03391
G0 F4500 X101.412 Y105.372
G1 F1800 X113.631 Y117.591 E136.6669
G0 F4500 X113.136 Y117.591
G1 F1800 X100.917 Y105.372 E138.29989
G0 F4500 X100.422 Y105.372
G1 F1800 X112.641 Y117.591 E139.93287
G0 F4500 X112.146 Y117.591
G1 F1800 X99.927 Y105.372 E141.56586
G0 F4500 X99.432 Y105.372
G1 F1800 X111.651 Y117.591 E143.19884
G0 F4500 X111.156 Y117.591
G1 F1800 X98.937 Y105.372 E144.83183
G0 F4500 X98.442 Y105.372
G1 F1800 X110.661 Y117.591 E146.46482
G0 F4500 X110.166 Y117.591
G1 F1800 X97.947 Y105.372 E148.0978
G0 F4500 X97.452 Y105.372
G1 F1800 X109.671 Y117.591 E149.73079
G0 F4500 X109.176 Y117.591
G1 F1800 X96.957 Y105.372 E151.36377
G0 F4500 X96.462 Y105.372
G1 F1800 X108.681 Y117.591 E152.99676
G0 F4500 X108.186 Y117.591
G1 F1800 X95.967 Y105.372 E154.62975
G0 F4500 X95.472 Y105.372
G1 F1800 X107.691 Y117.591 E156.26273
G0 F4500 X107.196 Y117.591
G1 F1800 X94.977 Y105.372 E157.89572
G0 F4500 X94.482 Y105.372
G1 F1800 X106.701 Y117.591 E159.5287
G0 F4500 X106.206 Y117.591
G1 F1800 X93.987 Y105.372 E161.16169
G0 F4500 X93.492 Y105.372
G1 F1800 X105.711 Y117.591 E162.79468
G0 F4500 X105.216 Y117.591
G1 F1800 X93.234 Y105.609 E164.39599
G0 F4500 X93.234 Y106.104
G1 F1800 X104.721 Y117.591 E165.93115
G0 F4500 X104.226 Y117.591
G1 F1800 X93.234 Y106.599 E167.40015
G0 F4500 X93.234 Y107.094
G1 F1800 X103.731 Y117.591 E168.80301
G0 F4500 X103.236 Y117.591
G1 F1800 X93.234 Y107.589 E170.13971
G0 F4500 X93.234 Y108.084
G1 F1800 X102.741 Y117.591 E171.41025
G0 F4500 X102.246 Y117.591
G1 F1800 X93.234 Y108.579 E172.61464
G0 F4500 X93.234 Y109.074
G1 F1800 X101.751 Y117.591 E173.75288
G0 F4500 X101.256 Y117.591
G1 F1800 X93.234 Y109.569 E174.82497
G0 F4500 X93.234 Y110.063
G1 F1800 X100.762 Y117.591 E175.83103
G0 F4500 X100.267 Y117.591
G1 F1800 X93.234 Y110.558 E176.77095
G0 F4500 X93.234 Y111.053
G1 F1800 X99.772 Y117.591 E177.64471
G0 F4500 X99.277 Y117.591
G1 F1800 X93.234 Y111.548 E178.45231
G0 F4500 X93.234 Y112.043
G1 F1800 X98.782 Y117.591 E179.19376
G0 F4500 X98.287 Y117.591
G1 F1800 X93.234 Y112.538 E179.86906
G0 F4500 X93.234 Y113.033
G1 F1800 X97.792 Y117.591 E180.47821
G0 F4500 X97.297 Y117.591
G1 F1800 X93.234 Y113.528 E181.0212
G0 F4500 X93.234 Y114.023
G1 F1800 X96.802 Y117.591 E181.49804
G0 F4500 X96.307 Y117.591
G1 F1800 X93.234 Y114.518 E181.90873
G0 F4500 X93.234 Y115.013
G1 F1800 X95.812 Y117.591 E182.25326
G0 F4500 X95.317 Y117.591
G1 F1800 X93.234 Y115.508 E182.53164
G0 F4500 X93.234 Y116.003
G1 F1800 X94.822 Y117.591 E182.74386
G0 F4500 X94.327 Y117.591
G1 F1800 X93.234 Y116.498 E182.88993
G0 F4500 X93.234 Y116.993
G1 F1800 X93.832 Y117.591 E182.96985
G0 F4500 X93.337 Y117.591
G1 F1800 X93.234 Y117.488 E182.98362
;MESH:NONMESH
G0 F4500 X129.945 Y104.887
;TIME_ELAPSED:71.884312
;LAYER:1
M106 S255
;MESH:TapeWireGuideMount_v9.stl
G0 F6750 X129.945 Y104.887 Z0.42
;TYPE:WALL-INNER
G1 F2400 X129.996 Y104.904 E182.98644
G1 X130.048 Y104.934 E182.98959
G1 X130.083 Y104.969 E182.99219
G1 X130.093 Y104.993 E182.99356
G1 X130.101 Y105.055 E182.99684
G1 X130.101 Y105.068 E182.99752
G1 X130.095 Y117.99 E183.67593
G1 X130.089 Y118.004 E183.67672
G1 X130.028 Y118.026 E183.68013
G1 X129.958 Y118.032 E183.68382
G1 X92.917 Y118.032 E185.62847
G1 X92.818 Y118.012 E185.63377
G1 X92.78 Y117.981 E185.63635
G1 X92.75 Y117.918 E185.64001
G1 X92.738 Y117.814 E185.64551
G1 X92.738 Y105.042 E186.31604
G1 X92.753 Y104.954 E186.32072
G1 X92.788 Y104.908 E186.32376
G1 X92.829 Y104.887 E186.32618
G1 X92.925 Y104.875 E186.33126
G1 X129.819 Y104.875 E188.26819
G1 X129.832 Y104.875 E188.26887
G1 X129.945 Y104.887 E188.27484
G0 F6750 X130.018 Y104.543
G1 F2400 X130.142 Y104.584 E188.2817
G1 X130.258 Y104.652 E188.28875
G1 X130.343 Y104.73 E188.29481
G1 X130.396 Y104.807 E188.29972
G1 X130.434 Y104.904 E188.30519
G1 X130.451 Y105.03 E188.31186
G1 X130.45 Y117.955 E188.99043
G1 X130.441 Y118.055 E188.9957
G1 X130.418 Y118.133 E188.99997
G1 X130.38 Y118.202 E189.0041
G1 X130.33 Y118.261 E189.00816
G1 X130.27 Y118.306 E189.0121
G1 X130.186 Y118.347 E189.01701
G1 X130.083 Y118.373 E189.02258
G1 X129.975 Y118.382 E189.02827
G1 X92.9 Y118.382 E190.97471
G1 X92.769 Y118.366 E190.98164
G1 X92.668 Y118.331 E190.98725
G1 X92.578 Y118.275 E190.99282
G1 X92.502 Y118.197 E190.99853
G1 X92.444 Y118.103 E191.00433
G1 X92.42 Y118.03 E191.00837
G1 X92.406 Y117.991 E191.01054
G1 X92.388 Y117.838 E191.01863
G1 X92.388 Y105.025 E191.69131
G1 X92.401 Y104.901 E191.69786
G1 X92.434 Y104.803 E191.70329
G1 X92.491 Y104.712 E191.70892
G1 X92.565 Y104.635 E191.71453
G1 X92.657 Y104.576 E191.72027
G1 X92.75 Y104.543 E191.72545
G1 X92.9 Y104.525 E191.73338
G1 X129.85 Y104.525 E193.67326
G1 X130.018 Y104.543 E193.68213
G0 F6750 X130.086 Y104.224
;TYPE:WALL-OUTER
G1 F2100 X130.277 Y104.286 E193.69267
G1 X130.452 Y104.389 E193.70333
G1 X130.588 Y104.515 E193.71306
G1 X130.686 Y104.655 E193.72204
G1 X130.751 Y104.821 E193.73139
G1 X130.776 Y105.011 E193.74146
G1 X130.775 Y117.974 E194.42201
G1 X130.762 Y118.116 E194.4295
G1 X130.72 Y118.258 E194.43727
G1 X130.651 Y118.385 E194.44486
G1 X130.555 Y118.498 E194.45265
G1 X130.439 Y118.586 E194.46029
G1 X130.298 Y118.654 E194.46851
G1 X130.138 Y118.695 E194.47718
G1 X129.989 Y118.707 E194.48503
G1 X92.877 Y118.707 E196.43341
G1 X92.696 Y118.685 E196.44298
G1 X92.527 Y118.626 E196.45238
G1 X92.374 Y118.53 E196.46186
G1 X92.245 Y118.398 E196.47155
G1 X92.147 Y118.24 E196.48131
G1 X92.087 Y118.064 E196.49107
G1 X92.063 Y117.859 E196.50191
G1 X92.063 Y105.01 E197.17648
G1 X92.082 Y104.831 E197.18593
G1 X92.138 Y104.664 E197.19518
G1 X92.233 Y104.511 E197.20463
