;FLAVOR:UltiGCode
;TIME:4328
;MATERIAL:8575
;MATERIAL2:0
;NOZZLE_DIAMETER:0.4
;Generated with Cura_SteamEngine 3.6.0
M82 ;absolute extrusion mode

G92 E0
G10
;LAYER_COUNT:172
;LAYER:0
M107
G0 F4500 X90.763 Y81.066 Z0.27
;TYPE:SKIRT
G11
G1 F1800 X91.14 Y80.692 E0.05018
G1 X91.568 Y80.379 E0.10029
G1 X92.039 Y80.133 E0.15051
G1 X92.541 Y79.961 E0.20065
G1 X93.063 Y79.867 E0.25077
G1 X93.593 Y79.852 E0.30088
G1 X94.342 Y79.968 E0.3725
G1 X137.948 Y91.671 E4.6391
G1 X138.448 Y91.847 E4.68919
G1 X138.917 Y92.096 E4.73937
G1 X139.343 Y92.413 E4.78955
G1 X139.717 Y92.789 E4.83966
G1 X140.03 Y93.218 E4.88985
G1 X140.275 Y93.689 E4.94002
G1 X140.446 Y94.191 E4.99013
G1 X140.54 Y94.713 E5.04026
G1 X140.555 Y95.244 E5.09046
G1 X140.439 Y95.99 E5.1618
G1 X128.783 Y139.417 E9.4109
G1 X128.607 Y139.917 E9.461
G1 X128.358 Y140.386 E9.51118
G1 X128.041 Y140.812 E9.56136
G1 X127.665 Y141.186 E9.61147
G1 X127.236 Y141.499 E9.66166
G1 X126.765 Y141.744 E9.71183
G1 X126.263 Y141.915 E9.76194
G1 X125.741 Y142.009 E9.81206
G1 X125.21 Y142.024 E9.86226
G1 X124.466 Y141.908 E9.93342
G1 X80.883 Y130.23 E14.1973
G1 X80.382 Y130.054 E14.24748
G1 X79.913 Y129.806 E14.29762
G1 X79.487 Y129.489 E14.3478
G1 X79.113 Y129.113 E14.39792
G1 X78.8 Y128.684 E14.4481
G1 X78.555 Y128.214 E14.49819
G1 X78.383 Y127.711 E14.54842
G1 X78.289 Y127.189 E14.59854
G1 X78.274 Y126.659 E14.64865
G1 X78.39 Y125.913 E14.71999
G1 X90.023 Y82.461 E18.97082
G1 X90.198 Y81.961 E19.02088
G1 X90.447 Y81.492 E19.07106
G1 X90.763 Y81.066 E19.12118
G0 F4500 X91.079 Y81.237
G1 F1800 X91.446 Y80.892 E19.16878
G1 X91.863 Y80.61 E19.21635
G1 X92.32 Y80.398 E19.26396
G1 X92.804 Y80.26 E19.31152
G1 X93.304 Y80.2 E19.35911
G1 X93.807 Y80.221 E19.40668
G1 X94.251 Y80.307 E19.44942
G1 X137.857 Y92.01 E23.71601
G1 X138.331 Y92.178 E23.76354
G1 X138.773 Y92.42 E23.81116
G1 X139.171 Y92.728 E23.85871
G1 X139.516 Y93.096 E23.90638
G1 X139.798 Y93.513 E23.95395
G1 X140.01 Y93.97 E24.00156
G1 X140.147 Y94.454 E24.0491
G1 X140.207 Y94.954 E24.09669
G1 X140.186 Y95.457 E24.14426
G1 X140.1 Y95.899 E24.18681
G1 X128.444 Y139.326 E28.43592
G1 X128.276 Y139.801 E28.48353
G1 X128.034 Y140.242 E28.53107
G1 X127.726 Y140.64 E28.57862
G1 X127.358 Y140.985 E28.62629
G1 X126.941 Y141.267 E28.67386
G1 X126.484 Y141.479 E28.72147
G1 X126 Y141.617 E28.76903
G1 X125.5 Y141.676 E28.81661
G1 X124.997 Y141.655 E28.86418
G1 X124.556 Y141.57 E28.90663
G1 X80.973 Y129.892 E33.17051
G1 X80.499 Y129.723 E33.21806
G1 X80.057 Y129.482 E33.26564
G1 X79.659 Y129.174 E33.31319
G1 X79.314 Y128.806 E33.36086
G1 X79.032 Y128.389 E33.40843
G1 X78.819 Y127.933 E33.45599
G1 X78.682 Y127.448 E33.50362
G1 X78.622 Y126.948 E33.55121
G1 X78.643 Y126.445 E33.59878
G1 X78.728 Y126.004 E33.64123
G1 X90.361 Y82.552 E37.89205
G1 X90.529 Y82.077 E37.93966
G1 X90.771 Y81.635 E37.98728
G1 X91.079 Y81.237 E38.03484
G10
;MESH:pen_holder.STL
G0 F4500 X92.611 Y83.702
G0 X93.803 Y84.021
G0 X94.041 Y84.433
;TYPE:WALL-INNER
G11
G1 F1800 X95.701 Y84.877 E38.19722
G1 X95.959 Y84.946 E38.22246
G1 X96.118 Y84.989 E38.23803
G1 X95.927 Y85.071 E38.24405
G1 X95.694 Y85.203 E38.26197
G1 X95.64 Y85.234 E38.26785
G1 X95.377 Y85.422 E38.2984
G1 X95.137 Y85.639 E38.32898
G1 X94.923 Y85.883 E38.35965
G1 X94.742 Y86.154 E38.39044
G1 X94.596 Y86.446 E38.42129
G1 X94.501 Y86.729 E38.44951
G1 X84.363 Y124.572 E42.15177
G1 X84.32 Y124.878 E42.18097
G1 X84.318 Y125.181 E42.20961
G1 X84.348 Y125.481 E42.2381
G1 X84.415 Y125.782 E42.26724
G1 X84.513 Y126.062 E42.29527
G1 X84.583 Y126.221 E42.31169
G1 X84.655 Y126.355 E42.32607
G1 X84.723 Y126.481 E42.3396
G1 X84.892 Y126.723 E42.36749
G1 X84.922 Y126.766 E42.37245
G1 X84.666 Y126.698 E42.38676
G1 X84.527 Y126.661 E42.39811
G1 X82.848 Y126.21 E42.5624
G1 X94.041 Y84.433 E46.64957
G0 F4500 X97.532 Y85.035
G0 X97.834 Y85.063
G0 X97.813 Y85.401
G0 X98.518 Y85.54
G0 X131.274 Y94.32
G0 X131.421 Y94.397
G0 X131.576 Y94.094
G0 X131.739 Y94.177
G0 X132.896 Y94.844
G1 F1800 X133.091 Y94.896 E46.66864
G1 X133.24 Y94.936 E46.68322
G1 X135.977 Y95.67 E46.951
G1 X124.783 Y137.447 E51.0382
G1 X122.046 Y136.714 E51.30596
G1 X121.895 Y136.674 E51.32072
G1 X121.702 Y136.622 E51.33961
G1 X121.947 Y136.48 E51.35129
G1 X122.074 Y136.389 E51.36321
G1 X122.193 Y136.303 E51.37708
G1 X122.415 Y136.102 E51.40538
G1 X122.617 Y135.879 E51.43381
G1 X122.793 Y135.636 E51.46217
G1 X122.951 Y135.367 E51.49165
G1 X123.114 Y134.973 E51.53194
G1 X123.705 Y132.78 E51.74658
G1 X123.413 Y132.371 E51.79407
G1 X123.296 Y132.169 E51.81612
G1 X123.195 Y131.951 E51.83883
G1 X123.115 Y131.724 E51.86157
G1 X123.064 Y131.504 E51.88292
G1 X123.032 Y131.272 E51.90505
G1 X123.023 Y131.023 E51.92859
G1 X123.038 Y130.789 E51.95075
G1 X123.073 Y130.574 E51.97134
G1 X123.14 Y130.327 E51.99552
G1 X123.221 Y130.114 E52.01706
G1 X123.319 Y129.914 E52.0381
G1 X123.451 Y129.704 E52.06154
G1 X123.591 Y129.522 E52.08324
G1 X123.766 Y129.338 E52.10724
G1 X123.934 Y129.193 E52.12821
G1 X124.125 Y129.057 E52.15037
G1 X124.336 Y128.94 E52.17317
G1 X124.793 Y128.718 E52.22118
G1 X131.625 Y103.221 E54.71565
G1 X131.334 Y102.815 E54.76285
G1 X131.216 Y102.612 E54.78504
G1 X131.118 Y102.4 E54.80711
G1 X131.033 Y102.156 E54.83153
G1 X130.985 Y101.954 E54.85115
G1 X130.951 Y101.713 E54.87415
G1 X130.942 Y101.468 E54.89732
G1 X130.958 Y101.232 E54.91967
G1 X130.995 Y101.007 E54.94122
G1 X131.054 Y100.785 E54.96292
G1 X131.143 Y100.55 E54.98667
G1 X131.24 Y100.356 E55.00717
G1 X131.372 Y100.144 E55.03077
G1 X131.51 Y99.967 E55.05198
G1 X131.685 Y99.783 E55.07597
G1 X131.853 Y99.636 E55.09707
G1 X132.054 Y99.495 E55.12027
G1 X132.262 Y99.378 E55.14282
G1 X132.711 Y99.165 E55.18979
G1 X133.292 Y96.995 E55.40207
G1 X133.32 Y96.822 E55.41864
G1 X133.349 Y96.547 E55.44477
G1 X133.348 Y96.249 E55.47293
G1 X133.319 Y95.95 E55.50132
G1 X133.254 Y95.652 E55.53014
G1 X133.162 Y95.366 E55.55853
G1 X133.102 Y95.232 E55.5724
G1 X133.039 Y95.091 E55.58411
G1 X132.896 Y94.844 E55.59588
G0 F4500 X132.594 Y95.022
G1 F1800 X132.439 Y94.808 E55.62085
G1 X132.33 Y94.687 E55.63624
G1 X132.262 Y94.611 E55.64588
G1 X132.065 Y94.434 E55.67091
G1 X131.851 Y94.279 E55.69588
G1 X131.59 Y94.132 E55.72418
G1 X131.87 Y94.207 E55.72683
G1 X132.108 Y94.271 E55.73624
G1 X132.336 Y94.332 E55.75251
G1 X132.434 Y94.358 E55.76129
G1 X136.406 Y95.423 E56.1499
G1 X125.031 Y137.876 E60.30323
G1 X121.059 Y136.813 E60.69179
G1 X120.961 Y136.787 E60.70137
G1 X120.732 Y136.725 E60.72379
G1 X120.496 Y136.661 E60.7469
G1 X120.221 Y136.587 E60.77381
G1 X120.515 Y136.59 E60.77731
G1 X120.776 Y136.563 E60.78664
G1 X121.036 Y136.508 E60.80369
G1 X121.132 Y136.477 E60.81241
G1 X121.288 Y136.425 E60.82795
G1 X121.529 Y136.318 E60.85287
G1 X121.757 Y136.186 E60.87777
G1 X121.972 Y136.031 E60.90282
G1 X122.167 Y135.854 E60.9277
G1 X122.345 Y135.658 E60.95272
G1 X122.5 Y135.444 E60.97769
G1 X122.637 Y135.211 E61.00324
G1 X122.782 Y134.86 E61.03912
G1 X123.324 Y132.849 E61.23595
G1 X123.118 Y132.56 E61.26948
G1 X122.986 Y132.331 E61.29446
G1 X122.872 Y132.087 E61.31991
G1 X122.786 Y131.84 E61.34463
G1 X122.777 Y131.815 E61.34714
G1 X122.719 Y131.569 E61.37102
G1 X122.683 Y131.301 E61.39658
G1 X122.672 Y131.023 E61.42287
G1 X122.69 Y130.752 E61.44853
G1 X122.732 Y130.493 E61.47333
G1 X122.805 Y130.224 E61.49967
G1 X122.9 Y129.974 E61.52494
G1 X123.014 Y129.742 E61.54937
G1 X123.164 Y129.502 E61.57612
G1 X123.326 Y129.293 E61.6011
G1 X123.52 Y129.088 E61.62778
G1 X123.721 Y128.915 E61.65284
G1 X123.939 Y128.76 E61.67812
G1 X124.176 Y128.628 E61.70375
G1 X124.496 Y128.473 E61.73735
G1 X131.244 Y103.29 E64.2011
G1 X131.038 Y103.003 E64.23449
G1 X130.906 Y102.774 E64.25946
G1 X130.9 Y102.76 E64.2609
G1 X130.791 Y102.527 E64.28521
G1 X130.699 Y102.263 E64.31163
G1 X130.639 Y102.011 E64.33611
G1 X130.602 Y101.744 E64.36158
G1 X130.591 Y101.468 E64.38769
G1 X130.61 Y101.195 E64.41355
G1 X130.653 Y100.931 E64.43882
G1 X130.72 Y100.678 E64.46356
G1 X130.822 Y100.41 E64.49066
G1 X130.935 Y100.183 E64.51462
G1 X131.084 Y99.944 E64.54123
G1 X131.246 Y99.736 E64.56615
G1 X131.442 Y99.53 E64.59302
G1 X131.632 Y99.364 E64.61686
G1 X131.868 Y99.198 E64.64413
G1 X132.103 Y99.066 E64.6696
G1 X132.415 Y98.918 E64.70223
G1 X132.949 Y96.921 E64.89758
G1 X132.973 Y96.775 E64.91156
G1 X132.999 Y96.529 E64.93494
G1 X132.998 Y96.266 E64.95979
G1 X132.973 Y96.004 E64.98466
G1 X132.916 Y95.743 E65.00991
G1 X132.835 Y95.492 E65.03483
G1 X132.727 Y95.251 E65.05979
G1 X132.594 Y95.022 E65.08481
G0 F4500 X132.675 Y94.965
G0 X131.866 Y94.242
G0 X131.576 Y94.094
G0 X131.421 Y94.397
G0 X131.319 Y94.356
G0 X97.826 Y85.187
G0 X97.85 Y85.091
G1 F1800 X97.534 Y85.074 E65.11472
G1 X97.23 Y85.083 E65.14346
G1 X96.929 Y85.118 E65.1721
G1 X96.758 Y85.154 E65.18861
G1 X96.636 Y85.18 E65.2004
G1 X96.354 Y85.27 E65.22837
G1 X96.082 Y85.385 E65.25628
G1 X95.829 Y85.529 E65.28379
G1 X95.597 Y85.695 E65.31075
G1 X95.387 Y85.885 E65.33751
G1 X95.201 Y86.097 E65.36416
G1 X95.045 Y86.33 E65.39066
G1 X94.92 Y86.581 E65.41716
G1 X94.836 Y86.83 E65.44199
G1 X84.707 Y124.642 E69.14121
G1 X84.67 Y124.904 E69.16621
G1 X84.668 Y125.165 E69.19088
G1 X84.694 Y125.425 E69.21557
G1 X84.752 Y125.686 E69.24084
G1 X84.839 Y125.933 E69.26558
G1 X84.898 Y126.067 E69.27942
G1 X85.023 Y126.299 E69.30432
G1 X85.176 Y126.524 E69.33004
G1 X85.349 Y126.737 E69.35597
G1 X85.545 Y126.934 E69.38223
G1 X85.547 Y126.936 E69.38249
G1 X85.762 Y127.118 E69.40911
G1 X85.994 Y127.282 E69.43596
G1 X86.238 Y127.429 E69.46288
G1 X86.472 Y127.544 E69.48752
G1 X86.225 Y127.479 E69.48915
G1 X85.961 Y127.408 E69.49673
G1 X85.703 Y127.338 E69.51111
G1 X85.457 Y127.272 E69.53191
G1 X85.455 Y127.272 E69.5321
G1 X82.419 Y126.458 E69.82913
G1 X93.793 Y84.004 E73.98252
G1 X96.828 Y84.816 E74.27942
G1 X96.997 Y84.861 E74.29364
G1 X97.269 Y84.934 E74.30939
G1 X97.55 Y85.01 E74.31782
G1 X97.85 Y85.091 E74.32043
G0 F4500 X97.826 Y85.187
G0 X131.274 Y94.32
G0 X131.421 Y94.397
G0 X131.576 Y94.094
G0 X131.866 Y94.242
G0 X132.466 Y94.779
G0 X132.872 Y95.478
G0 X133.037 Y96.263
G0 X132.987 Y96.933
G0 X122.819 Y134.87
G0 X122.433 Y135.702
G0 X122.092 Y135.453
;TYPE:WALL-OUTER
G1 F1800 X122.228 Y135.266 E74.34228
G1 X122.345 Y135.066 E74.36418
G1 X122.474 Y134.755 E74.39599
G1 X122.97 Y132.913 E74.57626
G1 X122.848 Y132.742 E74.59611
G1 X122.695 Y132.477 E74.62503
G1 X122.571 Y132.211 E74.65276
G1 X122.466 Y131.909 E74.68298
G1 X122.399 Y131.627 E74.71037
G1 X122.358 Y131.327 E74.73898
G1 X122.347 Y131.024 E74.76764
G1 X122.367 Y130.709 E74.79746
G1 X122.414 Y130.424 E74.82476
G1 X122.494 Y130.127 E74.85383
G1 X122.6 Y129.847 E74.88212
G1 X122.733 Y129.579 E74.91039
G1 X122.896 Y129.317 E74.93955
G1 X123.081 Y129.078 E74.96811
G1 X123.291 Y128.857 E74.99692
G1 X123.522 Y128.658 E75.02573
G1 X123.763 Y128.487 E75.05366
G1 X124.027 Y128.339 E75.08226
G1 X124.221 Y128.245 E75.10263
G1 X130.89 Y103.354 E77.5378
G1 X130.764 Y103.178 E77.55825
G1 X130.615 Y102.92 E77.5864
G1 X130.49 Y102.651 E77.61444
G1 X130.388 Y102.358 E77.64375
G1 X130.319 Y102.069 E77.67183
G1 X130.278 Y101.77 E77.70035
G1 X130.266 Y101.468 E77.72891
G1 X130.287 Y101.153 E77.75875
G1 X130.334 Y100.864 E77.78642
G1 X130.411 Y100.575 E77.81468
G1 X130.521 Y100.287 E77.84381
G1 X130.653 Y100.02 E77.87196
G1 X130.816 Y99.759 E77.90104
G1 X131.001 Y99.521 E77.92953
G1 X131.211 Y99.3 E77.95834
G1 X131.435 Y99.105 E77.9864
G1 X131.69 Y98.926 E78.01584
G1 X131.955 Y98.777 E78.04457
G1 X132.14 Y98.689 E78.06393
G1 X132.631 Y96.852 E78.24362
G1 X132.651 Y96.731 E78.25521
G1 X132.674 Y96.513 E78.27593
G1 X132.673 Y96.282 E78.29776
G1 X132.651 Y96.054 E78.3194
G1 X132.602 Y95.828 E78.34126
G1 X132.531 Y95.609 E78.36301
G1 X132.437 Y95.399 E78.38475
G1 X132.321 Y95.199 E78.4066
G1 X132.186 Y95.012 E78.4284
G1 X132.032 Y94.841 E78.45015
G1 X131.861 Y94.687 E78.47189
G1 X131.674 Y94.552 E78.49369
G1 X131.475 Y94.437 E78.51541
G1 X131.264 Y94.343 E78.53724
G1 X131.05 Y94.273 E78.55851
G1 X98.361 Y85.514 E81.7566
G1 X98.089 Y85.452 E81.78296
G1 X97.81 Y85.414 E81.80957
G1 X97.53 Y85.399 E81.83607
G1 X97.254 Y85.407 E81.86216
G1 X96.982 Y85.439 E81.88804
G1 X96.719 Y85.495 E81.91345
G1 X96.467 Y85.575 E81.93844
G1 X96.226 Y85.677 E81.96317
G1 X96.004 Y85.803 E81.98729
G1 X95.801 Y85.948 E82.01086
G1 X95.619 Y86.113 E82.03408
G1 X95.46 Y86.295 E82.05692
G1 X95.327 Y86.494 E82.07954
G1 X95.221 Y86.706 E82.10193
G1 X95.147 Y86.924 E82.12369
G1 X85.026 Y124.707 E85.82006
G1 X84.995 Y124.928 E85.84115
G1 X84.993 Y125.15 E85.86213
G1 X85.015 Y125.373 E85.88331
G1 X85.065 Y125.596 E85.90491
G1 X85.141 Y125.813 E85.92663
G1 X85.19 Y125.924 E85.9381
G1 X85.301 Y126.13 E85.96021
G1 X85.437 Y126.33 E85.98307
G1 X85.591 Y126.519 E86.00611
G1 X85.768 Y126.697 E86.02983
G1 X85.961 Y126.861 E86.05376
G1 X86.172 Y127.01 E86.07817
G1 X86.394 Y127.144 E86.10268
G1 X86.63 Y127.26 E86.12753
G1 X86.877 Y127.358 E86.15264
G1 X87.126 Y127.434 E86.17724
G1 X119.818 Y136.195 E89.37565
G1 X120.038 Y136.241 E89.39689
G1 X120.266 Y136.265 E89.41855
G1 X120.498 Y136.265 E89.44048
G1 X120.726 Y136.241 E89.46214
G1 X120.952 Y136.194 E89.48396
G1 X121.171 Y136.122 E89.50574
G1 X121.381 Y136.028 E89.52748
G1 X121.58 Y135.913 E89.5492
G1 X121.767 Y135.778 E89.571
G1 X121.937 Y135.624 E89.59267
G1 X122.092 Y135.453 E89.61448
G0 F4500 X122.209 Y135.292
G0 X122.52 Y135.518
G0 X122.551 Y135.541
G0 X124.982 Y137.79
G0 X125.306 Y138.105
G1 F1800 X125.261 Y138.274 E89.63101
G1 X125.092 Y138.229 E89.64167
G1 X82.021 Y126.688 E93.85547
G1 X93.518 Y83.775 E98.05376
G1 X93.563 Y83.606 E98.07029
G1 X93.732 Y83.651 E98.08095
G1 X136.804 Y95.193 E102.29486
G1 X125.306 Y138.105 E106.49309
G0 F4500 X125.261 Y138.274
G0 X125.236 Y138.268
G0 X124.99 Y137.805
G0 X124.95 Y137.795
G0 X124.543 Y137.031
;TYPE:SKIN
G1 F1800 X122.5 Y136.484 E106.69296
G1 X122.656 Y136.343 E106.71283
G1 X122.881 Y136.093 E106.74461
G1 X123.078 Y135.822 E106.77627
G1 X123.256 Y135.519 E106.80948
G1 X123.437 Y135.082 E106.85418
G1 X124.076 Y132.714 E107.08596
G1 X123.699 Y132.187 E107.14719
G1 X123.605 Y132.024 E107.16498
G1 X123.507 Y131.813 E107.18696
G1 X123.441 Y131.625 E107.20579
G1 X123.397 Y131.435 E107.22422
G1 X123.372 Y131.253 E107.24158
G1 X123.363 Y131.033 E107.26239
G1 X123.378 Y130.819 E107.28266
G1 X123.407 Y130.641 E107.2997
G1 X123.462 Y130.436 E107.31976
G1 X123.536 Y130.243 E107.33929
G1 X123.615 Y130.082 E107.35624
G1 X123.73 Y129.899 E107.37667
G1 X123.849 Y129.743 E107.39521
G1 X124.001 Y129.584 E107.41599
G1 X124.141 Y129.464 E107.43342
G1 X124.312 Y129.342 E107.45327
G1 X124.501 Y129.237 E107.4737
G1 X125.081 Y128.955 E107.53465
G1 X131.995 Y103.153 E110.05896
G1 X131.615 Y102.623 E110.12059
G1 X131.521 Y102.462 E110.1382
G1 X131.433 Y102.272 E110.15799
G1 X131.36 Y102.062 E110.179
G1 X131.318 Y101.884 E110.19629
G1 X131.291 Y101.692 E110.21461
G1 X131.282 Y101.479 E110.23475
G1 X131.298 Y101.263 E110.25522
G1 X131.327 Y101.082 E110.27254
G1 X131.378 Y100.889 E110.29141
G1 X131.452 Y100.694 E110.31112
G1 X131.542 Y100.514 E110.33014
G1 X131.648 Y100.343 E110.34915
G1 X131.765 Y100.193 E110.36713
G1 X131.929 Y100.021 E110.38958
G1 X132.071 Y99.897 E110.4074
G1 X132.221 Y99.792 E110.4247
G1 X132.426 Y99.677 E110.44692
G1 X132.999 Y99.404 E110.5069
G1 X133.624 Y97.067 E110.7355
G1 X133.658 Y96.867 E110.75467
G1 X133.689 Y96.564 E110.78346
G1 X133.688 Y96.232 E110.81483
G1 X133.655 Y95.897 E110.84664
G1 X133.583 Y95.563 E110.87893
G1 X133.518 Y95.362 E110.89889
G1 X135.561 Y95.91 E111.09878
G1 X124.543 Y137.031 E115.12179
G0 F4500 X122.919 Y136.283
G1 F1800 X123.123 Y136.487 E115.14905
G0 F4500 X123.136 Y136.005
G1 F1800 X123.799 Y136.668 E115.23766
G0 F4500 X124.438 Y136.813
G1 F1800 X123.328 Y135.702 E115.38607
G0 F4500 X123.487 Y135.367
G1 F1800 X124.543 Y136.422 E115.52713
G0 F4500 X124.648 Y136.032
G1 F1800 X123.619 Y135.004 E115.66458
G0 F4500 X123.725 Y134.614
G1 F1800 X124.752 Y135.642 E115.8019
G0 F4500 X124.857 Y135.251
G1 F1800 X123.83 Y134.225 E115.93908
G0 F4500 X123.936 Y133.835
G1 F1800 X124.962 Y134.861 E116.0762
G0 F4500 X125.066 Y134.471
G1 F1800 X124.041 Y133.445 E116.21325
G0 F4500 X124.146 Y133.056
