;FLAVOR:UltiGCode
;TIME:3050
;MATERIAL:5179
;MATERIAL2:0
;NOZZLE_DIAMETER:0.4
;Generated with Cura_SteamEngine 3.6.0
M82 ;absolute extrusion mode

G92 E0
G10
;LAYER_COUNT:18
;LAYER:0
M107
G0 F4500 X88.182 Y62.959 Z0.27
;TYPE:SKIRT
G11
G1 F1800 X88.504 Y62.571 E0.04765
G1 X88.959 Y62.184 E0.10409
G1 X89.603 Y61.733 E0.17839
G1 X90.037 Y61.478 E0.22596
G1 X90.455 Y61.311 E0.2685
G1 X91.082 Y61.11 E0.33072
G1 X91.572 Y60.994 E0.3783
G1 X92.044 Y60.958 E0.42304
G1 X106.468 Y60.927 E1.78611
G1 X106.622 Y60.93 E1.80066
G1 X113.023 Y61.228 E2.40621
G1 X118.517 Y61.151 E2.92545
G1 X122.914 Y60.919 E3.34154
G1 X123.086 Y60.915 E3.3578
G1 X136.62 Y60.937 E4.63677
G1 X137.257 Y61.003 E4.69728
G1 X137.901 Y61.136 E4.75943
G1 X138.385 Y61.276 E4.80704
G1 X138.655 Y61.393 E4.83485
G1 X139.088 Y61.605 E4.88041
G1 X139.521 Y61.862 E4.92799
G1 X139.736 Y62.027 E4.9536
G1 X140.265 Y62.472 E5.01893
G1 X140.75 Y62.983 E5.0855
G1 X140.983 Y63.29 E5.12193
G1 X141.255 Y63.714 E5.16953
G1 X141.373 Y63.96 E5.19531
G1 X141.669 Y64.652 E5.26644
G1 X141.83 Y65.13 E5.3141
G1 X141.896 Y65.47 E5.34683
G1 X141.965 Y65.973 E5.39481
G1 X141.994 Y66.411 E5.43629
G1 X141.972 Y76.789 E6.41702
G1 X141.937 Y77.254 E6.46108
G1 X141.724 Y78.672 E6.59659
G1 X141.669 Y78.952 E6.62355
G1 X140.966 Y81.833 E6.90379
G1 X139.892 Y87.199 E7.42094
G1 X139.121 Y92.637 E7.93997
G1 X138.659 Y98.093 E8.45741
G1 X138.506 Y103.575 E8.97566
G1 X138.494 Y151.495 E13.5041
G1 X138.469 Y151.888 E13.54131
G1 X138.291 Y153.31 E13.67674
G1 X138.193 Y153.791 E13.72313
G1 X137.927 Y154.719 E13.81435
G1 X137.763 Y155.164 E13.85917
G1 X137.221 Y156.35 E13.9824
G1 X136.985 Y156.775 E14.02834
G1 X136.446 Y157.594 E14.12099
G1 X136.221 Y157.896 E14.15658
G1 X135.64 Y158.585 E14.24175
G1 X135.305 Y158.927 E14.28699
G1 X134.276 Y159.828 E14.41624
G1 X133.71 Y160.223 E14.48146
G1 X131.998 Y161.161 E14.66594
G1 X131.361 Y161.425 E14.7311
G1 X130.061 Y161.804 E14.85906
G1 X129.525 Y161.911 E14.91071
G1 X128.275 Y162.051 E15.02958
G1 X127.811 Y162.069 E15.07346
G1 X126.841 Y162.035 E15.16518
G1 X126.554 Y162.012 E15.19239
G1 X123.965 Y161.685 E15.43899
G1 X118.458 Y161.198 E15.96144
G1 X113.005 Y161.026 E16.477
G1 X107.516 Y161.163 E16.99587
G1 X102.029 Y161.612 E17.51613
G1 X98.291 Y162.049 E17.87177
G1 X97.811 Y162.069 E17.91717
G1 X96.841 Y162.035 E18.00889
G1 X96.305 Y161.97 E18.05992
G1 X94.69 Y161.634 E18.2158
G1 X94.217 Y161.497 E18.26234
G1 X93.546 Y161.244 E18.33011
G1 X93.164 Y161.07 E18.36977
G1 X92.047 Y160.47 E18.48959
G1 X91.576 Y160.161 E18.54283
G1 X88.067 Y157.378 E18.96606
G1 X82.34 Y153.232 E19.63419
G1 X81.957 Y152.905 E19.68178
G1 X81.63 Y152.522 E19.72937
G1 X81.368 Y152.092 E19.77696
G1 X81.177 Y151.626 E19.82455
G1 X81.063 Y151.135 E19.87218
G1 X81.027 Y150.633 E19.91975
G1 X81.059 Y150.21 E19.95983
G1 X81.441 Y147.54 E20.21472
G1 X81.488 Y147.287 E20.23903
G1 X82.935 Y140.914 E20.85661
G1 X83.404 Y138.277 E21.10972
G1 X84.139 Y132.839 E21.62828
G1 X84.565 Y127.379 E22.14582
G1 X84.68 Y121.908 E22.66294
G1 X84.486 Y116.436 E23.18037
G1 X83.983 Y110.969 E23.69919
G1 X83.169 Y105.533 E24.21862
G1 X82.658 Y102.893 E24.47273
G1 X81.398 Y97.332 E25.01156
G1 X81.336 Y96.958 E25.04739
G1 X81.183 Y95.487 E25.18715
G1 X81.171 Y94.984 E25.23469
G1 X81.238 Y94.485 E25.28227
G1 X81.31 Y94.213 E25.30886
G1 X83.578 Y86.944 E26.02844
G1 X84.873 Y81.637 E26.54467
G1 X85.41 Y78.947 E26.80389
G1 X86.254 Y73.527 E27.32225
G1 X86.558 Y70.83 E27.57873
G1 X87.003 Y65.547 E28.07974
G1 X87.085 Y65.05 E28.12735
G1 X87.198 Y64.689 E28.16309
G1 X87.326 Y64.351 E28.19725
G1 X87.541 Y63.895 E28.24489
G1 X87.697 Y63.649 E28.27242
G1 X88.182 Y62.959 E28.35212
G10
;MESH:C_Dual_RollerPlate_M.stl(1)
G0 F4500 X89.701 Y65.094
G0 X90.78 Y65.699
G0 X92.427 Y69.278
;TYPE:WALL-INNER
G11
G1 F1800 X92.265 Y69.488 E28.37718
G1 X92.125 Y69.703 E28.40143
G1 X92.002 Y69.932 E28.42599
G1 X91.898 Y70.174 E28.45088
G1 X91.819 Y70.42 E28.4753
G1 X91.758 Y70.674 E28.49998
G1 X91.722 Y70.93 E28.52441
G1 X91.708 Y71.188 E28.54883
G1 X91.716 Y71.451 E28.5737
G1 X91.746 Y71.711 E28.59843
G1 X91.801 Y71.969 E28.62336
G1 X91.877 Y72.215 E28.64769
G1 X91.973 Y72.457 E28.67229
G1 X92.093 Y72.692 E28.69723
G1 X92.228 Y72.911 E28.72154
G1 X92.384 Y73.121 E28.74626
G1 X92.566 Y73.323 E28.77195
G1 X92.805 Y73.539 E28.8024
G1 X92.979 Y73.673 E28.82315
G1 X93.198 Y73.814 E28.84776
G1 X93.432 Y73.937 E28.87275
G1 X93.676 Y74.037 E28.89767
G1 X93.923 Y74.113 E28.92209
G1 X93.935 Y74.115 E28.92324
G1 X94.175 Y74.17 E28.9465
G1 X94.434 Y74.205 E28.9712
G1 X94.696 Y74.216 E28.99598
G1 X94.958 Y74.205 E29.02076
G1 X95.218 Y74.17 E29.04556
G1 X95.469 Y74.113 E29.06988
G1 X95.716 Y74.037 E29.0943
G1 X95.961 Y73.937 E29.11931
G1 X96.192 Y73.815 E29.14399
G1 X96.41 Y73.676 E29.16843
G1 X96.618 Y73.518 E29.19311
G1 X96.812 Y73.34 E29.21799
G1 X96.989 Y73.145 E29.24288
G1 X97.145 Y72.942 E29.26707
G1 X97.286 Y72.721 E29.29184
G1 X97.408 Y72.488 E29.3167
G1 X97.506 Y72.249 E29.34111
G1 X97.584 Y72.001 E29.36568
G1 X97.641 Y71.745 E29.39046
G1 X97.675 Y71.485 E29.41524
G1 X97.686 Y71.226 E29.43974
G1 X97.675 Y70.966 E29.46433
G1 X97.641 Y70.706 E29.48911
G1 X97.584 Y70.45 E29.51389
G1 X97.506 Y70.203 E29.53837
G1 X97.408 Y69.962 E29.56296
G1 X97.286 Y69.731 E29.58764
G1 X97.146 Y69.51 E29.61237
G1 X96.988 Y69.304 E29.6369
G1 X96.81 Y69.109 E29.66185
G1 X96.618 Y68.935 E29.68634
G1 X96.413 Y68.776 E29.71085
G1 X96.192 Y68.636 E29.73558
G1 X95.961 Y68.514 E29.76026
G1 X95.716 Y68.414 E29.78527
G1 X95.469 Y68.338 E29.80969
G1 X95.218 Y68.281 E29.83401
G1 X94.955 Y68.246 E29.85909
G1 X94.696 Y68.236 E29.88358
G1 X94.437 Y68.246 E29.90807
G1 X94.175 Y68.281 E29.93305
G1 X93.923 Y68.338 E29.95747
G1 X93.677 Y68.414 E29.9818
G1 X93.431 Y68.514 E30.00689
G1 X93.2 Y68.636 E30.03158
G1 X92.981 Y68.775 E30.05609
G1 X92.803 Y68.911 E30.07726
G1 X92.608 Y69.089 E30.10221
G1 X92.427 Y69.278 E30.12694
G0 F4500 X92.693 Y69.506
G1 F1800 X92.551 Y69.691 E30.14898
G1 X92.426 Y69.882 E30.17055
G1 X92.318 Y70.084 E30.1922
G1 X92.226 Y70.297 E30.21412
G1 X92.156 Y70.515 E30.23576
G1 X92.102 Y70.739 E30.25754
G1 X92.071 Y70.964 E30.279
G1 X92.058 Y71.193 E30.30067
G1 X92.065 Y71.425 E30.32261
G1 X92.092 Y71.654 E30.3444
G1 X92.14 Y71.881 E30.36632
G1 X92.207 Y72.099 E30.38788
G1 X92.292 Y72.312 E30.40955
G1 X92.398 Y72.52 E30.43161
G1 X92.518 Y72.714 E30.45317
G1 X92.655 Y72.899 E30.47492
G1 X92.814 Y73.075 E30.49733
G1 X93.03 Y73.27 E30.52483
G1 X93.181 Y73.387 E30.54289
G1 X93.374 Y73.511 E30.56456
G1 X93.58 Y73.619 E30.58654
G1 X93.795 Y73.707 E30.6085
G1 X94.013 Y73.775 E30.63008
G1 X94.237 Y73.825 E30.65177
G1 X94.465 Y73.856 E30.67351
G1 X94.696 Y73.866 E30.69536
G1 X94.927 Y73.856 E30.71721
G1 X95.156 Y73.825 E30.73905
G1 X95.379 Y73.775 E30.76065
G1 X95.598 Y73.707 E30.78232
G1 X95.813 Y73.619 E30.80427
G1 X96.016 Y73.512 E30.82595
G1 X96.21 Y73.389 E30.84766
G1 X96.393 Y73.249 E30.86944
G1 X96.564 Y73.093 E30.89131
G1 X96.72 Y72.921 E30.91325
G1 X96.858 Y72.741 E30.93469
G1 X96.983 Y72.546 E30.95658
G1 X97.09 Y72.34 E30.97851
G1 X97.177 Y72.129 E31.00008
G1 X97.246 Y71.91 E31.02178
G1 X97.296 Y71.684 E31.04365
G1 X97.326 Y71.455 E31.06548
G1 X97.336 Y71.226 E31.08714
G1 X97.326 Y70.996 E31.10889
G1 X97.296 Y70.767 E31.13072
G1 X97.246 Y70.541 E31.15259
G1 X97.177 Y70.322 E31.17429
G1 X97.09 Y70.11 E31.19595
G1 X96.983 Y69.906 E31.21771
G1 X96.859 Y69.711 E31.23955
G1 X96.719 Y69.529 E31.26125
G1 X96.563 Y69.357 E31.28319
G1 X96.393 Y69.204 E31.30481
G1 X96.211 Y69.063 E31.32656
G1 X96.016 Y68.939 E31.3484
G1 X95.813 Y68.832 E31.37009
G1 X95.598 Y68.744 E31.39204
G1 X95.379 Y68.676 E31.41371
G1 X95.156 Y68.626 E31.43531
G1 X94.925 Y68.595 E31.45733
G1 X94.696 Y68.586 E31.47899
G1 X94.467 Y68.595 E31.50065
G1 X94.237 Y68.626 E31.52258
G1 X94.013 Y68.676 E31.54427
G1 X93.795 Y68.744 E31.56585
G1 X93.579 Y68.832 E31.58789
G1 X93.376 Y68.939 E31.60957
G1 X93.182 Y69.062 E31.63128
G1 X93.028 Y69.18 E31.64962
G1 X92.852 Y69.34 E31.67209
G1 X92.693 Y69.506 E31.69381
G0 F4500 X92.94 Y69.718
;TYPE:WALL-OUTER
G1 F1800 X92.816 Y69.879 E31.71302
G1 X92.706 Y70.048 E31.73207
G1 X92.611 Y70.225 E31.75106
G1 X92.531 Y70.411 E31.77019
G1 X92.469 Y70.603 E31.78926
G1 X92.422 Y70.799 E31.80831
G1 X92.395 Y70.996 E31.8271
G1 X92.383 Y71.198 E31.84622
G1 X92.389 Y71.401 E31.86541
G1 X92.413 Y71.601 E31.88445
G1 X92.455 Y71.799 E31.90357
G1 X92.514 Y71.991 E31.92255
G1 X92.588 Y72.178 E31.94156
G1 X92.681 Y72.36 E31.96087
G1 X92.787 Y72.531 E31.97989
G1 X92.907 Y72.693 E31.99894
G1 X93.044 Y72.845 E32.01828
G1 X93.238 Y73.02 E32.04297
G1 X93.369 Y73.121 E32.0586
G1 X93.538 Y73.23 E32.0776
G1 X93.717 Y73.324 E32.09671
G1 X93.905 Y73.401 E32.11591
G1 X94.097 Y73.461 E32.13491
G1 X94.294 Y73.505 E32.15399
G1 X94.494 Y73.532 E32.17306
G1 X94.696 Y73.541 E32.19217
G1 X94.898 Y73.532 E32.21128
G1 X95.099 Y73.505 E32.23044
G1 X95.295 Y73.461 E32.24943
G1 X95.488 Y73.401 E32.26852
G1 X95.675 Y73.324 E32.28764
G1 X95.853 Y73.23 E32.30666
G1 X96.024 Y73.122 E32.32577
G1 X96.184 Y72.999 E32.34484
G1 X96.334 Y72.863 E32.36398
G1 X96.47 Y72.713 E32.38311
G1 X96.592 Y72.554 E32.40205
G1 X96.701 Y72.383 E32.42121
G1 X96.795 Y72.203 E32.4404
G1 X96.871 Y72.018 E32.4593
G1 X96.932 Y71.825 E32.47843
G1 X96.976 Y71.628 E32.49751
G1 X97.002 Y71.427 E32.51666
G1 X97.011 Y71.226 E32.53567
G1 X97.002 Y71.024 E32.55478
G1 X96.976 Y70.823 E32.57393
G1 X96.932 Y70.626 E32.59301
G1 X96.871 Y70.433 E32.61214
G1 X96.795 Y70.248 E32.63104
G1 X96.701 Y70.069 E32.65014
G1 X96.592 Y69.897 E32.66938
G1 X96.47 Y69.738 E32.68832
G1 X96.333 Y69.588 E32.70752
G1 X96.184 Y69.453 E32.72652
G1 X96.024 Y69.329 E32.74565
G1 X95.853 Y69.221 E32.76476
G1 X95.675 Y69.127 E32.78379
G1 X95.488 Y69.05 E32.8029
G1 X95.295 Y68.99 E32.822
G1 X95.099 Y68.946 E32.84098
G1 X94.897 Y68.919 E32.86024
G1 X94.696 Y68.911 E32.87925
G1 X94.495 Y68.919 E32.89826
G1 X94.294 Y68.946 E32.91742
G1 X94.097 Y68.99 E32.9365
G1 X93.905 Y69.05 E32.95551
G1 X93.717 Y69.127 E32.9747
G1 X93.539 Y69.221 E32.99373
G1 X93.368 Y69.329 E33.01284
G1 X93.237 Y69.43 E33.02847
G1 X93.079 Y69.573 E33.04861
G1 X92.94 Y69.718 E33.06759
G0 F4500 X92.818 Y69.876
G0 X92.514 Y69.64
G0 X92.483 Y69.616
G0 X93.356 Y68.905
G0 X94.003 Y68.638
G0 X94.395 Y68.587
G0 X102.95 Y68.506
;TYPE:WALL-INNER
G1 F1800 X102.701 Y68.635 E33.09409
G1 X102.479 Y68.777 E33.119
G1 X102.274 Y68.935 E33.14345
G1 X102.082 Y69.108 E33.16788
G1 X101.903 Y69.305 E33.19303
G1 X101.745 Y69.512 E33.21764
G1 X101.607 Y69.731 E33.2421
G1 X101.487 Y69.96 E33.26653
G1 X101.386 Y70.202 E33.29131
G1 X101.308 Y70.45 E33.31588
G1 X101.251 Y70.706 E33.34067
G1 X101.217 Y70.966 E33.36545
G1 X101.206 Y71.226 E33.39004
G1 X101.217 Y71.485 E33.41453
G1 X101.251 Y71.745 E33.43931
G1 X101.308 Y72.001 E33.4641
G1 X101.386 Y72.249 E33.48867
G1 X101.486 Y72.49 E33.51332
G1 X101.607 Y72.721 E33.53797
G1 X101.746 Y72.941 E33.56256
G1 X101.903 Y73.146 E33.58696
G1 X102.08 Y73.34 E33.61178
G1 X102.274 Y73.518 E33.63666
G1 X102.482 Y73.676 E33.66134
G1 X102.701 Y73.815 E33.68585
G1 X102.935 Y73.938 E33.71083
G1 X103.176 Y74.036 E33.73542
G1 X103.421 Y74.113 E33.75969
G1 X103.675 Y74.17 E33.78429
G1 X103.934 Y74.205 E33.80899
G1 X104.196 Y74.216 E33.83377
G1 X104.458 Y74.205 E33.85855
G1 X104.718 Y74.17 E33.88334
G1 X104.969 Y74.113 E33.90766
G1 X105.216 Y74.037 E33.93209
G1 X105.461 Y73.937 E33.95709
G1 X105.692 Y73.815 E33.98178
G1 X105.91 Y73.676 E34.00621
G1 X106.118 Y73.518 E34.0309
G1 X106.312 Y73.34 E34.05578
G1 X106.489 Y73.145 E34.08066
G1 X106.645 Y72.942 E34.10486
G1 X106.786 Y72.721 E34.12963
G1 X106.908 Y72.488 E34.15448
G1 X107.006 Y72.249 E34.17889
G1 X107.084 Y72.001 E34.20346
G1 X107.141 Y71.745 E34.22825
G1 X107.175 Y71.485 E34.25303
G1 X107.186 Y71.226 E34.27752
G1 X107.175 Y70.966 E34.30211
G1 X107.141 Y70.706 E34.32689
G1 X107.084 Y70.45 E34.35168
G1 X107.006 Y70.203 E34.37616
G1 X106.908 Y69.962 E34.40074
G1 X106.786 Y69.731 E34.42543
G1 X106.646 Y69.51 E34.45015
G1 X106.488 Y69.304 E34.47468
G1 X106.31 Y69.109 E34.49963
G1 X106.118 Y68.935 E34.52412
G1 X105.913 Y68.776 E34.54864
G1 X105.692 Y68.636 E34.57336
G1 X105.461 Y68.514 E34.59805
G1 X105.216 Y68.414 E34.62305
G1 X104.969 Y68.338 E34.64748
G1 X104.718 Y68.281 E34.6718
G1 X104.455 Y68.246 E34.69687
G1 X104.196 Y68.236 E34.72137
G1 X103.937 Y68.246 E34.74586
G1 X103.676 Y68.281 E34.77074
G1 X103.404 Y68.341 E34.79707
G1 X102.95 Y68.506 E34.84271
G0 F4500 X103.091 Y68.827
G1 F1800 X102.876 Y68.938 E34.86558
G1 X102.681 Y69.063 E34.88747
G1 X102.499 Y69.204 E34.90923
G1 X102.329 Y69.357 E34.93084
G1 X102.172 Y69.529 E34.95285
G1 X102.033 Y69.712 E34.97456
G1 X101.91 Y69.906 E34.99627
G1 X101.804 Y70.109 E35.01791
G1 X101.715 Y70.322 E35.03973
G1 X101.646 Y70.541 E35.06142
G1 X101.596 Y70.767 E35.0833
G1 X101.566 Y70.996 E35.10512
G1 X101.556 Y71.226 E35.12688
G1 X101.566 Y71.455 E35.14854
G1 X101.596 Y71.684 E35.17036
G1 X101.646 Y71.91 E35.19224
G1 X101.715 Y72.129 E35.21394
G1 X101.803 Y72.342 E35.23572
G1 X101.91 Y72.546 E35.25748
G1 X102.033 Y72.74 E35.27919
G1 X102.172 Y72.921 E35.30076
G1 X102.328 Y73.093 E35.3227
G1 X102.499 Y73.249 E35.34458
G1 X102.682 Y73.389 E35.36635
G1 X102.876 Y73.512 E35.38806
G1 X103.082 Y73.62 E35.41004
G1 X103.295 Y73.706 E35.43174
G1 X103.512 Y73.775 E35.45326
G1 X103.737 Y73.825 E35.47504
G1 X103.965 Y73.856 E35.49679
G1 X104.196 Y73.866 E35.51864
G1 X104.427 Y73.856 E35.54049
G1 X104.656 Y73.825 E35.56232
G1 X104.879 Y73.775 E35.58392
G1 X105.098 Y73.707 E35.60559
G1 X105.313 Y73.619 E35.62755
G1 X105.516 Y73.512 E35.64923
G1 X105.71 Y73.389 E35.67094
G1 X105.893 Y73.249 E35.69271
G1 X106.064 Y73.093 E35.71459
G1 X106.22 Y72.921 E35.73653
G1 X106.358 Y72.741 E35.75796
G1 X106.483 Y72.546 E35.77985
G1 X106.59 Y72.34 E35.80179
G1 X106.677 Y72.129 E35.82336
G1 X106.746 Y71.91 E35.84505
G1 X106.796 Y71.684 E35.86693
G1 X106.826 Y71.455 E35.88875
G1 X106.836 Y71.226 E35.91041
G1 X106.826 Y70.996 E35.93217
G1 X106.796 Y70.767 E35.95399
G1 X106.746 Y70.541 E35.97587
G1 X106.677 Y70.322 E35.99757
G1 X106.59 Y70.11 E36.01922
G1 X106.483 Y69.906 E36.04099
G1 X106.359 Y69.711 E36.06283
G1 X106.219 Y69.529 E36.08453
G1 X106.063 Y69.357 E36.10647
G1 X105.893 Y69.204 E36.12808
G1 X105.711 Y69.063 E36.14984
G1 X105.516 Y68.939 E36.17168
G1 X105.313 Y68.832 E36.19336
G1 X105.098 Y68.744 E36.21532
G1 X104.879 Y68.676 E36.23699
G1 X104.656 Y68.626 E36.25858
G1 X104.425 Y68.595 E36.28061
G1 X104.196 Y68.586 E36.30227
G1 X103.967 Y68.595 E36.32392
G1 X103.737 Y68.626 E36.34586
G1 X103.502 Y68.678 E36.3686
G1 X103.091 Y68.827 E36.40991
G0 F4500 X103.222 Y69.125
;TYPE:WALL-OUTER
G1 F1800 X103.039 Y69.22 E36.4294
G1 X102.868 Y69.329 E36.44856
G1 X102.708 Y69.453 E36.46769
G1 X102.559 Y69.588 E36.48669
G1 X102.422 Y69.738 E36.50589
G1 X102.3 Y69.898 E36.5249
G1 X102.192 Y70.069 E36.54401
G1 X102.098 Y70.247 E36.56304
G1 X102.021 Y70.433 E36.58206
G1 X101.96 Y70.626 E36.60119
G1 X101.916 Y70.823 E36.62026
G1 X101.89 Y71.024 E36.63942
G1 X101.881 Y71.226 E36.65852
G1 X101.89 Y71.427 E36.67754
G1 X101.916 Y71.628 E36.69669
G1 X101.96 Y71.825 E36.71577
G1 X102.021 Y72.018 E36.73489
G1 X102.098 Y72.204 E36.75392
G1 X102.192 Y72.383 E36.77302
G1 X102.3 Y72.554 E36.79214
G1 X102.422 Y72.713 E36.81107
G1 X102.558 Y72.863 E36.83021
G1 X102.708 Y72.999 E36.84934
G1 X102.868 Y73.122 E36.86841
G1 X103.039 Y73.23 E36.88753
G1 X103.219 Y73.325 E36.90676
G1 X103.405 Y73.4 E36.92571
G1 X103.597 Y73.461 E36.94475
G1 X103.794 Y73.505 E36.96383
G1 X103.994 Y73.532 E36.9829
G1 X104.196 Y73.541 E37.002
G1 X104.398 Y73.532 E37.02111
G1 X104.599 Y73.505 E37.04028
G1 X104.795 Y73.461 E37.05926
G1 X104.988 Y73.401 E37.07836
G1 X105.175 Y73.324 E37.09747
G1 X105.353 Y73.23 E37.11649
G1 X105.524 Y73.122 E37.13561
G1 X105.684 Y72.999 E37.15468
G1 X105.834 Y72.863 E37.17381
G1 X105.97 Y72.713 E37.19295
G1 X106.092 Y72.554 E37.21188
G1 X106.201 Y72.383 E37.23105
G1 X106.295 Y72.203 E37.25024
G1 X106.371 Y72.018 E37.26914
G1 X106.432 Y71.825 E37.28827
G1 X106.476 Y71.628 E37.30734
G1 X106.502 Y71.427 E37.32649
G1 X106.511 Y71.226 E37.34551
