;FLAVOR:UltiGCode
;TIME:3193
;MATERIAL:6025
;MATERIAL2:0
;NOZZLE_DIAMETER:0.4
;Generated with Cura_SteamEngine 3.6.0
M82 ;absolute extrusion mode

G92 E0
G10
;LAYER_COUNT:86
;LAYER:0
M107
G0 F4500 X90.095 Y91.347 Z0.27
;TYPE:SKIRT
G11
G1 F1800 X90.524 Y91.033 E0.05024
G1 X90.994 Y90.788 E0.10033
G1 X91.496 Y90.616 E0.15047
G1 X92.018 Y90.521 E0.20061
G1 X92.705 Y90.517 E0.26554
G1 X98.327 Y91.03 E0.79902
G1 X103.792 Y91.216 E1.31576
G1 X109.227 Y91.094 E1.8295
G1 X116.093 Y90.515 E2.48064
G1 X116.624 Y90.511 E2.53082
G1 X117.302 Y90.623 E2.59576
G1 X134.309 Y95.182 E4.25966
G1 X134.809 Y95.358 E4.30976
G1 X135.278 Y95.607 E4.35994
G1 X135.704 Y95.923 E4.41006
G1 X136.078 Y96.3 E4.46024
G1 X136.391 Y96.728 E4.51035
G1 X136.636 Y97.199 E4.56052
G1 X136.808 Y97.701 E4.61067
G1 X136.902 Y98.223 E4.66079
G1 X136.91 Y98.87 E4.72194
G1 X136.617 Y102.505 E5.06656
G1 X136.427 Y107.976 E5.58388
G1 X136.547 Y113.433 E6.09969
G1 X136.913 Y118.318 E6.56262
G1 X136.913 Y118.848 E6.6127
G1 X136.803 Y119.492 E6.67444
G1 X134.021 Y129.885 E7.69116
G1 X133.846 Y130.386 E7.74131
G1 X133.597 Y130.855 E7.79149
G1 X133.281 Y131.281 E7.84161
G1 X132.904 Y131.655 E7.89179
G1 X132.476 Y131.968 E7.9419
G1 X132.005 Y132.214 E7.99212
G1 X131.503 Y132.385 E8.04223
G1 X130.981 Y132.48 E8.09237
G1 X130.245 Y132.479 E8.16192
G1 X127.456 Y132.184 E8.42695
G1 X121.98 Y131.839 E8.94546
G1 X116.529 Y131.806 E9.46059
G1 X111.052 Y132.082 E9.97882
G1 X106.949 Y132.48 E10.36838
G1 X106.419 Y132.491 E10.41847
G1 X105.697 Y132.376 E10.48756
G1 X88.694 Y127.82 E12.15103
G1 X88.193 Y127.644 E12.20121
G1 X87.724 Y127.396 E12.25134
G1 X87.298 Y127.079 E12.30152
G1 X86.924 Y126.703 E12.35164
G1 X86.611 Y126.274 E12.40182
G1 X86.366 Y125.804 E12.45191
G1 X86.194 Y125.301 E12.50215
G1 X86.1 Y124.779 E12.55227
G1 X86.092 Y124.132 E12.61342
G1 X86.386 Y120.485 E12.95918
G1 X86.576 Y115.015 E13.4764
G1 X86.456 Y109.555 E13.9925
G1 X86.093 Y104.682 E14.45427
G1 X86.093 Y104.151 E14.50445
G1 X86.202 Y103.51 E14.56589
G1 X88.979 Y93.117 E15.58249
G1 X89.155 Y92.616 E15.63267
G1 X89.403 Y92.147 E15.68281
G1 X89.719 Y91.721 E15.73293
G1 X90.095 Y91.347 E15.78305
G0 F4500 X90.402 Y91.547
G1 F1800 X90.819 Y91.265 E15.83062
G1 X91.275 Y91.052 E15.87818
G1 X91.76 Y90.914 E15.92583
G1 X92.26 Y90.854 E15.97342
G1 X92.674 Y90.865 E16.01256
G1 X98.319 Y91.38 E16.54822
G1 X103.788 Y91.566 E17.06534
G1 X109.248 Y91.443 E17.58144
G1 X116.122 Y90.864 E18.23334
G1 X116.626 Y90.862 E18.28097
G1 X117.211 Y90.961 E18.33703
G1 X134.218 Y95.52 E20.00094
G1 X134.693 Y95.689 E20.04858
G1 X135.135 Y95.93 E20.09616
G1 X135.533 Y96.239 E20.14377
G1 X135.877 Y96.606 E20.19131
G1 X136.159 Y97.023 E20.23888
G1 X136.372 Y97.48 E20.28653
G1 X136.509 Y97.964 E20.33406
G1 X136.569 Y98.464 E20.38165
G1 X136.561 Y98.842 E20.41738
G1 X136.267 Y102.486 E20.76286
G1 X136.077 Y107.972 E21.28159
G1 X136.197 Y113.448 E21.7992
G1 X136.564 Y118.344 E22.26317
G1 X136.562 Y118.847 E22.3107
G1 X136.465 Y119.402 E22.36395
G1 X133.683 Y129.795 E23.38066
G1 X133.515 Y130.27 E23.42827
G1 X133.273 Y130.712 E23.47589
G1 X132.965 Y131.11 E23.52345
G1 X132.598 Y131.454 E23.57099
G1 X132.181 Y131.737 E23.61861
G1 X131.724 Y131.949 E23.66622
G1 X131.24 Y132.087 E23.71378
G1 X130.74 Y132.147 E23.76137
G1 X130.282 Y132.131 E23.80468
G1 X127.492 Y131.836 E24.0698
G1 X121.986 Y131.489 E24.59115
G1 X116.513 Y131.456 E25.10836
G1 X111.024 Y131.732 E25.62772
G1 X106.916 Y132.131 E26.01776
G1 X106.412 Y132.14 E26.06539
G1 X105.787 Y132.038 E26.12524
G1 X88.784 Y127.482 E27.7887
G1 X88.31 Y127.313 E27.83626
G1 X87.868 Y127.072 E27.88383
G1 X87.47 Y126.764 E27.93139
G1 X87.125 Y126.396 E27.97906
G1 X86.843 Y125.979 E28.02663
G1 X86.63 Y125.523 E28.07419
G1 X86.493 Y125.038 E28.12182
G1 X86.433 Y124.538 E28.16941
G1 X86.441 Y124.16 E28.20513
G1 X86.736 Y120.504 E28.55175
G1 X86.926 Y115.019 E29.07039
G1 X86.806 Y109.54 E29.58828
G1 X86.442 Y104.656 E30.0511
G1 X86.444 Y104.152 E30.09873
G1 X86.541 Y103.6 E30.15169
G1 X89.318 Y93.207 E31.16829
G1 X89.486 Y92.733 E31.21581
G1 X89.727 Y92.291 E31.26338
G1 X90.035 Y91.892 E31.31102
G1 X90.402 Y91.547 E31.35862
G10
;MESH:Stop_Block_M.stl
G0 F4500 X91.567 Y94.357
G0 X92.759 Y94.676
G0 X102.036 Y106.659
;TYPE:WALL-INNER
G11
G1 F1800 X101.994 Y106.817 E31.37407
G1 X105.126 Y107.656 E31.68048
G1 X105.168 Y107.498 E31.69592
G1 X107.003 Y100.668 E32.36425
G1 X107.452 Y100.22 E32.42419
G1 X107.767 Y99.046 E32.53905
G1 X108.168 Y99.154 E32.5783
G1 X108.336 Y99.198 E32.59471
G1 X108.291 Y99.366 E32.6053
G1 X106.048 Y107.744 E33.42491
G1 X106.004 Y107.912 E33.44132
G1 X105.836 Y107.867 E33.45191
G1 X105.28 Y107.718 E33.50631
G1 X105.122 Y107.676 E33.52176
G1 X101.989 Y106.837 E33.53941
G1 X101.831 Y106.795 E33.5497
G1 X90.668 Y103.803 E34.64184
G1 X92.953 Y95.256 E35.4779
G1 X92.997 Y95.088 E35.49431
G1 X93.165 Y95.133 E35.5049
G1 X104.323 Y98.123 E36.59653
G1 X102.036 Y106.659 E37.43164
G0 F4500 X102.423 Y106.569
G1 F1800 X104.879 Y107.227 E37.67191
G1 X106.689 Y100.488 E38.33132
G1 X107.138 Y100.039 E38.39133
G1 X107.52 Y98.617 E38.53047
G1 X108.764 Y98.951 E38.65219
G1 X106.295 Y108.173 E39.55436
G1 X106.251 Y108.341 E39.57077
G1 X106.083 Y108.296 E39.58137
G1 X90.24 Y104.051 E41.13134
G1 X92.705 Y94.827 E42.0336
G1 X92.749 Y94.659 E42.05001
G1 X92.917 Y94.704 E42.0606
G1 X104.752 Y97.875 E43.21846
G1 X102.423 Y106.569 E44.06901
G0 F4500 X102.821 Y106.339
;TYPE:WALL-OUTER
G1 F1800 X104.649 Y106.829 E44.24786
G1 X106.398 Y100.319 E44.88487
G1 X106.847 Y99.871 E44.9448
G1 X107.245 Y98.388 E45.08991
G1 X107.29 Y98.219 E45.10643
G1 X107.459 Y98.264 E45.1171
G1 X109.162 Y98.721 E45.28372
G1 X106.526 Y108.57 E46.24721
G1 X106.481 Y108.739 E46.26374
G1 X106.312 Y108.694 E46.2744
G1 X89.842 Y104.281 E47.88572
G1 X92.474 Y94.43 E48.84929
G1 X92.519 Y94.261 E48.86582
G1 X92.688 Y94.306 E48.87648
G1 X105.15 Y97.645 E50.09568
G1 X102.821 Y106.339 E50.94623
G0 F4500 X103.014 Y106.39
G0 X102.914 Y106.761
G0 X102.904 Y106.8
G0 X101.749 Y106.42
;TYPE:SKIN
G1 F1800 X91.084 Y103.563 E51.98961
G1 X93.238 Y95.504 E52.77792
G1 X103.907 Y98.363 E53.82171
G1 X101.749 Y106.42 E54.60994
G0 F4500 X103.653 Y98.703
G1 F1800 X103.318 Y98.368 E54.65471
G0 F4500 X102.642 Y98.187
G1 F1800 X103.548 Y99.093 E54.77579
G0 F4500 X103.444 Y99.484
G1 F1800 X101.965 Y98.005 E54.97344
G0 F4500 X101.289 Y97.824
G1 F1800 X103.339 Y99.874 E55.24741
G0 F4500 X103.234 Y100.264
G1 F1800 X100.613 Y97.643 E55.59769
G1 X100.551 Y97.581
G0 F4500 X99.936 Y97.461
G1 F1800 X103.13 Y100.655 E56.02455
G0 F4500 X103.026 Y101.046
G1 F1800 X99.26 Y97.28 E56.52785
G0 F4500 X98.584 Y97.099
G1 F1800 X102.921 Y101.436 E57.10746
G0 F4500 X102.816 Y101.826
G1 F1800 X97.908 Y96.918 E57.76338
G1 X97.846 Y96.856
G0 F4500 X97.231 Y96.736
G1 F1800 X102.712 Y102.217 E58.49588
G0 F4500 X102.607 Y102.607
G1 F1800 X96.555 Y96.555 E59.30469
G0 F4500 X95.879 Y96.374
G1 F1800 X102.502 Y102.997 E60.18981
G0 F4500 X102.398 Y103.388
G1 F1800 X95.202 Y96.192 E61.1515
G0 F4500 X94.526 Y96.011
G1 F1800 X102.294 Y103.779 E62.18964
G0 F4500 X102.189 Y104.169
G1 F1800 X93.85 Y95.829 E63.30416
G0 F4500 X93.321 Y95.796
G1 F1800 X102.085 Y104.559 E64.47534
G0 F4500 X101.98 Y104.95
G1 F1800 X93.217 Y96.187 E65.64646
G0 F4500 X93.113 Y96.578
G1 F1800 X101.875 Y105.34 E66.81744
G0 F4500 X101.771 Y105.73
G1 F1800 X93.008 Y96.968 E67.98849
G0 F4500 X92.903 Y97.358
G1 F1800 X101.667 Y106.121 E69.15967
G0 F4500 X101.145 Y106.095
G1 F1800 X92.799 Y97.749 E70.27505
G0 F4500 X92.695 Y98.14
G1 F1800 X100.469 Y105.913 E71.31393
G0 F4500 X99.793 Y105.732
G1 F1800 X92.591 Y98.531 E72.27636
G0 F4500 X92.486 Y98.921
G1 F1800 X99.116 Y105.551 E73.16242
G0 F4500 X98.44 Y105.37
G1 F1800 X92.382 Y99.311 E73.97209
G0 F4500 X92.278 Y99.702
G1 F1800 X97.764 Y105.189 E74.70533
G0 F4500 X97.088 Y105.008
G1 F1800 X92.173 Y100.093 E75.36218
G0 F4500 X92.068 Y100.483
G1 F1800 X96.412 Y104.827 E75.94273
G1 X96.474 Y104.889
G0 F4500 X95.735 Y104.645
G1 F1800 X91.964 Y100.874 E76.4467
G0 F4500 X91.86 Y101.264
G1 F1800 X95.059 Y104.464 E76.87429
G0 F4500 X94.383 Y104.283
G1 F1800 X91.755 Y101.655 E77.2255
G0 F4500 X91.651 Y102.046
G1 F1800 X93.707 Y104.102 E77.50027
G0 F4500 X93.031 Y103.921
G1 F1800 X91.546 Y102.436 E77.69873
G0 F4500 X91.442 Y102.826
G1 F1800 X92.355 Y103.74 E77.82082
G1 X92.417 Y103.802
G0 F4500 X91.679 Y103.558
G1 F1800 X91.338 Y103.217 E77.86639
G0 F4500 X102.389 Y106.589
G0 X105.537 Y107.436
G1 F1800 X107.306 Y100.847 E78.5111
G1 X107.63 Y100.524 E78.55433
G1 X105.763 Y107.496 E79.2364
G1 X105.537 Y107.436 E79.2585
G0 F4500 X107.845 Y100.42
G0 X107.732 Y100.307
;TYPE:SKIN
G1 F1800 X107.784 Y100.112 E79.27759
G1 X108.007 Y99.345 E79.35318
G0 F4500 X108.107 Y99.445
G10
;MESH:Stop_Block_M.stl(1)
G0 X106.241 Y108.324
G0 X105.923 Y109.516
G0 X104.069 Y116.429
G0 X103.748 Y117.626
G0 X102.036 Y126.659
;TYPE:WALL-INNER
G11
G1 F1800 X101.994 Y126.817 E79.36863
G1 X105.126 Y127.656 E79.67504
G1 X105.168 Y127.498 E79.69049
G1 X107.003 Y120.668 E80.35881
G1 X107.452 Y120.22 E80.41875
G1 X107.767 Y119.046 E80.53362
G1 X108.168 Y119.154 E80.57286
G1 X108.336 Y119.198 E80.58927
G1 X108.291 Y119.366 E80.59987
G1 X106.048 Y127.744 E81.41947
G1 X106.004 Y127.912 E81.43588
G1 X105.836 Y127.867 E81.44648
G1 X105.28 Y127.718 E81.50087
G1 X105.122 Y127.676 E81.51632
G1 X101.99 Y126.837 E81.53397
G1 X101.832 Y126.795 E81.54426
G1 X90.666 Y123.802 E82.6367
G1 X92.954 Y115.257 E83.47264
G1 X92.998 Y115.089 E83.48906
G1 X93.166 Y115.134 E83.49965
G1 X104.323 Y118.123 E84.59117
G1 X102.036 Y126.659 E85.42627
G0 F4500 X102.423 Y126.569
G1 F1800 X104.879 Y127.227 E85.66655
G1 X106.689 Y120.488 E86.32595
G1 X107.138 Y120.039 E86.38596
G1 X107.52 Y118.617 E86.5251
G1 X108.764 Y118.951 E86.64682
G1 X106.295 Y128.173 E87.54899
G1 X106.251 Y128.341 E87.5654
G1 X106.083 Y128.296 E87.576
G1 X90.238 Y124.05 E89.12618
G1 X92.707 Y114.828 E90.02835
G1 X92.751 Y114.66 E90.04476
G1 X92.919 Y114.705 E90.05536
G1 X104.752 Y117.875 E91.21301
G1 X102.423 Y126.569 E92.06356
G0 F4500 X102.821 Y126.339
;TYPE:WALL-OUTER
G1 F1800 X104.649 Y126.829 E92.2424
G1 X106.398 Y120.319 E92.87941
G1 X106.847 Y119.871 E92.93935
G1 X107.245 Y118.388 E93.08445
G1 X107.29 Y118.219 E93.10098
G1 X107.459 Y118.264 E93.11164
G1 X109.162 Y118.721 E93.27827
G1 X106.526 Y128.57 E94.24176
G1 X106.481 Y128.739 E94.25829
G1 X106.312 Y128.694 E94.26895
G1 X89.84 Y124.28 E95.88047
G1 X92.476 Y114.431 E96.84396
G1 X92.521 Y114.262 E96.86049
G1 X92.69 Y114.307 E96.87115
G1 X104.981 Y117.6 E98.07361
G1 X105.15 Y117.645 E98.09014
G1 X105.105 Y117.814 E98.1008
G1 X102.821 Y126.339 E98.93483
G0 F4500 X103.014 Y126.39
G0 X102.914 Y126.761
G0 X102.904 Y126.8
G0 X101.749 Y126.42
;TYPE:SKIN
G1 F1800 X91.082 Y123.562 E99.97841
G1 X93.239 Y115.505 E100.76661
G1 X103.907 Y118.363 E101.81029
G1 X101.749 Y126.42 E102.59851
G0 F4500 X103.695 Y118.545
G1 F1800 X103.591 Y118.441 E102.61241
G0 F4500 X103.591 Y118.936
G1 F1800 X102.915 Y118.259 E102.70282
G0 F4500 X102.239 Y118.078
G1 F1800 X103.487 Y119.326 E102.86961
G0 F4500 X103.382 Y119.716
G1 F1800 X101.563 Y117.897 E103.11271
G0 F4500 X100.887 Y117.716
G1 F1800 X103.277 Y120.107 E103.43218
G0 F4500 X103.173 Y120.497
G1 F1800 X100.21 Y117.534 E103.82816
G0 F4500 X99.534 Y117.353
G1 F1800 X103.068 Y120.887 E104.30046
G0 F4500 X102.963 Y121.278
G1 F1800 X98.858 Y117.172 E104.84913
G0 F4500 X98.182 Y116.991
G1 F1800 X102.859 Y121.668 E105.47418
G0 F4500 X102.754 Y122.058
G1 F1800 X97.505 Y116.809 E106.17567
G0 F4500 X96.829 Y116.628
G1 F1800 X102.65 Y122.449 E106.95361
G0 F4500 X102.546 Y122.84
G1 F1800 X96.153 Y116.447 E107.80799
G0 F4500 X95.477 Y116.266
G1 F1800 X102.441 Y123.23 E108.73868
G0 F4500 X102.336 Y123.62
G1 F1800 X94.801 Y116.085 E109.74568
G1 X94.739 Y116.023
G0 F4500 X94.125 Y115.903
G1 F1800 X102.232 Y124.01 E110.82913
G0 F4500 X102.127 Y124.401
G1 F1800 X93.449 Y115.722 E111.98895
G0 F4500 X93.26 Y116.029
G1 F1800 X102.022 Y124.791 E113.15993
G0 F4500 X101.918 Y125.181
G1 F1800 X93.155 Y116.419 E114.33098
G0 F4500 X93.051 Y116.81
G1 F1800 X101.814 Y125.572 E115.50203
G0 F4500 X101.709 Y125.963
G1 F1800 X92.947 Y117.2 E116.67308
G0 F4500 X92.842 Y117.591
G1 F1800 X101.419 Y126.168 E117.81934
G0 F4500 X100.743 Y125.987
G1 F1800 X92.737 Y117.981 E118.88928
G0 F4500 X92.633 Y118.371
G1 F1800 X100.066 Y125.805 E119.88272
G0 F4500 X99.39 Y125.624
G1 F1800 X92.528 Y118.762 E120.79978
G0 F4500 X92.424 Y119.153
G1 F1800 X98.714 Y125.443 E121.64039
G0 F4500 X98.038 Y125.262
G1 F1800 X92.319 Y119.543 E122.4047
G0 F4500 X92.215 Y119.933
G1 F1800 X97.362 Y125.081 E123.09263
G1 X97.424 Y125.143
G0 F4500 X96.686 Y124.899
G1 F1800 X92.11 Y120.324 E123.70411
G0 F4500 X92.005 Y120.714
G1 F1800 X96.01 Y124.718 E124.23929
G0 F4500 X95.334 Y124.537
G1 F1800 X91.901 Y121.104 E124.69808
G0 F4500 X91.797 Y121.495
G1 F1800 X94.658 Y124.356 E125.08044
G0 F4500 X93.982 Y124.175
G1 F1800 X91.692 Y121.886 E125.38641
G0 F4500 X91.588 Y122.276
G1 F1800 X93.306 Y123.994 E125.61601
G1 X93.368 Y124.056
G0 F4500 X92.629 Y123.812
G1 F1800 X91.483 Y122.666 E125.76917
G0 F4500 X91.378 Y123.057
G1 F1800 X91.953 Y123.631 E125.84595
G1 X92.015 Y123.693
G0 F4500 X105.537 Y127.436
G1 F1800 X107.306 Y120.847 E126.49066
G1 X107.63 Y120.524 E126.53389
G1 X105.763 Y127.496 E127.21596
G1 X105.537 Y127.436 E127.23805
G0 F4500 X107.801 Y120.423
G0 X107.705 Y120.327
;TYPE:SKIN
G1 F1800 X107.775 Y120.149 E127.25574
G1 X107.984 Y119.369 E127.33039
G0 F4500 X108.097 Y119.481
G10
;MESH:Stop_Block.STL(1)
G0 X107.978 Y121.812
G0 X109.176 Y122.132
G0 X113.193 Y123.213
G0 X114.391 Y123.532
G0 X118.726 Y124.69
;TYPE:WALL-INNER
G11
G1 F1800 X120.965 Y116.331 E128.14816
G1 X121.01 Y116.163 E128.1646
G1 X121.178 Y116.208 E128.17521
G1 X132.337 Y119.199 E129.26696
G1 X130.049 Y127.745 E130.103
G1 X130.005 Y127.913 E130.11941
G1 X129.837 Y127.868 E130.13001
G1 X118.677 Y124.878 E131.22182
G1 X115.544 Y124.038 E131.52835
G1 X115.387 Y123.996 E131.54371
G1 X114.662 Y123.801 E131.61465
G1 X116.996 Y115.087 E132.46715
G1 X117.568 Y115.24 E132.52311
G1 X117.254 Y116.415 E132.63804
G1 X117.418 Y117.027 E132.69792
G1 X115.592 Y123.859 E133.3662
G1 X115.55 Y124.016 E133.38156
G1 X118.513 Y124.813 E133.67152
G1 X118.681 Y124.858 E133.68795
G1 X118.726 Y124.69 E133.69857
G0 F4500 X118.434 Y124.429
G1 F1800 X118.479 Y124.261 E133.715
G1 X120.717 Y115.902 E134.53275
G1 X120.762 Y115.734 E134.54919
G1 X120.93 Y115.779 E134.5598
G1 X132.765 Y118.951 E135.71768
G1 X130.296 Y128.174 E136.61995
G1 X130.252 Y128.342 E136.63636
G1 X130.084 Y128.297 E136.64695
G1 X114.233 Y124.049 E138.19773
G1 X116.703 Y114.826 E139.10002
G1 X116.748 Y114.658 E139.11645
G1 X116.916 Y114.703 E139.12707
G1 X117.997 Y114.993 E139.23284
G1 X117.616 Y116.415 E139.37196
G1 X117.755 Y116.937 E139.423
G1 X117.78 Y117.027 E139.43183
G1 X115.978 Y123.769 E140.09131
G1 X118.266 Y124.384 E140.31521
G1 X118.434 Y124.429 E140.32582
G0 F4500 X118.204 Y124.031
;TYPE:WALL-OUTER
G1 F1800 X118.248 Y123.863 E140.34223
G1 X118.249 Y123.862 E140.34237
G1 X120.487 Y115.505 E141.15993
G1 X120.532 Y115.336 E141.17646
G1 X120.701 Y115.381 E141.18712
G1 X133.163 Y118.721 E142.40634
G1 X130.527 Y128.571 E143.36992
G1 X130.482 Y128.74 E143.38645
G1 X130.313 Y128.695 E143.39711
G1 X113.835 Y124.279 E145.00923
G1 X116.473 Y114.429 E145.97286
G1 X116.518 Y114.26 E145.98939
G1 X116.687 Y114.305 E146.00005
G1 X118.226 Y114.718 E146.15063
G1 X118.395 Y114.763 E146.16716
G1 X118.35 Y114.932 E146.17782
G1 X117.952 Y116.415 E146.32292
G1 X118.116 Y117.027 E146.3828
G1 X116.376 Y123.539 E147.01977
G1 X118.036 Y123.986 E147.18223
G1 X118.204 Y124.031 E147.19282
G0 F4500 X118.248 Y123.863
G0 X118.249 Y123.862
G0 X118.255 Y123.837
G0 X118.626 Y123.937
G0 X118.665 Y123.948
G0 X119.092 Y124.637
;TYPE:SKIN
G1 F1800 X121.25 Y116.579 E147.98114
G1 X131.921 Y119.439 E149.02514
G1 X129.764 Y127.497 E149.81343
G1 X119.092 Y124.637 E150.85752
G0 F4500 X119.345 Y124.295
G1 F1800 X119.681 Y124.631 E150.90242
G0 F4500 X120.358 Y124.812
G1 F1800 X119.449 Y123.904 E151.02384
G0 F4500 X119.554 Y123.513
G1 F1800 X121.034 Y124.993 E151.22163
