;FLAVOR:UltiGCode
;TIME:374
;MATERIAL:687
;MATERIAL2:0
;NOZZLE_DIAMETER:0.4
;Generated with Cura_SteamEngine 3.6.0
M82 ;absolute extrusion mode

G92 E0
G10
;LAYER_COUNT:50
;LAYER:0
M107
G0 F4500 X103.668 Y105.704 Z0.27
;TYPE:SKIRT
G11
G1 F1800 X104.148 Y105.263 E0.0616
G1 X104.715 Y104.824 E0.12936
G1 X106.399 Y103.737 E0.31877
G1 X106.429 Y103.718 E0.32213
G1 X107.853 Y102.816 E0.48142
G1 X108.364 Y102.539 E0.53635
G1 X109.012 Y102.306 E0.60142
G1 X113.412 Y101.117 E1.03214
G1 X113.982 Y101.005 E1.08703
G1 X114.562 Y100.971 E1.14194
G1 X115.17 Y101.022 E1.1996
G1 X116.997 Y101.309 E1.37436
G1 X117.563 Y101.439 E1.42924
G1 X118.106 Y101.645 E1.48413
G1 X118.616 Y101.923 E1.53902
G1 X119.083 Y102.269 E1.59394
G1 X119.498 Y102.675 E1.6488
G1 X119.854 Y103.135 E1.70377
G1 X120.143 Y103.639 E1.75867
G1 X120.419 Y104.38 E1.8334
G1 X122.794 Y113.159 E2.69284
G1 X122.907 Y113.729 E2.74775
G1 X122.941 Y114.309 E2.80265
G1 X122.894 Y114.888 E2.85755
G1 X122.769 Y115.455 E2.91242
G1 X122.567 Y116 E2.96734
G1 X122.292 Y116.512 E3.02227
G1 X121.95 Y116.981 E3.07712
G1 X121.398 Y117.527 E3.15049
G1 X119.954 Y118.713 E3.32707
G1 X119.48 Y119.05 E3.38203
G1 X118.965 Y119.319 E3.43694
G1 X118.368 Y119.528 E3.49671
G1 X114 Y120.701 E3.92411
G1 X113.43 Y120.813 E3.97901
G1 X112.736 Y120.843 E4.04465
G1 X109.195 Y120.702 E4.37954
G1 X108.472 Y120.61 E4.44842
G1 X107.526 Y120.406 E4.53987
G1 X106.968 Y120.245 E4.59475
G1 X106.568 Y120.075 E4.63582
G1 X105.463 Y119.537 E4.75197
G1 X104.959 Y119.247 E4.80692
G1 X104.505 Y118.895 E4.8612
G1 X103.567 Y118.061 E4.97981
G1 X103.16 Y117.646 E5.03474
G1 X102.8 Y117.158 E5.09205
G1 X102.11 Y116.064 E5.21428
G1 X101.835 Y115.552 E5.2692
G1 X101.637 Y115.022 E5.32267
G1 X101.29 Y113.863 E5.437
G1 X101.162 Y113.296 E5.49193
G1 X101.117 Y112.858 E5.53353
G1 X101.07 Y111.9 E5.62417
G1 X101.103 Y111.13 E5.69701
G1 X101.2 Y110.408 E5.76585
G1 X101.316 Y109.839 E5.82072
G1 X101.469 Y109.391 E5.86546
G1 X102.038 Y107.98 E6.00923
G1 X102.291 Y107.457 E6.06414
G1 X102.6 Y106.993 E6.11682
G1 X103.17 Y106.248 E6.20546
G1 X103.668 Y105.704 E6.27516
G0 F4500 X103.904 Y105.961
G1 F1800 X104.384 Y105.52 E6.33676
G1 X104.905 Y105.118 E6.39894
G1 X106.589 Y104.031 E6.58836
G1 X106.616 Y104.013 E6.59142
G1 X108.04 Y103.111 E6.75071
G1 X108.531 Y102.848 E6.80335
G1 X109.103 Y102.644 E6.86074
G1 X113.503 Y101.455 E7.29145
G1 X114.049 Y101.349 E7.34401
G1 X114.605 Y101.322 E7.39662
G1 X115.115 Y101.368 E7.44501
G1 X116.942 Y101.655 E7.61978
G1 X117.484 Y101.781 E7.67236
G1 X118.003 Y101.982 E7.72496
G1 X118.487 Y102.257 E7.77756
G1 X118.927 Y102.597 E7.83011
G1 X119.314 Y102.997 E7.88271
G1 X119.639 Y103.449 E7.93532
G1 X119.896 Y103.942 E7.98785
G1 X120.082 Y104.471 E8.04085
G1 X122.457 Y113.25 E8.90028
G1 X122.563 Y113.796 E8.95284
G1 X122.59 Y114.352 E9.00545
G1 X122.537 Y114.906 E9.05804
G1 X122.406 Y115.447 E9.11064
G1 X122.198 Y115.963 E9.16322
G1 X121.918 Y116.444 E9.21581
G1 X121.573 Y116.88 E9.26835
G1 X121.175 Y117.256 E9.32009
G1 X119.731 Y118.442 E9.49668
G1 X119.277 Y118.764 E9.54928
G1 X118.782 Y119.017 E9.60181
G1 X118.277 Y119.19 E9.65225
G1 X113.909 Y120.363 E10.07965
G1 X113.363 Y120.469 E10.13222
G1 X112.75 Y120.493 E10.19019
G1 X109.209 Y120.352 E10.52508
G1 X108.546 Y120.268 E10.58823
G1 X107.6 Y120.064 E10.67968
G1 X107.066 Y119.908 E10.73226
G1 X106.721 Y119.76 E10.76773
G1 X105.616 Y119.222 E10.88387
G1 X105.134 Y118.943 E10.9365
G1 X104.737 Y118.634 E10.98404
G1 X103.799 Y117.8 E11.10266
G1 X103.411 Y117.401 E11.15525
G1 X103.096 Y116.971 E11.20562
G1 X102.406 Y115.877 E11.32785
G1 X102.144 Y115.386 E11.38044
G1 X101.972 Y114.921 E11.42729
G1 X101.625 Y113.762 E11.54162
G1 X101.504 Y113.219 E11.59419
G1 X101.467 Y112.841 E11.63009
G1 X101.42 Y111.883 E11.72073
G1 X101.45 Y111.177 E11.7875
G1 X101.547 Y110.455 E11.85635
G1 X101.66 Y109.91 E11.90894
G1 X101.793 Y109.522 E11.9477
G1 X102.362 Y108.111 E12.09148
G1 X102.607 Y107.611 E12.14409
G1 X102.878 Y107.205 E12.19022
G1 X103.448 Y106.46 E12.27887
G1 X103.904 Y105.961 E12.34275
G0 F4500 X104.141 Y106.219
G1 F1800 X104.621 Y105.778 E12.40435
G1 X105.094 Y105.412 E12.46086
G1 X106.778 Y104.325 E12.65027
G1 X106.804 Y104.309 E12.65316
G1 X108.228 Y103.407 E12.81245
G1 X108.696 Y103.158 E12.86255
G1 X109.194 Y102.982 E12.91246
G1 X113.594 Y101.793 E13.34318
G1 X114.116 Y101.694 E13.39338
G1 X114.646 Y101.673 E13.44351
G1 X115.061 Y101.714 E13.48292
G1 X116.888 Y102.001 E13.65769
G1 X117.405 Y102.122 E13.70786
G1 X117.897 Y102.32 E13.75798
G1 X118.354 Y102.589 E13.80809
G1 X118.766 Y102.924 E13.85827
G1 X119.122 Y103.317 E13.90838
G1 X119.416 Y103.759 E13.95855
G1 X119.64 Y104.241 E14.00878
G1 X119.744 Y104.562 E14.04066
G1 X122.119 Y113.341 E14.9001
G1 X122.218 Y113.863 E14.95031
G1 X122.239 Y114.393 E15.00043
G1 X122.179 Y114.92 E15.05056
G1 X122.041 Y115.433 E15.10076
G1 X121.828 Y115.919 E15.1509
G1 X121.544 Y116.367 E15.20103
G1 X121.196 Y116.767 E15.25113
G1 X120.953 Y116.986 E15.28205
G1 X119.509 Y118.172 E15.45863
G1 X119.075 Y118.477 E15.50876
G1 X118.6 Y118.713 E15.55888
G1 X118.186 Y118.852 E15.60015
G1 X113.818 Y120.025 E16.02755
G1 X113.297 Y120.124 E16.07767
G1 X112.764 Y120.143 E16.12807
G1 X109.223 Y120.002 E16.46296
G1 X108.62 Y119.926 E16.52039
G1 X107.674 Y119.722 E16.61184
G1 X107.165 Y119.571 E16.66201
G1 X106.874 Y119.445 E16.69198
G1 X105.769 Y118.907 E16.80812
G1 X105.311 Y118.64 E16.85822
G1 X104.97 Y118.372 E16.89921
G1 X104.032 Y117.538 E17.01782
G1 X103.663 Y117.157 E17.06794
G1 X103.392 Y116.784 E17.11151
G1 X102.702 Y115.69 E17.23374
G1 X102.454 Y115.222 E17.28379
G1 X102.307 Y114.821 E17.32415
G1 X101.96 Y113.662 E17.43848
G1 X101.847 Y113.144 E17.48858
G1 X101.816 Y112.824 E17.51896
G1 X101.769 Y111.866 E17.6096
G1 X101.796 Y111.224 E17.67033
G1 X101.893 Y110.502 E17.73917
G1 X102.003 Y109.983 E17.7893
G1 X102.118 Y109.653 E17.82233
G1 X102.687 Y108.242 E17.9661
G1 X102.922 Y107.766 E18.01627
G1 X103.156 Y107.418 E18.0559
G1 X103.726 Y106.673 E18.14454
G1 X104.141 Y106.219 E18.20267
G0 F4500 X104.378 Y106.477
G1 F1800 X104.858 Y106.036 E18.26426
G1 X105.284 Y105.706 E18.31519
G1 X106.968 Y104.619 E18.5046
G1 X106.991 Y104.605 E18.50714
G1 X108.415 Y103.703 E18.66644
G1 X108.86 Y103.468 E18.71399
G1 X109.286 Y103.32 E18.75661
G1 X113.686 Y102.131 E19.18732
G1 X114.181 Y102.039 E19.2349
G1 X114.684 Y102.026 E19.28245
G1 X115.007 Y102.059 E19.31313
G1 X116.834 Y102.346 E19.4879
G1 X117.323 Y102.464 E19.53544
G1 X117.788 Y102.657 E19.58302
G1 X118.217 Y102.922 E19.63067
G1 X118.598 Y103.25 E19.67818
G1 X118.923 Y103.635 E19.72579
G1 X119.183 Y104.067 E19.77344
G1 X119.406 Y104.654 E19.83278
G1 X121.781 Y113.433 E20.69221
G1 X121.873 Y113.928 E20.73979
G1 X121.886 Y114.431 E20.78734
G1 X121.82 Y114.93 E20.83491
G1 X121.675 Y115.413 E20.88256
G1 X121.456 Y115.866 E20.93011
G1 X121.168 Y116.279 E20.97769
G1 X120.731 Y116.716 E21.0361
G1 X119.287 Y117.902 E21.21268
G1 X118.874 Y118.189 E21.26021
G1 X118.42 Y118.408 E21.30784
G1 X118.095 Y118.514 E21.34015
G1 X113.727 Y119.687 E21.76755
G1 X113.232 Y119.779 E21.81512
G1 X112.778 Y119.793 E21.85805
G1 X109.237 Y119.652 E22.19294
G1 X108.694 Y119.584 E22.24465
G1 X107.748 Y119.38 E22.3361
G1 X107.265 Y119.235 E22.38376
G1 X107.027 Y119.131 E22.4083
G1 X105.922 Y118.593 E22.52445
G1 X105.488 Y118.337 E22.57206
G1 X105.202 Y118.111 E22.60651
G1 X104.264 Y117.277 E22.72512
G1 X103.916 Y116.913 E22.77271
G1 X103.689 Y116.598 E22.8094
G1 X102.999 Y115.504 E22.93163
G1 X102.765 Y115.058 E22.97923
G1 X102.642 Y114.721 E23.01313
G1 X102.295 Y113.562 E23.12746
G1 X102.19 Y113.069 E23.17509
G1 X102.166 Y112.807 E23.19995
G1 X102.119 Y111.849 E23.29059
G1 X102.143 Y111.27 E23.34535
G1 X102.24 Y110.548 E23.4142
G1 X102.347 Y110.056 E23.46178
G1 X102.442 Y109.784 E23.489
G1 X103.011 Y108.373 E23.63278
G1 X103.236 Y107.922 E23.68041
G1 X103.434 Y107.631 E23.71367
G1 X104.004 Y106.886 E23.80231
G1 X104.378 Y106.477 E23.85469
G10
;MESH:Belt_Anchor_Block_v2.stl
G0 F4500 X109.421 Y106.605
G0 X110.468 Y107.283
G0 X111.458 Y107.301
G0 X113.704 Y107.091
;TYPE:WALL-INNER
G11
G1 F1800 X113.974 Y106.988 E23.88199
G1 X114.22 Y106.847 E23.90879
G1 X114.438 Y106.653 E23.93637
G1 X114.587 Y106.461 E23.95933
G1 X114.794 Y106.55 E23.98063
G1 X115.079 Y106.607 E24.00809
G1 X115.35 Y106.612 E24.03371
G1 X115.592 Y106.579 E24.05679
G1 X115.77 Y106.531 E24.07421
G1 X117.681 Y113.669 E24.77251
G1 X117.522 Y113.712 E24.78807
G1 X117.303 Y113.793 E24.81014
G1 X117.058 Y113.936 E24.83694
G1 X116.843 Y114.126 E24.86406
G1 X116.691 Y114.321 E24.88742
G1 X116.485 Y114.232 E24.90863
G1 X116.198 Y114.175 E24.93628
G1 X115.928 Y114.17 E24.9618
G1 X115.648 Y114.208 E24.9885
G1 X115.371 Y114.309 E25.01636
G1 X115.124 Y114.455 E25.04348
G1 X114.91 Y114.645 E25.07052
G1 X114.759 Y114.839 E25.09375
G1 X114.552 Y114.75 E25.11505
G1 X114.27 Y114.693 E25.14223
G1 X113.997 Y114.685 E25.16804
G1 X113.713 Y114.727 E25.19517
G1 X113.438 Y114.827 E25.22283
G1 X113.192 Y114.973 E25.24986
G1 X112.979 Y115.161 E25.27671
G1 X112.826 Y115.356 E25.30013
G1 X112.619 Y115.268 E25.32139
G1 X112.339 Y115.211 E25.34839
G1 X112.066 Y115.203 E25.3742
G1 X111.821 Y115.239 E25.3976
G1 X110.82 Y115.507 E25.49552
G1 X110.546 Y115.571 E25.52211
G1 X110.293 Y115.61 E25.54631
G1 X110.028 Y115.633 E25.57144
G1 X109.789 Y115.638 E25.59403
G1 X109.491 Y115.622 E25.62223
G1 X109.279 Y115.596 E25.64242
G1 X109.01 Y115.543 E25.66833
G1 X108.767 Y115.478 E25.6921
G1 X108.495 Y115.383 E25.71932
G1 X108.287 Y115.295 E25.74067
G1 X108.039 Y115.168 E25.767
G1 X107.825 Y115.04 E25.79056
G1 X107.619 Y114.893 E25.81448
G1 X107.423 Y114.735 E25.83827
G1 X107.236 Y114.559 E25.86254
G1 X107.048 Y114.36 E25.88841
G1 X106.879 Y114.15 E25.91388
G1 X106.743 Y113.955 E25.93635
G1 X106.61 Y113.734 E25.96072
G1 X106.492 Y113.501 E25.9854
G1 X106.393 Y113.265 E26.00959
G1 X106.304 Y113.004 E26.03565
G1 X106.243 Y112.773 E26.05822
G1 X106.193 Y112.518 E26.08278
G1 X106.163 Y112.269 E26.10648
G1 X106.149 Y111.976 E26.1342
G1 X106.154 Y111.75 E26.15556
G1 X106.178 Y111.485 E26.18071
G1 X106.22 Y111.223 E26.20578
G1 X106.278 Y110.976 E26.22976
G1 X106.346 Y110.754 E26.2517
G1 X106.453 Y110.472 E26.2802
G1 X106.543 Y110.282 E26.30007
G1 X106.677 Y110.04 E26.32621
G1 X106.815 Y109.829 E26.35004
G1 X106.988 Y109.6 E26.37716
G1 X107.141 Y109.423 E26.39927
G1 X107.321 Y109.243 E26.42332
G1 X107.521 Y109.071 E26.44825
G1 X107.735 Y108.91 E26.47356
G1 X107.937 Y108.78 E26.49626
G1 X108.17 Y108.65 E26.52147
G1 X108.399 Y108.544 E26.54532
G1 X108.65 Y108.448 E26.57071
G1 X108.909 Y108.369 E26.5963
G1 X109.889 Y108.106 E26.69219
G1 X110.11 Y108.026 E26.7144
G1 X110.357 Y107.881 E26.74147
G1 X110.573 Y107.69 E26.76872
G1 X110.722 Y107.497 E26.79176
G1 X110.931 Y107.585 E26.81319
G1 X111.211 Y107.642 E26.84019
G1 X111.485 Y107.65 E26.86609
G1 X111.77 Y107.608 E26.89332
G1 X112.042 Y107.508 E26.9207
G1 X112.289 Y107.363 E26.94777
G1 X112.507 Y107.171 E26.97522
G1 X112.654 Y106.979 E26.99807
G1 X112.863 Y107.067 E27.0195
G1 X113.143 Y107.124 E27.0465
G1 X113.414 Y107.132 E27.07213
G1 X113.704 Y107.091 E27.0998
G0 F4500 X113.616 Y106.75
G1 F1800 X113.824 Y106.671 E27.12083
G1 X114.014 Y106.562 E27.14153
G1 X114.181 Y106.413 E27.16268
G1 X114.314 Y106.241 E27.18322
G1 X114.414 Y106.05 E27.2036
G1 X114.434 Y105.983 E27.21021
G1 X114.446 Y105.943 E27.21415
G1 X114.482 Y105.977 E27.21494
G1 X114.514 Y106.007
G1 X114.694 Y106.126 E27.2299
G1 X114.899 Y106.214 E27.25099
G1 X115.117 Y106.258 E27.272
G1 X115.329 Y106.262 E27.29204
G1 X115.522 Y106.235 E27.31046
G1 X115.849 Y106.147 E27.34246
G1 X116.017 Y106.102 E27.35889
G1 X116.062 Y106.27 E27.36951
G1 X118.065 Y113.749 E28.10118
G1 X118.11 Y113.917 E28.11762
G1 X117.942 Y113.962 E28.12823
G1 X117.628 Y114.046 E28.15895
G1 X117.453 Y114.111 E28.17659
G1 X117.264 Y114.221 E28.19726
G1 X117.099 Y114.367 E28.21808
G1 X116.964 Y114.539 E28.23874
G1 X116.863 Y114.733 E28.25941
G1 X116.844 Y114.798 E28.26581
G1 X116.831 Y114.839 E28.26987
G1 X116.795 Y114.805 E28.27013
G1 X116.763 Y114.774
G1 X116.583 Y114.656 E28.28513
G1 X116.38 Y114.568 E28.30604
G1 X116.16 Y114.524 E28.32724
G1 X115.949 Y114.52 E28.34718
G1 X115.733 Y114.55 E28.36779
G1 X115.521 Y114.627 E28.38911
G1 X115.331 Y114.739 E28.40995
G1 X115.166 Y114.885 E28.43077
G1 X115.031 Y115.059 E28.45158
G1 X114.931 Y115.251 E28.47204
G1 X114.912 Y115.316 E28.47844
G1 X114.899 Y115.356 E28.48241
G1 X114.864 Y115.322 E28.48318
G1 X114.832 Y115.292
G1 X114.65 Y115.173 E28.49834
G1 X114.447 Y115.086 E28.51921
G1 X114.23 Y115.042 E28.54014
G1 X114.018 Y115.036 E28.56018
G1 X113.799 Y115.068 E28.58109
G1 X113.588 Y115.145 E28.60232
G1 X113.399 Y115.257 E28.62308
G1 X113.235 Y115.402 E28.64377
G1 X113.099 Y115.575 E28.66456
G1 X112.998 Y115.771 E28.6854
G1 X112.979 Y115.833 E28.69153
G1 X112.967 Y115.873 E28.69547
G1 X112.933 Y115.84 E28.69626
G1 X112.9 Y115.809
G1 X112.718 Y115.69 E28.71145
G1 X112.515 Y115.604 E28.73229
G1 X112.299 Y115.56 E28.75312
G1 X112.086 Y115.554 E28.77326
G1 X111.892 Y115.582 E28.79178
G1 X110.905 Y115.847 E28.88835
G1 X110.624 Y115.911 E28.91559
G1 X110.61 Y115.915 E28.91696
G1 X110.333 Y115.958 E28.94345
G1 X110.051 Y115.983 E28.97021
G1 X109.777 Y115.988 E28.99611
G1 X109.469 Y115.972 E29.02525
G1 X109.214 Y115.94 E29.04954
G1 X108.937 Y115.886 E29.07621
G1 X108.659 Y115.811 E29.10342
G1 X108.38 Y115.714 E29.13133
G1 X108.127 Y115.607 E29.15729
G1 X107.879 Y115.48 E29.18362
G1 X107.633 Y115.333 E29.2107
G1 X107.408 Y115.173 E29.23679
G1 X107.189 Y114.996 E29.2634
G1 X106.988 Y114.807 E29.28947
G1 X106.787 Y114.593 E29.31722
G1 X106.599 Y114.36 E29.34551
G1 X106.449 Y114.145 E29.37028
G1 X106.305 Y113.905 E29.39673
G1 X106.17 Y113.639 E29.42492
G1 X106.07 Y113.401 E29.44932
G1 X105.969 Y113.105 E29.47887
G1 X105.899 Y112.841 E29.50468
G1 X105.849 Y112.585 E29.52933
G1 X105.847 Y112.561 E29.53161
G1 X105.817 Y112.312 E29.55531
G1 X105.813 Y112.286 E29.55779
G1 X105.799 Y111.993 E29.58551
G1 X105.804 Y111.725 E29.61085
G1 X105.83 Y111.443 E29.63761
G1 X105.876 Y111.156 E29.66507
G1 X105.937 Y110.896 E29.69031
G1 X106.015 Y110.638 E29.71578
G1 X106.126 Y110.347 E29.74521
G1 X106.137 Y110.324 E29.74762
G1 X106.237 Y110.112 E29.76978
G1 X106.379 Y109.856 E29.79744
G1 X106.531 Y109.624 E29.82365
G1 X106.708 Y109.389 E29.85145
G1 X106.884 Y109.186 E29.87684
G1 X107.092 Y108.978 E29.90464
G1 X107.298 Y108.8 E29.93037
G1 X107.535 Y108.622 E29.95838
G1 X107.757 Y108.479 E29.98333
G1 X108.015 Y108.336 E30.01121
G1 X108.259 Y108.223 E30.03662
G1 X108.538 Y108.116 E30.06486
G1 X108.807 Y108.034 E30.09143
G1 X109.784 Y107.772 E30.18702
G1 X109.96 Y107.708 E30.20472
G1 X110.151 Y107.596 E30.22564
G1 X110.316 Y107.45 E30.24646
G1 X110.451 Y107.275 E30.26735
G1 X110.55 Y107.085 E30.28759
G1 X110.57 Y107.019 E30.29411
G1 X110.583 Y106.979 E30.29809
G1 X110.618 Y107.012 E30.29885
G1 X110.649 Y107.042
G1 X110.83 Y107.162 E30.31394
G1 X111.035 Y107.249 E30.33499
G1 X111.251 Y107.293 E30.35582
G1 X111.464 Y107.299 E30.37595
G1 X111.683 Y107.267 E30.39687
G1 X111.892 Y107.19 E30.41792
G1 X112.083 Y107.078 E30.43884
G1 X112.25 Y106.931 E30.45987
G1 X112.382 Y106.758 E30.48043
G1 X112.482 Y106.567 E30.5008
G1 X112.502 Y106.502 E30.50723
G1 X112.515 Y106.461 E30.5113
G1 X112.55 Y106.494 E30.51211
G1 X112.583 Y106.526
G1 X112.764 Y106.645 E30.52724
G1 X112.967 Y106.731 E30.54808
G1 X113.183 Y106.775 E30.56891
G1 X113.395 Y106.781 E30.58895
G1 X113.616 Y106.75 E30.61004
G0 F4500 X113.535 Y106.433
;TYPE:WALL-OUTER
G1 F1800 X113.685 Y106.376 E30.6252
G1 X113.823 Y106.297 E30.64023
G1 X113.942 Y106.191 E30.65529
G1 X114.039 Y106.065 E30.67032
G1 X114.112 Y105.926 E30.68515
G1 X114.159 Y105.77 E30.70055
G1 X114.179 Y105.632 E30.71373
G1 X114.181 Y105.528 E30.72356
G1 X114.182 Y105.482 E30.7279
G1 X114.444 Y105.411 E30.75356
G1 X114.47 Y105.455 E30.75765
G1 X114.518 Y105.534 E30.76572
G1 X114.61 Y105.65 E30.77971
G1 X114.717 Y105.752 E30.79368
G1 X114.849 Y105.839 E30.80862
G1 X114.996 Y105.902 E30.82373
G1 X115.153 Y105.934 E30.83887
G1 X115.309 Y105.937 E30.85362
