;FLAVOR:UltiGCode
;TIME:1720
;MATERIAL:2748
;MATERIAL2:0
;NOZZLE_DIAMETER:0.4
;Generated with Cura_SteamEngine 3.6.0
M82 ;absolute extrusion mode

G92 E0
G10
;LAYER_COUNT:74
;LAYER:0
M107
G0 F4500 X86.695 Y100.462 Z0.27
;TYPE:SKIRT
G11
G1 F1800 X87.755 Y99.604 E0.12887
G1 X88.105 Y99.355 E0.16946
G1 X89.259 Y98.634 E0.29805
G1 X89.635 Y98.429 E0.33852
G1 X90.862 Y97.856 E0.46649
G1 X91.363 Y97.667 E0.51709
G1 X93.346 Y97.086 E0.71237
G1 X93.872 Y96.975 E0.76317
G1 X95.226 Y96.795 E0.89225
G1 X95.653 Y96.764 E0.9327
G1 X97.032 Y96.749 E1.06303
G1 X97.474 Y96.772 E1.10485
G1 X101.032 Y97.183 E1.44332
G1 X106.518 Y97.622 E1.9634
G1 X111.967 Y97.75 E2.47848
G1 X117.413 Y97.569 E2.99341
G1 X122.952 Y97.069 E3.51897
G1 X125.885 Y96.757 E3.7977
G1 X126.398 Y96.74 E3.84621
G1 X127.779 Y96.795 E3.97682
G1 X128.229 Y96.842 E4.01957
G1 X129.689 Y97.09 E4.15952
G1 X130.101 Y97.185 E4.19948
G1 X131.299 Y97.54 E4.31755
G1 X131.686 Y97.68 E4.35644
G1 X132.922 Y98.21 E4.48353
G1 X133.311 Y98.406 E4.52469
G1 X134.545 Y99.127 E4.65975
G1 X135.004 Y99.447 E4.71263
G1 X136.658 Y100.805 E4.91486
G1 X137.042 Y101.172 E4.96506
G1 X137.893 Y102.118 E5.08531
G1 X138.149 Y102.438 E5.12403
G1 X138.917 Y103.523 E5.24965
G1 X139.2 Y103.998 E5.3019
G1 X140.17 Y105.96 E5.50873
G1 X140.378 Y106.481 E5.56175
G1 X140.79 Y107.814 E5.69359
G1 X140.888 Y108.212 E5.73233
G1 X141.11 Y109.409 E5.84737
G1 X141.16 Y109.801 E5.88472
G1 X141.252 Y111.09 E6.00684
G1 X141.256 Y111.529 E6.04833
G1 X141.175 Y113.043 E6.1916
G1 X141.119 Y113.509 E6.23596
G1 X140.847 Y114.949 E6.37444
G1 X140.716 Y115.443 E6.42274
G1 X140.12 Y117.173 E6.59566
G1 X139.916 Y117.648 E6.64451
G1 X139.264 Y118.905 E6.77832
G1 X139.021 Y119.306 E6.82263
G1 X138.097 Y120.624 E6.97474
G1 X137.815 Y120.975 E7.01729
G1 X136.965 Y121.907 E7.13649
G1 X136.678 Y122.188 E7.17445
G1 X135.721 Y123.023 E7.29447
G1 X135.398 Y123.274 E7.33313
G1 X134.267 Y124.05 E7.46274
G1 X133.892 Y124.274 E7.50402
G1 X132.666 Y124.908 E7.63445
G1 X132.28 Y125.079 E7.67435
G1 X131.005 Y125.555 E7.80296
G1 X130.468 Y125.709 E7.85575
G1 X128.353 Y126.135 E8.05963
G1 X127.802 Y126.201 E8.11208
G1 X126.39 Y126.259 E8.24562
G1 X125.865 Y126.241 E8.29526
G1 X122.149 Y125.838 E8.64849
G1 X116.653 Y125.388 E9.1696
G1 X111.186 Y125.249 E9.68639
G1 X105.738 Y125.421 E10.20149
G1 X100.251 Y125.905 E10.72202
G1 X97.286 Y126.236 E11.00395
G1 X96.825 Y126.257 E11.04756
G1 X95.573 Y126.232 E11.1659
G1 X95.06 Y126.184 E11.21459
G1 X93.068 Y125.85 E11.40546
G1 X92.445 Y125.686 E11.46634
G1 X90.475 Y124.969 E11.66445
G1 X90.076 Y124.795 E11.70559
G1 X89.513 Y124.507 E11.76535
G1 X89.316 Y124.399 E11.78658
G1 X88.583 Y123.963 E11.86718
G1 X88.287 Y123.765 E11.90083
G1 X87.16 Y122.93 E12.03338
G1 X86.84 Y122.663 E12.07276
G1 X85.912 Y121.788 E12.19329
G1 X85.618 Y121.475 E12.23387
G1 X84.703 Y120.373 E12.36923
G1 X84.45 Y120.028 E12.40966
G1 X83.736 Y118.918 E12.53438
G1 X83.489 Y118.463 E12.58331
G1 X82.672 Y116.655 E12.7708
G1 X82.488 Y116.148 E12.82177
G1 X82.105 Y114.771 E12.95683
G1 X82.015 Y114.349 E12.99761
G1 X81.812 Y112.995 E13.12699
G1 X81.774 Y112.559 E13.16835
G1 X81.74 Y111.178 E13.29889
G1 X81.756 Y110.745 E13.33984
G1 X81.894 Y109.346 E13.47269
G1 X81.987 Y108.817 E13.52344
G1 X82.483 Y106.882 E13.71221
G1 X82.65 Y106.388 E13.76149
G1 X83.174 Y105.145 E13.88897
G1 X83.365 Y104.758 E13.92975
G1 X84.06 Y103.548 E14.06161
G1 X84.301 Y103.184 E14.10287
G1 X85.13 Y102.083 E14.23311
G1 X85.411 Y101.754 E14.274
G1 X86.378 Y100.753 E14.40552
G1 X86.695 Y100.462 E14.44618
G0 F4500 X86.915 Y100.734
G1 F1800 X87.975 Y99.876 E14.57506
G1 X88.291 Y99.651 E14.61172
G1 X89.445 Y98.93 E14.7403
G1 X89.784 Y98.746 E14.77675
G1 X91.011 Y98.173 E14.90473
G1 X91.461 Y98.003 E14.95018
G1 X93.444 Y97.422 E15.14546
G1 X93.919 Y97.322 E15.19133
G1 X95.273 Y97.142 E15.32041
G1 X95.656 Y97.114 E15.3567
G1 X97.035 Y97.099 E15.48702
G1 X97.434 Y97.12 E15.52478
G1 X100.993 Y97.531 E15.86334
G1 X106.5 Y97.972 E16.38541
G1 X111.97 Y98.1 E16.90247
G1 X117.44 Y97.918 E17.41967
G1 X122.958 Y97.42 E17.94324
G1 X125.922 Y97.105 E18.22492
G1 X126.384 Y97.09 E18.2686
G1 X127.765 Y97.145 E18.39921
G1 X128.171 Y97.187 E18.43778
G1 X129.631 Y97.435 E18.57773
G1 X130.001 Y97.521 E18.61362
G1 X131.199 Y97.876 E18.7317
G1 X131.548 Y98.002 E18.76676
G1 X132.784 Y98.532 E18.89385
G1 X133.135 Y98.709 E18.931
G1 X134.369 Y99.43 E19.06606
G1 X134.782 Y99.717 E19.11359
G1 X136.436 Y101.075 E19.31582
G1 X136.781 Y101.406 E19.361
G1 X137.632 Y102.352 E19.48125
G1 X137.863 Y102.641 E19.51621
G1 X138.631 Y103.726 E19.64183
G1 X138.886 Y104.153 E19.68883
G1 X139.856 Y106.115 E19.89566
G1 X140.043 Y106.584 E19.94337
G1 X140.455 Y107.917 E20.07522
G1 X140.544 Y108.276 E20.11017
G1 X140.766 Y109.473 E20.22522
G1 X140.811 Y109.826 E20.25885
G1 X140.903 Y111.115 E20.38097
G1 X140.906 Y111.511 E20.41839
G1 X140.825 Y113.025 E20.56167
G1 X140.775 Y113.444 E20.60155
G1 X140.503 Y114.884 E20.74003
G1 X140.385 Y115.329 E20.78354
G1 X139.789 Y117.059 E20.95645
G1 X139.605 Y117.487 E21.00048
G1 X138.953 Y118.744 E21.13429
G1 X138.735 Y119.105 E21.17415
G1 X137.811 Y120.423 E21.32626
G1 X137.557 Y120.739 E21.36457
G1 X136.707 Y121.671 E21.48377
G1 X136.448 Y121.924 E21.51799
G1 X135.491 Y122.759 E21.63801
G1 X135.2 Y122.985 E21.67283
G1 X134.069 Y123.761 E21.80244
G1 X133.731 Y123.963 E21.83965
G1 X132.505 Y124.597 E21.97009
G1 X132.157 Y124.751 E22.00605
G1 X130.882 Y125.227 E22.13466
G1 X130.399 Y125.365 E22.18213
G1 X128.284 Y125.791 E22.38601
G1 X127.787 Y125.851 E22.43332
G1 X126.375 Y125.909 E22.56686
G1 X125.903 Y125.893 E22.61149
G1 X122.177 Y125.489 E22.96566
G1 X116.674 Y125.038 E23.48744
G1 X111.184 Y124.899 E24.00641
G1 X105.731 Y125.071 E24.52198
G1 X100.181 Y125.56 E25.04848
G1 X97.247 Y125.888 E25.32747
G1 X96.832 Y125.907 E25.36673
G1 X95.58 Y125.882 E25.48507
G1 X95.118 Y125.839 E25.52892
G1 X93.126 Y125.505 E25.71979
G1 X92.565 Y125.358 E25.77459
G1 X90.595 Y124.641 E25.97271
G1 X90.235 Y124.484 E26.00982
G1 X89.672 Y124.196 E26.06958
G1 X89.495 Y124.098 E26.0887
G1 X88.762 Y123.662 E26.1693
G1 X88.495 Y123.484 E26.19962
G1 X87.368 Y122.649 E26.33217
G1 X87.08 Y122.408 E26.36766
G1 X86.152 Y121.533 E26.48819
G1 X85.887 Y121.251 E26.52476
G1 X84.972 Y120.149 E26.66011
G1 X84.745 Y119.839 E26.69642
G1 X84.031 Y118.729 E26.82115
G1 X83.808 Y118.318 E26.86533
G1 X82.991 Y116.51 E27.05282
G1 X82.825 Y116.054 E27.09868
G1 X82.442 Y114.677 E27.23375
G1 X82.361 Y114.297 E27.27047
G1 X82.158 Y112.943 E27.39985
G1 X82.124 Y112.55 E27.43713
G1 X82.09 Y111.169 E27.56767
G1 X82.104 Y110.779 E27.60455
G1 X82.242 Y109.38 E27.7374
G1 X82.326 Y108.904 E27.78307
G1 X82.822 Y106.969 E27.97184
G1 X82.972 Y106.524 E28.01622
G1 X83.496 Y105.281 E28.14369
G1 X83.669 Y104.933 E28.18042
G1 X84.364 Y103.723 E28.31228
G1 X84.581 Y103.394 E28.34953
G1 X85.41 Y102.293 E28.47977
G1 X85.662 Y101.997 E28.5165
G1 X86.629 Y100.996 E28.64803
G1 X86.915 Y100.734 E28.68468
G10
;MESH:Cap_Open.stl
G0 F4500 X88.017 Y103.085
G0 X88.874 Y103.98
G0 X88.186 Y111.359
G0 X88.245 Y112.5
G0 X88.463 Y113.627
G0 X88.831 Y114.713
G0 X89.347 Y115.738
G0 X89.998 Y116.682
G0 X90.774 Y117.528
G0 X91.661 Y118.26
G0 X92.636 Y118.86
G0 X93.685 Y119.322
G0 X94.309 Y119.498
G0 X97.092 Y120.103
;TYPE:WALL-INNER
G11
G1 F1800 X97.685 Y120.041 E28.74103
G1 X98.27 Y119.939 E28.79714
G1 X98.848 Y119.797 E28.85339
G1 X99.416 Y119.614 E28.90978
G1 X99.968 Y119.393 E28.96597
G1 X100.504 Y119.135 E29.02218
G1 X101.022 Y118.84 E29.07852
G1 X101.515 Y118.513 E29.13442
G1 X101.989 Y118.149 E29.1909
G1 X102.435 Y117.753 E29.24726
G1 X102.853 Y117.329 E29.30353
G1 X103.239 Y116.876 E29.35977
G1 X103.594 Y116.398 E29.41604
G1 X103.915 Y115.897 E29.47226
G1 X104.202 Y115.374 E29.52864
G1 X104.45 Y114.833 E29.58488
G1 X104.661 Y114.278 E29.64099
G1 X104.828 Y113.719 E29.69612
G1 X104.832 Y113.708 E29.69723
G1 X104.966 Y113.129 E29.75339
G1 X105.059 Y112.538 E29.80993
G1 X105.11 Y111.945 E29.86617
G1 X105.119 Y111.351 E29.92231
G1 X105.088 Y110.758 E29.97843
G1 X105.017 Y110.167 E30.03468
G1 X104.904 Y109.581 E30.09108
G1 X104.752 Y109.006 E30.14728
G1 X104.56 Y108.443 E30.20349
G1 X104.33 Y107.893 E30.25983
G1 X104.062 Y107.362 E30.31604
G1 X103.76 Y106.85 E30.37221
G1 X103.421 Y106.36 E30.42852
G1 X103.049 Y105.895 E30.48479
G1 X102.647 Y105.456 E30.54104
G1 X102.215 Y105.046 E30.59732
G1 X101.756 Y104.666 E30.65364
G1 X101.272 Y104.319 E30.70991
G1 X100.765 Y104.007 E30.76617
G1 X100.238 Y103.73 E30.82243
G1 X99.693 Y103.491 E30.87867
G1 X99.145 Y103.294 E30.9337
G1 X99.133 Y103.289 E30.93493
G1 X98.56 Y103.127 E30.9912
G1 X97.977 Y103.005 E31.04749
G1 X97.388 Y102.924 E31.10367
G1 X96.794 Y102.882 E31.15994
G1 X96.201 Y102.882 E31.21598
G1 X95.606 Y102.924 E31.27235
G1 X95.017 Y103.005 E31.32853
G1 X94.435 Y103.127 E31.38473
G1 X93.862 Y103.289 E31.441
G1 X93.301 Y103.491 E31.49735
G1 X92.757 Y103.73 E31.5535
G1 X92.23 Y104.007 E31.60976
G1 X91.723 Y104.319 E31.66602
G1 X91.239 Y104.665 E31.72224
G1 X90.779 Y105.046 E31.77868
G1 X90.347 Y105.456 E31.83497
G1 X89.945 Y105.895 E31.89122
G1 X89.574 Y106.36 E31.94743
G1 X89.236 Y106.849 E32.00361
G1 X88.932 Y107.362 E32.05996
G1 X88.665 Y107.894 E32.11621
G1 X88.435 Y108.443 E32.17246
G1 X88.243 Y109.006 E32.22867
G1 X88.091 Y109.58 E32.28478
G1 X87.977 Y110.164 E32.34101
G1 X87.905 Y110.757 E32.39746
G1 X87.875 Y111.353 E32.45386
G1 X87.885 Y111.945 E32.50981
G1 X87.936 Y112.538 E32.56605
G1 X88.029 Y113.129 E32.62259
G1 X88.163 Y113.707 E32.67866
G1 X88.333 Y114.275 E32.73469
G1 X88.544 Y114.833 E32.79106
G1 X88.793 Y115.373 E32.84726
G1 X89.08 Y115.896 E32.90363
G1 X89.4 Y116.397 E32.95981
G1 X89.755 Y116.876 E33.01615
G1 X90.143 Y117.329 E33.07252
G1 X90.56 Y117.753 E33.12872
G1 X91.006 Y118.148 E33.18502
G1 X91.48 Y118.513 E33.24155
G1 X91.973 Y118.84 E33.29746
G1 X92.491 Y119.135 E33.35379
G1 X93.027 Y119.393 E33.41
G1 X93.579 Y119.614 E33.46619
G1 X94.146 Y119.797 E33.5225
G1 X94.724 Y119.939 E33.57874
G1 X95.31 Y120.041 E33.63495
G1 X95.891 Y120.101 E33.69015
G1 X95.903 Y120.103 E33.6913
G1 X96.497 Y120.123 E33.74746
G1 X97.092 Y120.103 E33.80372
G0 F4500 X97.068 Y119.754
G1 F1800 X97.636 Y119.694 E33.8577
G1 X98.198 Y119.596 E33.91161
G1 X98.753 Y119.46 E33.96561
G1 X99.297 Y119.285 E34.01961
G1 X99.827 Y119.073 E34.07355
G1 X100.341 Y118.825 E34.12748
G1 X100.838 Y118.542 E34.18153
G1 X101.311 Y118.228 E34.23518
G1 X101.766 Y117.879 E34.28937
G1 X102.194 Y117.499 E34.34346
G1 X102.595 Y117.092 E34.39745
G1 X102.965 Y116.658 E34.45135
G1 X103.306 Y116.199 E34.50538
G1 X103.614 Y115.718 E34.55936
G1 X103.889 Y115.217 E34.61336
G1 X104.127 Y114.698 E34.66732
G1 X104.329 Y114.165 E34.72118
G1 X104.494 Y113.618 E34.77518
G1 X104.622 Y113.062 E34.82909
G1 X104.711 Y112.496 E34.88324
G1 X104.76 Y111.927 E34.93721
G1 X104.769 Y111.357 E34.99108
G1 X104.739 Y110.788 E35.04492
G1 X104.671 Y110.221 E35.09889
G1 X104.563 Y109.659 E35.15297
G1 X104.417 Y109.107 E35.20693
G1 X104.233 Y108.567 E35.26084
G1 X104.012 Y108.04 E35.31484
G1 X103.755 Y107.53 E35.36881
G1 X103.465 Y107.039 E35.4227
G1 X103.14 Y106.569 E35.4767
G1 X102.783 Y106.123 E35.53068
G1 X102.397 Y105.701 E35.58473
G1 X101.983 Y105.308 E35.63867
G1 X101.542 Y104.943 E35.69277
G1 X101.078 Y104.611 E35.74669
G1 X100.592 Y104.311 E35.80066
G1 X100.086 Y104.046 E35.85464
G1 X99.563 Y103.816 E35.90863
G1 X99.026 Y103.622 E35.96258
G1 X98.477 Y103.467 E36.01649
G1 X97.917 Y103.35 E36.07056
G1 X97.352 Y103.272 E36.12445
G1 X96.782 Y103.232 E36.17845
G1 X96.213 Y103.232 E36.23222
G1 X95.642 Y103.272 E36.28631
G1 X95.077 Y103.35 E36.34021
G1 X94.518 Y103.467 E36.39418
G1 X93.969 Y103.622 E36.44809
G1 X93.431 Y103.816 E36.50214
G1 X92.909 Y104.046 E36.55604
G1 X92.403 Y104.311 E36.61002
G1 X91.917 Y104.611 E36.66399
G1 X91.453 Y104.943 E36.71791
G1 X91.011 Y105.308 E36.77208
G1 X90.597 Y105.701 E36.82602
G1 X90.211 Y106.123 E36.88007
G1 X89.855 Y106.569 E36.93399
G1 X89.531 Y107.038 E36.98786
G1 X89.239 Y107.53 E37.04193
G1 X88.983 Y108.04 E37.09585
G1 X88.762 Y108.567 E37.14986
G1 X88.578 Y109.107 E37.20377
G1 X88.432 Y109.658 E37.25764
G1 X88.323 Y110.219 E37.31164
G1 X88.254 Y110.787 E37.36571
G1 X88.225 Y111.359 E37.41984
G1 X88.235 Y111.927 E37.47352
G1 X88.284 Y112.496 E37.52749
G1 X88.373 Y113.062 E37.58163
G1 X88.501 Y113.617 E37.63546
G1 X88.665 Y114.163 E37.68933
G1 X88.867 Y114.698 E37.74337
G1 X89.106 Y115.215 E37.7972
G1 X89.381 Y115.718 E37.85137
G1 X89.688 Y116.198 E37.90522
G1 X90.029 Y116.658 E37.95933
G1 X90.401 Y117.092 E38.01334
G1 X90.801 Y117.499 E38.06727
G1 X91.229 Y117.878 E38.1213
G1 X91.684 Y118.228 E38.17554
G1 X92.157 Y118.542 E38.22919
G1 X92.654 Y118.825 E38.28324
G1 X93.168 Y119.073 E38.33717
G1 X93.698 Y119.285 E38.39112
G1 X94.241 Y119.46 E38.44503
G1 X94.796 Y119.596 E38.49903
G1 X95.358 Y119.694 E38.55294
G1 X95.927 Y119.754 E38.60701
G1 X96.497 Y119.773 E38.6609
G1 X97.068 Y119.754 E38.71489
G0 F4500 X97.045 Y119.43
;TYPE:WALL-OUTER
G1 F1800 X97.591 Y119.372 E38.76678
G1 X98.131 Y119.278 E38.81857
G1 X98.664 Y119.147 E38.87044
G1 X99.187 Y118.979 E38.92235
G1 X99.696 Y118.775 E38.97417
G1 X100.19 Y118.537 E39.02599
G1 X100.667 Y118.265 E39.07788
G1 X101.122 Y117.963 E39.12949
G1 X101.559 Y117.628 E39.18152
G1 X101.97 Y117.263 E39.23347
G1 X102.355 Y116.872 E39.28532
G1 X102.711 Y116.455 E39.33714
G1 X103.038 Y116.014 E39.38902
G1 X103.334 Y115.552 E39.44087
G1 X103.598 Y115.071 E39.49272
G1 X103.827 Y114.572 E39.5446
G1 X104.021 Y114.06 E39.59634
G1 X104.18 Y113.534 E39.64827
G1 X104.303 Y113 E39.70006
G1 X104.388 Y112.457 E39.752
G1 X104.435 Y111.91 E39.80388
G1 X104.444 Y111.363 E39.85558
G1 X104.415 Y110.816 E39.90734
G1 X104.35 Y110.271 E39.95921
G1 X104.246 Y109.731 E40.01118
G1 X104.106 Y109.201 E40.06298
G1 X103.929 Y108.682 E40.1148
G1 X103.717 Y108.176 E40.16664
G1 X103.47 Y107.686 E40.2185
G1 X103.191 Y107.214 E40.27031
G1 X102.879 Y106.763 E40.32213
G1 X102.536 Y106.334 E40.37404
G1 X102.165 Y105.929 E40.42594
G1 X101.767 Y105.551 E40.47781
G1 X101.344 Y105.201 E40.5297
G1 X100.898 Y104.882 E40.58152
G1 X100.431 Y104.594 E40.63336
G1 X99.945 Y104.339 E40.68523
G1 X99.442 Y104.118 E40.73715
G1 X98.927 Y103.932 E40.78889
G1 X98.399 Y103.783 E40.84074
G1 X97.861 Y103.67 E40.89269
G1 X97.318 Y103.595 E40.94449
G1 X96.771 Y103.557 E40.9963
G1 X96.224 Y103.557 E41.048
G1 X95.676 Y103.595 E41.09991
G1 X95.133 Y103.67 E41.15171
G1 X94.596 Y103.783 E41.20356
G1 X94.068 Y103.932 E41.25541
G1 X93.552 Y104.118 E41.30724
G1 X93.05 Y104.339 E41.35908
G1 X92.564 Y104.594 E41.41094
G1 X92.097 Y104.882 E41.46279
G1 X91.651 Y105.201 E41.51461
G1 X91.227 Y105.551 E41.56656
G1 X90.829 Y105.929 E41.61843
G1 X90.458 Y106.334 E41.67034
G1 X90.116 Y106.763 E41.72218
G1 X89.805 Y107.214 E41.77395
G1 X89.524 Y107.686 E41.82586
G1 X89.278 Y108.176 E41.87768
G1 X89.066 Y108.682 E41.92952
G1 X88.889 Y109.201 E41.98134
G1 X88.749 Y109.731 E42.03314
G1 X88.644 Y110.27 E42.08504
G1 X88.578 Y110.815 E42.13691
G1 X88.55 Y111.364 E42.18886
G1 X88.56 Y111.91 E42.24047
G1 X88.607 Y112.457 E42.29235
G1 X88.692 Y113 E42.34429
G1 X88.815 Y113.534 E42.39607
G1 X88.973 Y114.059 E42.44788
G1 X89.167 Y114.572 E42.49971
G1 X89.396 Y115.069 E42.55143
G1 X89.661 Y115.552 E42.60349
G1 X89.956 Y116.014 E42.65529
G1 X90.283 Y116.455 E42.70717
G1 X90.641 Y116.872 E42.75911
G1 X91.025 Y117.263 E42.81089
G1 X91.436 Y117.627 E42.86278
G1 X91.873 Y117.963 E42.91487
G1 X92.328 Y118.265 E42.96648
G1 X92.805 Y118.537 E43.01837
G1 X93.299 Y118.775 E43.07018
G1 X93.808 Y118.979 E43.122
G1 X94.33 Y119.147 E43.17382
G1 X94.863 Y119.278 E43.22569
G1 X95.403 Y119.372 E43.27749
G1 X95.95 Y119.43 E43.32947
G1 X96.497 Y119.448 E43.38119
G1 X97.045 Y119.43 E43.433
G0 F4500 X97.243 Y119.409
G0 X97.282 Y119.791
G0 X97.284 Y119.832
G0 X99.292 Y121.493
;TYPE:WALL-INNER
G1 F1800 X98.699 Y121.639 E43.49072
G1 X98.072 Y121.754 E43.55096
G1 X97.427 Y121.834 E43.61238
G1 X96.814 Y121.871 E43.67041
G1 X96.17 Y121.871 E43.73127
G1 X95.535 Y121.832 E43.79139
G1 X94.931 Y121.756 E43.84892
G1 X94.285 Y121.637 E43.91099
G1 X93.694 Y121.491 E43.96852
