;FLAVOR:UltiGCode
;TIME:1474
;MATERIAL:2293
;MATERIAL2:0
;NOZZLE_DIAMETER:0.4
;Generated with Cura_SteamEngine 3.6.0
M82 ;absolute extrusion mode

G92 E0
G10
;LAYER_COUNT:74
;LAYER:0
M107
G0 F4500 X86.695 Y100.462 Z0.27
;TYPE:SKIRT
G11
G1 F1800 X87.755 Y99.604 E0.12887
G1 X88.105 Y99.355 E0.16946
G1 X89.259 Y98.634 E0.29805
G1 X89.635 Y98.429 E0.33852
G1 X90.862 Y97.856 E0.46649
G1 X91.363 Y97.667 E0.51709
G1 X93.346 Y97.086 E0.71237
G1 X93.872 Y96.975 E0.76317
G1 X95.226 Y96.795 E0.89225
G1 X95.653 Y96.764 E0.9327
G1 X97.032 Y96.749 E1.06303
G1 X97.474 Y96.772 E1.10485
G1 X101.032 Y97.183 E1.44332
G1 X106.518 Y97.622 E1.9634
G1 X111.967 Y97.75 E2.47848
G1 X117.413 Y97.569 E2.99341
G1 X122.952 Y97.069 E3.51897
G1 X125.885 Y96.757 E3.7977
G1 X126.398 Y96.74 E3.84621
G1 X127.779 Y96.795 E3.97682
G1 X128.229 Y96.842 E4.01957
G1 X129.689 Y97.09 E4.15952
G1 X130.101 Y97.185 E4.19948
G1 X131.299 Y97.54 E4.31755
G1 X131.686 Y97.68 E4.35644
G1 X132.922 Y98.21 E4.48353
G1 X133.311 Y98.406 E4.52469
G1 X134.545 Y99.127 E4.65975
G1 X135.004 Y99.447 E4.71263
G1 X136.658 Y100.805 E4.91486
G1 X137.042 Y101.172 E4.96506
G1 X137.893 Y102.118 E5.08531
G1 X138.149 Y102.438 E5.12403
G1 X138.917 Y103.523 E5.24965
G1 X139.2 Y103.998 E5.3019
G1 X140.17 Y105.96 E5.50873
G1 X140.378 Y106.481 E5.56175
G1 X140.79 Y107.814 E5.69359
G1 X140.888 Y108.212 E5.73233
G1 X141.11 Y109.409 E5.84737
G1 X141.16 Y109.801 E5.88472
G1 X141.252 Y111.09 E6.00684
G1 X141.256 Y111.529 E6.04833
G1 X141.175 Y113.043 E6.1916
G1 X141.119 Y113.509 E6.23596
G1 X140.847 Y114.949 E6.37444
G1 X140.716 Y115.443 E6.42274
G1 X140.12 Y117.173 E6.59566
G1 X139.916 Y117.648 E6.64451
G1 X139.264 Y118.905 E6.77832
G1 X139.021 Y119.306 E6.82263
G1 X138.097 Y120.624 E6.97474
G1 X137.815 Y120.975 E7.01729
G1 X136.965 Y121.907 E7.13649
G1 X136.678 Y122.188 E7.17445
G1 X135.721 Y123.023 E7.29447
G1 X135.398 Y123.274 E7.33313
G1 X134.267 Y124.05 E7.46274
G1 X133.892 Y124.274 E7.50402
G1 X132.666 Y124.908 E7.63445
G1 X132.28 Y125.079 E7.67435
G1 X131.005 Y125.555 E7.80296
G1 X130.468 Y125.709 E7.85575
G1 X128.353 Y126.135 E8.05963
G1 X127.802 Y126.201 E8.11208
G1 X126.39 Y126.259 E8.24562
G1 X125.865 Y126.241 E8.29526
G1 X122.149 Y125.838 E8.64849
G1 X116.653 Y125.388 E9.1696
G1 X111.186 Y125.249 E9.68639
G1 X105.738 Y125.421 E10.20149
G1 X100.251 Y125.905 E10.72202
G1 X97.286 Y126.236 E11.00395
G1 X96.825 Y126.257 E11.04756
G1 X95.573 Y126.232 E11.1659
G1 X95.06 Y126.184 E11.21459
G1 X93.068 Y125.85 E11.40546
G1 X92.445 Y125.686 E11.46634
G1 X90.475 Y124.969 E11.66445
G1 X90.076 Y124.795 E11.70559
G1 X89.513 Y124.507 E11.76535
G1 X89.316 Y124.399 E11.78658
G1 X88.583 Y123.963 E11.86718
G1 X88.287 Y123.765 E11.90083
G1 X87.16 Y122.93 E12.03338
G1 X86.84 Y122.663 E12.07276
G1 X85.912 Y121.788 E12.19329
G1 X85.618 Y121.475 E12.23387
G1 X84.703 Y120.373 E12.36923
G1 X84.45 Y120.028 E12.40966
G1 X83.736 Y118.918 E12.53438
G1 X83.489 Y118.463 E12.58331
G1 X82.672 Y116.655 E12.7708
G1 X82.488 Y116.148 E12.82177
G1 X82.105 Y114.771 E12.95683
G1 X82.015 Y114.349 E12.99761
G1 X81.812 Y112.995 E13.12699
G1 X81.774 Y112.559 E13.16835
G1 X81.74 Y111.178 E13.29889
G1 X81.756 Y110.745 E13.33984
G1 X81.894 Y109.346 E13.47269
G1 X81.987 Y108.817 E13.52344
G1 X82.483 Y106.882 E13.71221
G1 X82.65 Y106.388 E13.76149
G1 X83.174 Y105.145 E13.88897
G1 X83.365 Y104.758 E13.92975
G1 X84.06 Y103.548 E14.06161
G1 X84.301 Y103.184 E14.10287
G1 X85.13 Y102.083 E14.23311
G1 X85.411 Y101.754 E14.274
G1 X86.378 Y100.753 E14.40552
G1 X86.695 Y100.462 E14.44618
G0 F4500 X86.915 Y100.734
G1 F1800 X87.975 Y99.876 E14.57506
G1 X88.291 Y99.651 E14.61172
G1 X89.445 Y98.93 E14.7403
G1 X89.784 Y98.746 E14.77675
G1 X91.011 Y98.173 E14.90473
G1 X91.461 Y98.003 E14.95018
G1 X93.444 Y97.422 E15.14546
G1 X93.919 Y97.322 E15.19133
G1 X95.273 Y97.142 E15.32041
G1 X95.656 Y97.114 E15.3567
G1 X97.035 Y97.099 E15.48702
G1 X97.434 Y97.12 E15.52478
G1 X100.993 Y97.531 E15.86334
G1 X106.5 Y97.972 E16.38541
G1 X111.97 Y98.1 E16.90247
G1 X117.44 Y97.918 E17.41967
G1 X122.958 Y97.42 E17.94324
G1 X125.922 Y97.105 E18.22492
G1 X126.384 Y97.09 E18.2686
G1 X127.765 Y97.145 E18.39921
G1 X128.171 Y97.187 E18.43778
G1 X129.631 Y97.435 E18.57773
G1 X130.001 Y97.521 E18.61362
G1 X131.199 Y97.876 E18.7317
G1 X131.548 Y98.002 E18.76676
G1 X132.784 Y98.532 E18.89385
G1 X133.135 Y98.709 E18.931
G1 X134.369 Y99.43 E19.06606
G1 X134.782 Y99.717 E19.11359
G1 X136.436 Y101.075 E19.31582
G1 X136.781 Y101.406 E19.361
G1 X137.632 Y102.352 E19.48125
G1 X137.863 Y102.641 E19.51621
G1 X138.631 Y103.726 E19.64183
G1 X138.886 Y104.153 E19.68883
G1 X139.856 Y106.115 E19.89566
G1 X140.043 Y106.584 E19.94337
G1 X140.455 Y107.917 E20.07522
G1 X140.544 Y108.276 E20.11017
G1 X140.766 Y109.473 E20.22522
G1 X140.811 Y109.826 E20.25885
G1 X140.903 Y111.115 E20.38097
G1 X140.906 Y111.511 E20.41839
G1 X140.825 Y113.025 E20.56167
G1 X140.775 Y113.444 E20.60155
G1 X140.503 Y114.884 E20.74003
G1 X140.385 Y115.329 E20.78354
G1 X139.789 Y117.059 E20.95645
G1 X139.605 Y117.487 E21.00048
G1 X138.953 Y118.744 E21.13429
G1 X138.735 Y119.105 E21.17415
G1 X137.811 Y120.423 E21.32626
G1 X137.557 Y120.739 E21.36457
G1 X136.707 Y121.671 E21.48377
G1 X136.448 Y121.924 E21.51799
G1 X135.491 Y122.759 E21.63801
G1 X135.2 Y122.985 E21.67283
G1 X134.069 Y123.761 E21.80244
G1 X133.731 Y123.963 E21.83965
G1 X132.505 Y124.597 E21.97009
G1 X132.157 Y124.751 E22.00605
G1 X130.882 Y125.227 E22.13466
G1 X130.399 Y125.365 E22.18213
G1 X128.284 Y125.791 E22.38601
G1 X127.787 Y125.851 E22.43332
G1 X126.375 Y125.909 E22.56686
G1 X125.903 Y125.893 E22.61149
G1 X122.177 Y125.489 E22.96566
G1 X116.674 Y125.038 E23.48744
G1 X111.184 Y124.899 E24.00641
G1 X105.731 Y125.071 E24.52198
G1 X100.181 Y125.56 E25.04848
G1 X97.247 Y125.888 E25.32747
G1 X96.832 Y125.907 E25.36673
G1 X95.58 Y125.882 E25.48507
G1 X95.118 Y125.839 E25.52892
G1 X93.126 Y125.505 E25.71979
G1 X92.565 Y125.358 E25.77459
G1 X90.595 Y124.641 E25.97271
G1 X90.235 Y124.484 E26.00982
G1 X89.672 Y124.196 E26.06958
G1 X89.495 Y124.098 E26.0887
G1 X88.762 Y123.662 E26.1693
G1 X88.495 Y123.484 E26.19962
G1 X87.368 Y122.649 E26.33217
G1 X87.08 Y122.408 E26.36766
G1 X86.152 Y121.533 E26.48819
G1 X85.887 Y121.251 E26.52476
G1 X84.972 Y120.149 E26.66011
G1 X84.745 Y119.839 E26.69642
G1 X84.031 Y118.729 E26.82115
G1 X83.808 Y118.318 E26.86533
G1 X82.991 Y116.51 E27.05282
G1 X82.825 Y116.054 E27.09868
G1 X82.442 Y114.677 E27.23375
G1 X82.361 Y114.297 E27.27047
G1 X82.158 Y112.943 E27.39985
G1 X82.124 Y112.55 E27.43713
G1 X82.09 Y111.169 E27.56767
G1 X82.104 Y110.779 E27.60455
G1 X82.242 Y109.38 E27.7374
G1 X82.326 Y108.904 E27.78307
G1 X82.822 Y106.969 E27.97184
G1 X82.972 Y106.524 E28.01622
G1 X83.496 Y105.281 E28.14369
G1 X83.669 Y104.933 E28.18042
G1 X84.364 Y103.723 E28.31228
G1 X84.581 Y103.394 E28.34953
G1 X85.41 Y102.293 E28.47977
G1 X85.662 Y101.997 E28.5165
G1 X86.629 Y100.996 E28.64803
G1 X86.915 Y100.734 E28.68468
G10
;MESH:Object 2
G0 F4500 X88.017 Y103.085
G0 X88.874 Y103.98
G0 X88.186 Y111.359
G0 X88.245 Y112.5
G0 X88.463 Y113.627
G0 X88.831 Y114.713
G0 X89.347 Y115.738
G0 X89.998 Y116.682
G0 X90.774 Y117.528
G0 X91.661 Y118.26
G0 X92.636 Y118.86
G0 X93.685 Y119.322
G0 X94.788 Y119.635
G0 X95.432 Y119.723
G0 X97.074 Y119.853
G0 X97.068 Y119.754
;TYPE:WALL-INNER
G11
G1 F1800 X97.636 Y119.694 E28.73866
G1 X98.198 Y119.596 E28.79257
G1 X98.753 Y119.46 E28.84657
G1 X99.297 Y119.285 E28.90057
G1 X99.827 Y119.073 E28.95451
G1 X100.341 Y118.825 E29.00844
G1 X100.838 Y118.542 E29.06249
G1 X101.311 Y118.228 E29.11614
G1 X101.766 Y117.879 E29.17033
G1 X102.194 Y117.499 E29.22442
G1 X102.595 Y117.092 E29.27841
G1 X102.965 Y116.658 E29.33231
G1 X103.306 Y116.199 E29.38634
G1 X103.614 Y115.718 E29.44032
G1 X103.889 Y115.217 E29.49432
G1 X104.127 Y114.698 E29.54828
G1 X104.329 Y114.165 E29.60214
G1 X104.494 Y113.618 E29.65614
G1 X104.622 Y113.062 E29.71005
G1 X104.711 Y112.496 E29.7642
G1 X104.76 Y111.927 E29.81817
G1 X104.769 Y111.357 E29.87204
G1 X104.739 Y110.788 E29.92588
G1 X104.671 Y110.221 E29.97985
G1 X104.563 Y109.659 E30.03393
G1 X104.417 Y109.107 E30.08789
G1 X104.233 Y108.567 E30.1418
G1 X104.012 Y108.04 E30.1958
G1 X103.755 Y107.53 E30.24977
G1 X103.465 Y107.039 E30.30366
G1 X103.14 Y106.569 E30.35766
G1 X102.783 Y106.123 E30.41164
G1 X102.397 Y105.701 E30.46569
G1 X101.983 Y105.308 E30.51963
G1 X101.542 Y104.943 E30.57373
G1 X101.078 Y104.611 E30.62765
G1 X100.592 Y104.311 E30.68162
G1 X100.086 Y104.046 E30.7356
G1 X99.563 Y103.816 E30.78959
G1 X99.026 Y103.622 E30.84355
G1 X98.477 Y103.467 E30.89745
G1 X97.917 Y103.35 E30.95152
G1 X97.352 Y103.272 E31.00542
G1 X96.782 Y103.232 E31.05941
G1 X96.213 Y103.232 E31.11318
G1 X95.642 Y103.272 E31.16727
G1 X95.077 Y103.35 E31.22117
G1 X94.518 Y103.467 E31.27514
G1 X93.969 Y103.622 E31.32905
G1 X93.431 Y103.816 E31.3831
G1 X92.909 Y104.046 E31.437
G1 X92.403 Y104.311 E31.49098
G1 X91.917 Y104.611 E31.54495
G1 X91.453 Y104.943 E31.59887
G1 X91.011 Y105.308 E31.65304
G1 X90.597 Y105.701 E31.70698
G1 X90.211 Y106.123 E31.76103
G1 X89.855 Y106.569 E31.81496
G1 X89.531 Y107.038 E31.86882
G1 X89.239 Y107.53 E31.92289
G1 X88.983 Y108.04 E31.97682
G1 X88.762 Y108.567 E32.03082
G1 X88.578 Y109.107 E32.08473
G1 X88.432 Y109.658 E32.1386
G1 X88.323 Y110.219 E32.1926
G1 X88.254 Y110.787 E32.24667
G1 X88.225 Y111.359 E32.3008
G1 X88.235 Y111.927 E32.35448
G1 X88.284 Y112.496 E32.40845
G1 X88.373 Y113.062 E32.46259
G1 X88.501 Y113.617 E32.51642
G1 X88.665 Y114.163 E32.57029
G1 X88.867 Y114.698 E32.62433
G1 X89.106 Y115.215 E32.67816
G1 X89.381 Y115.718 E32.73233
G1 X89.688 Y116.198 E32.78618
G1 X90.029 Y116.658 E32.84029
G1 X90.401 Y117.092 E32.8943
G1 X90.801 Y117.499 E32.94823
G1 X91.229 Y117.878 E33.00226
G1 X91.684 Y118.228 E33.0565
G1 X92.157 Y118.542 E33.11015
G1 X92.654 Y118.825 E33.1642
G1 X93.168 Y119.073 E33.21813
G1 X93.698 Y119.285 E33.27208
G1 X94.241 Y119.46 E33.32599
G1 X94.796 Y119.596 E33.37999
G1 X95.358 Y119.694 E33.4339
G1 X95.927 Y119.754 E33.48797
G1 X96.497 Y119.773 E33.54186
G1 X97.068 Y119.754 E33.59585
G0 F4500 X97.045 Y119.43
;TYPE:WALL-OUTER
G1 F1800 X97.591 Y119.372 E33.64774
G1 X98.131 Y119.278 E33.69954
G1 X98.664 Y119.147 E33.7514
G1 X99.187 Y118.979 E33.80331
G1 X99.696 Y118.775 E33.85513
G1 X100.19 Y118.537 E33.90695
G1 X100.667 Y118.265 E33.95884
G1 X101.122 Y117.963 E34.01045
G1 X101.559 Y117.628 E34.06248
G1 X101.97 Y117.263 E34.11443
G1 X102.355 Y116.872 E34.16628
G1 X102.711 Y116.455 E34.2181
G1 X103.038 Y116.014 E34.26998
G1 X103.334 Y115.552 E34.32183
G1 X103.598 Y115.071 E34.37368
G1 X103.827 Y114.572 E34.42556
G1 X104.021 Y114.06 E34.47731
G1 X104.18 Y113.534 E34.52923
G1 X104.303 Y113 E34.58102
G1 X104.388 Y112.457 E34.63296
G1 X104.435 Y111.91 E34.68484
G1 X104.444 Y111.363 E34.73654
G1 X104.415 Y110.816 E34.7883
G1 X104.35 Y110.271 E34.84017
G1 X104.246 Y109.731 E34.89214
G1 X104.106 Y109.201 E34.94394
G1 X103.929 Y108.682 E34.99576
G1 X103.717 Y108.176 E35.0476
G1 X103.47 Y107.686 E35.09946
G1 X103.191 Y107.214 E35.15127
G1 X102.879 Y106.763 E35.2031
G1 X102.536 Y106.334 E35.255
G1 X102.165 Y105.929 E35.3069
G1 X101.767 Y105.551 E35.35877
G1 X101.344 Y105.201 E35.41066
G1 X100.898 Y104.882 E35.46248
G1 X100.431 Y104.594 E35.51432
G1 X99.945 Y104.339 E35.56619
G1 X99.442 Y104.118 E35.61811
G1 X98.927 Y103.932 E35.66985
G1 X98.399 Y103.783 E35.7217
G1 X97.861 Y103.67 E35.77365
G1 X97.318 Y103.595 E35.82545
G1 X96.771 Y103.557 E35.87727
G1 X96.224 Y103.557 E35.92896
G1 X95.676 Y103.595 E35.98087
G1 X95.133 Y103.67 E36.03267
G1 X94.596 Y103.783 E36.08453
G1 X94.068 Y103.932 E36.13637
G1 X93.552 Y104.118 E36.1882
G1 X93.05 Y104.339 E36.24004
G1 X92.564 Y104.594 E36.2919
G1 X92.097 Y104.882 E36.34375
G1 X91.651 Y105.201 E36.39557
G1 X91.227 Y105.551 E36.44752
G1 X90.829 Y105.929 E36.49939
G1 X90.458 Y106.334 E36.5513
G1 X90.116 Y106.763 E36.60314
G1 X89.805 Y107.214 E36.65491
G1 X89.524 Y107.686 E36.70682
G1 X89.278 Y108.176 E36.75864
G1 X89.066 Y108.682 E36.81048
G1 X88.889 Y109.201 E36.8623
G1 X88.749 Y109.731 E36.9141
G1 X88.644 Y110.27 E36.966
G1 X88.578 Y110.815 E37.01788
G1 X88.55 Y111.364 E37.06982
G1 X88.56 Y111.91 E37.12143
G1 X88.607 Y112.457 E37.17331
G1 X88.692 Y113 E37.22525
G1 X88.815 Y113.534 E37.27703
G1 X88.973 Y114.059 E37.32884
G1 X89.167 Y114.572 E37.38067
G1 X89.396 Y115.069 E37.43239
G1 X89.661 Y115.552 E37.48445
G1 X89.956 Y116.014 E37.53625
G1 X90.283 Y116.455 E37.58813
G1 X90.641 Y116.872 E37.64007
G1 X91.025 Y117.263 E37.69186
G1 X91.436 Y117.627 E37.74374
G1 X91.873 Y117.963 E37.79583
G1 X92.328 Y118.265 E37.84744
G1 X92.805 Y118.537 E37.89933
G1 X93.299 Y118.775 E37.95114
G1 X93.808 Y118.979 E38.00296
G1 X94.33 Y119.147 E38.05479
G1 X94.863 Y119.278 E38.10665
G1 X95.403 Y119.372 E38.15845
G1 X95.95 Y119.43 E38.21043
G1 X96.497 Y119.448 E38.26215
G1 X97.045 Y119.43 E38.31396
G0 F4500 X97.243 Y119.409
G0 X97.282 Y119.791
G0 X97.284 Y119.832
G0 X99.358 Y121.735
G0 X99.385 Y121.831
;TYPE:WALL-INNER
G1 F1800 X98.781 Y121.98 E38.37275
G1 X98.126 Y122.1 E38.43568
G1 X97.459 Y122.182 E38.49919
G1 X96.819 Y122.221 E38.55978
G1 X96.164 Y122.221 E38.62168
G1 X95.503 Y122.18 E38.68426
G1 X94.877 Y122.102 E38.74388
G1 X94.203 Y121.978 E38.80864
G1 X93.596 Y121.827 E38.86775
G1 X92.958 Y121.625 E38.93099
G1 X92.352 Y121.392 E38.99234
G1 X91.748 Y121.118 E39.05502
G1 X91.179 Y120.814 E39.11598
G1 X90.621 Y120.471 E39.17788
G1 X90.077 Y120.092 E39.24053
G1 X89.567 Y119.686 E39.30214
G1 X89.09 Y119.258 E39.3627
G1 X88.615 Y118.775 E39.42671
G1 X88.205 Y118.304 E39.48573
G1 X87.789 Y117.761 E39.55037
G1 X87.428 Y117.227 E39.61128
G1 X87.092 Y116.658 E39.67372
G1 X86.798 Y116.08 E39.73501
G1 X86.541 Y115.493 E39.79556
G1 X86.315 Y114.87 E39.85819
G1 X86.131 Y114.253 E39.91903
G1 X85.978 Y113.597 E39.98269
G1 X85.871 Y112.969 E40.04289
G1 X85.803 Y112.327 E40.1039
G1 X85.772 Y111.649 E40.16804
G1 X85.782 Y110.994 E40.22994
G1 X85.831 Y110.358 E40.29022
G1 X85.918 Y109.724 E40.3507
G1 X86.053 Y109.051 E40.41556
G1 X86.213 Y108.45 E40.47433
G1 X86.422 Y107.818 E40.53724
G1 X86.671 Y107.197 E40.60046
G1 X86.945 Y106.617 E40.66108
G1 X87.261 Y106.044 E40.72292
G1 X87.621 Y105.475 E40.78655
G1 X87.997 Y104.956 E40.84711
G1 X88.413 Y104.448 E40.90916
G1 X88.86 Y103.966 E40.97128
G1 X89.324 Y103.523 E41.03191
G1 X89.828 Y103.097 E41.09427
G1 X90.353 Y102.706 E41.15613
G1 X90.897 Y102.349 E41.21762
G1 X91.462 Y102.027 E41.27907
G1 X92.05 Y101.738 E41.34099
G1 X92.662 Y101.482 E41.40368
G1 X93.272 Y101.269 E41.46473
G1 X93.906 Y101.091 E41.52696
G1 X94.548 Y100.952 E41.58904
G1 X95.187 Y100.854 E41.65013
G1 X95.842 Y100.794 E41.71229
G1 X96.497 Y100.773 E41.77422
G1 X97.152 Y100.794 E41.83615
G1 X97.807 Y100.854 E41.8983
G1 X98.449 Y100.952 E41.95967
G1 X99.084 Y101.089 E42.02106
G1 X99.722 Y101.269 E42.08371
G1 X100.338 Y101.484 E42.14536
G1 X100.944 Y101.738 E42.20746
G1 X101.532 Y102.027 E42.26937
G1 X102.092 Y102.347 E42.33032
G1 X102.653 Y102.716 E42.39378
G1 X103.166 Y103.1 E42.45433
G1 X103.673 Y103.528 E42.51703
G1 X104.138 Y103.972 E42.57779
G1 X104.585 Y104.454 E42.63991
G1 X105.004 Y104.967 E42.70251
G1 X105.379 Y105.487 E42.76309
G1 X105.737 Y106.053 E42.82638
G1 X106.047 Y106.617 E42.8872
G1 X106.322 Y107.197 E42.94786
G1 X106.569 Y107.813 E43.01057
G1 X106.782 Y108.456 E43.07458
G1 X106.941 Y109.057 E43.13333
G1 X107.074 Y109.718 E43.19705
G1 X107.165 Y110.379 E43.2601
G1 X107.211 Y110.999 E43.31885
G1 X107.222 Y111.655 E43.38085
G1 X107.193 Y112.31 E43.44281
G1 X107.12 Y112.978 E43.50631
G1 X107.015 Y113.603 E43.5662
G1 X106.862 Y114.259 E43.62986
G1 X106.679 Y114.874 E43.6905
G1 X106.452 Y115.493 E43.7528
G1 X106.193 Y116.089 E43.81421
G1 X105.898 Y116.664 E43.87528
G1 X105.555 Y117.243 E43.93888
G1 X105.19 Y117.784 E44.00055
G1 X104.79 Y118.302 E44.0624
G1 X104.364 Y118.792 E44.12375
G1 X103.905 Y119.258 E44.18557
G1 X103.428 Y119.686 E44.24613
G1 X102.899 Y120.105 E44.3099
G1 X102.378 Y120.47 E44.37002
G1 X101.81 Y120.818 E44.43296
G1 X101.227 Y121.127 E44.49532
G1 X100.64 Y121.393 E44.55622
G1 X100.025 Y121.629 E44.61847
